; G-Code generated by Simplify3D(R) Version 4.0.0
; Apr 29, 2018 at 7:40:31 AM
; Settings Summary
;   processName,Process1
;   applyToModels,180-220 PLA Temp calibration
;   profileName,Tronxy P802 (modified)
;   profileVersion,2018-04-28 13:48:31
;   baseProfile,Default (modified)
;   printMaterial,PLA
;   printQuality,Medium
;   printExtruders,
;   extruderName,Primary Extruder
;   extruderToolheadNumber,0
;   extruderDiameter,0.4
;   extruderAutoWidth,0
;   extruderWidth,0.48
;   extrusionMultiplier,1
;   extruderUseRetract,1
;   extruderRetractionDistance,4.1
;   extruderExtraRestartDistance,0
;   extruderRetractionZLift,0
;   extruderRetractionSpeed,1800
;   extruderUseCoasting,1
;   extruderCoastingDistance,0.2
;   extruderUseWipe,1
;   extruderWipeDistance,5.4
;   primaryExtruder,0
;   layerHeight,0.2
;   topSolidLayers,2
;   bottomSolidLayers,2
;   perimeterOutlines,3
;   printPerimetersInsideOut,1
;   startPointOption,2
;   startPointOriginX,0
;   startPointOriginY,0
;   sequentialIslands,0
;   spiralVaseMode,0
;   firstLayerHeightPercentage,100
;   firstLayerWidthPercentage,100
;   firstLayerUnderspeed,0.5
;   useRaft,0
;   raftExtruder,0
;   raftTopLayers,3
;   raftBaseLayers,2
;   raftOffset,3
;   raftSeparationDistance,0.14
;   raftTopInfill,100
;   aboveRaftSpeedMultiplier,0.3
;   useSkirt,1
;   skirtExtruder,0
;   skirtLayers,1
;   skirtOutlines,2
;   skirtOffset,1.2
;   usePrimePillar,0
;   primePillarExtruder,999
;   primePillarWidth,12
;   primePillarLocation,7
;   primePillarSpeedMultiplier,1
;   useOozeShield,0
;   oozeShieldExtruder,999
;   oozeShieldOffset,2
;   oozeShieldOutlines,1
;   oozeShieldSidewallShape,1
;   oozeShieldSidewallAngle,30
;   oozeShieldSpeedMultiplier,1
;   infillExtruder,0
;   internalInfillPattern,Rectilinear
;   externalInfillPattern,Rectilinear
;   infillPercentage,95
;   outlineOverlapPercentage,18
;   infillExtrusionWidthPercentage,90
;   minInfillLength,5
;   infillLayerInterval,1
;   internalInfillAngles,45,-45
;   overlapInternalInfillAngles,0
;   externalInfillAngles,45,-45
;   generateSupport,0
;   supportExtruder,0
;   supportInfillPercentage,25
;   supportExtraInflation,0.4
;   supportBaseLayers,1
;   denseSupportExtruder,0
;   denseSupportLayers,2
;   denseSupportInfillPercentage,50
;   supportLayerInterval,1
;   supportHorizontalPartOffset,0.4
;   supportUpperSeparationLayers,1
;   supportLowerSeparationLayers,1
;   supportType,0
;   supportGridSpacing,2
;   maxOverhangAngle,50
;   supportAngles,0
;   temperatureName,Primary Extruder,Headed bed
;   temperatureNumber,0,1
;   temperatureSetpointCount,9,1
;   temperatureSetpointLayers,1,39,73,106,140,173,207,241,274,1
;   temperatureSetpointTemperatures,220,215,210,205,200,195,190,185,180,60
;   temperatureStabilizeAtStartup,1,1
;   temperatureHeatedBed,0,1
;   temperatureRelayBetweenLayers,0,0
;   temperatureRelayBetweenLoops,0,0
;   fanLayers,1,3
;   fanSpeeds,0,100
;   blipFanToFullPower,0
;   adjustSpeedForCooling,1
;   minSpeedLayerTime,15
;   minCoolingSpeedSlowdown,20
;   increaseFanForCooling,0
;   minFanLayerTime,45
;   maxCoolingFanSpeed,100
;   increaseFanForBridging,0
;   bridgingFanSpeed,100
;   use5D,1
;   relativeEdistances,0
;   allowEaxisZeroing,1
;   independentExtruderAxes,0
;   includeM10123,0
;   stickySupport,1
;   applyToolheadOffsets,0
;   gcodeXoffset,0
;   gcodeYoffset,0
;   gcodeZoffset,0
;   overrideMachineDefinition,0
;   machineTypeOverride,0
;   strokeXoverride,200
;   strokeYoverride,200
;   strokeZoverride,200
;   originOffsetXoverride,0
;   originOffsetYoverride,0
;   originOffsetZoverride,0
;   homeXdirOverride,-1
;   homeYdirOverride,-1
;   homeZdirOverride,-1
;   flipXoverride,1
;   flipYoverride,-1
;   flipZoverride,1
;   toolheadOffsets,0,0|0,0|0,0|0,0|0,0|0,0
;   overrideFirmwareConfiguration,0
;   firmwareTypeOverride,RepRap (Marlin/Repetier/Sprinter)
;   GPXconfigOverride,r2
;   baudRateOverride,115200
;   overridePrinterModels,0
;   printerModelsOverride
;   startingGcode,G28 ;Home,G1 E7 F200 ;Extrude 7MM fillament,,,
;   layerChangeGcode,
;   retractionGcode,
;   toolChangeGcode,
;   endingGcode,M104 S0,M140 S0,G92 E1,G1 E-1 F300,G28 X0 Y200,M84
;   exportFileFormat,gcode
;   celebration,0
;   celebrationSong,Random Song
;   postProcessing,
;   defaultSpeed,3000
;   outlineUnderspeed,0.5
;   solidInfillUnderspeed,0.8
;   supportUnderspeed,0.8
;   rapidXYspeed,4800
;   rapidZspeed,1002
;   minBridgingArea,50
;   bridgingExtraInflation,0
;   bridgingExtrusionMultiplier,1
;   bridgingSpeedMultiplier,1
;   useFixedBridgingAngle,0
;   fixedBridgingAngle,0
;   applyBridgingToPerimeters,0
;   filamentDiameters,1.75|1.75|1.75|1.75|1.75|1.75
;   filamentPricesPerKg,46|46|46|46|46|46
;   filamentDensities,1.25|1.25|1.25|1.25|1.25|1.25
;   useMinPrintHeight,0
;   minPrintHeight,10
;   useMaxPrintHeight,0
;   maxPrintHeight,20
;   useDiaphragm,0
;   diaphragmLayerInterval,20
;   robustSlicing,1
;   mergeAllIntoSolid,0
;   onlyRetractWhenCrossingOutline,1
;   retractBetweenLayers,1
;   useRetractionMinTravel,0
;   retractionMinTravel,3
;   retractWhileWiping,0
;   onlyWipeOutlines,1
;   avoidCrossingOutline,0
;   maxMovementDetourFactor,3
;   toolChangeRetractionDistance,12
;   toolChangeExtraRestartDistance,-0.5
;   toolChangeRetractionSpeed,600
;   externalThinWallType,0
;   internalThinWallType,0
;   thinWallAllowedOverlapPercentage,40
;   singleExtrusionMinLength,1
;   singleExtrusionMinPrintingWidthPercentage,50
;   singleExtrusionMaxPrintingWidthPercentage,200
;   singleExtrusionEndpointExtension,2
;   horizontalSizeCompensation,0
G90
M82
M106 S0
M140 S60
M190 S60
M104 S220 T0
M109 S220 T0
G28 ;Home
G1 E7 F200 ;Extrude 7MM fillament
G92 E0
G1 E-4.1000 F1800
G1 Z0.200 F1002
; process Process1
; layer 1, Z = 0.200
T0
; tool H0.200 W0.480
; skirt
G1 X86.095 Y100.190 F4800
G1 E0.0000 F540
G92 E0
G1 X86.360 Y100.080 E0.0114 F1500
G1 X127.640 Y100.080 E1.6590
G1 X127.905 Y100.190 E1.6705
G1 X128.810 Y101.095 E1.7216
G1 X128.920 Y101.360 E1.7330
G1 X128.920 Y112.640 E2.1832
G1 X128.810 Y112.905 E2.1947
G1 X127.905 Y113.810 E2.2458
G1 X127.640 Y113.920 E2.2572
G1 X86.360 Y113.920 E3.9048
G1 X86.095 Y113.810 E3.9162
G1 X85.190 Y112.905 E3.9673
G1 X85.080 Y112.640 E3.9788
G1 X85.080 Y101.360 E4.4290
G1 X85.190 Y101.095 E4.4404
G1 X85.954 Y100.331 E4.4836
G1 X86.095 Y100.190 F1500
G1 X86.367 Y100.597 F4800
G92 E0
G1 X86.455 Y100.560 E0.0038 F1500
G1 X127.545 Y100.560 E1.6438
G1 X127.633 Y100.597 E1.6476
G1 X128.403 Y101.367 E1.6911
G1 X128.440 Y101.455 E1.6949
G1 X128.440 Y112.545 E2.1375
G1 X128.403 Y112.633 E2.1413
G1 X127.633 Y113.403 E2.1848
G1 X127.545 Y113.440 E2.1886
G1 X86.455 Y113.440 E3.8286
G1 X86.367 Y113.403 E3.8324
G1 X85.597 Y112.633 E3.8759
G1 X85.560 Y112.545 E3.8797
G1 X85.560 Y101.455 E4.3223
G1 X85.597 Y101.367 E4.3261
G1 X86.226 Y100.738 E4.3616
G1 X86.367 Y100.597 F1500
G92 E0
G1 E-4.1000 F1800
; inner perimeter
G1 X88.200 Y103.200 F4800
G1 E0.0000 F1800
G92 E0
G1 X125.800 Y103.200 E1.5007 F1125
G1 X125.800 Y110.800 E1.8040
G1 X88.200 Y110.800 E3.3047
G1 X88.200 Y103.400 E3.6001
G1 X88.200 Y103.200 F1125
G1 X87.720 Y102.720 F4800
G92 E0
G1 X126.280 Y102.720 E1.5390 F1125
G1 X126.280 Y111.280 E1.8807
G1 X87.720 Y111.280 E3.4197
G1 X87.720 Y102.920 E3.7533
G1 X87.720 Y102.720 F1125
; outer perimeter
G1 X87.240 Y102.240 F4800
G92 E0
G1 X126.760 Y102.240 E1.5773 F750
G1 X126.760 Y111.760 E1.9573
G1 X87.240 Y111.760 E3.5346
G1 X87.240 Y102.440 E3.9066
G1 X87.240 Y102.240 F750
G1 X92.640 Y102.240 F3000
; solid layer
G1 X88.684 Y110.406 F4800
G92 E0
G1 X88.594 Y110.316 E0.0051 F1200
G1 X88.594 Y109.637 E0.0322
G1 X89.363 Y110.406 E0.0756
G1 X90.042 Y110.406 E0.1027
G1 X88.594 Y108.958 E0.1845
G1 X88.594 Y108.279 E0.2116
G1 X90.721 Y110.406 E0.3316
G1 X91.399 Y110.406 E0.3587
G1 X88.594 Y107.601 E0.5171
G1 X88.594 Y106.922 E0.5442
G1 X92.078 Y110.406 E0.7408
G1 X92.757 Y110.406 E0.7679
G1 X88.594 Y106.243 E1.0029
G1 X88.594 Y105.564 E1.0300
G1 X93.436 Y110.406 E1.3034
G1 X94.115 Y110.406 E1.3304
G1 X88.594 Y104.885 E1.6421
G1 X88.594 Y104.207 E1.6692
G1 X94.793 Y110.406 E2.0191
G1 X95.472 Y110.406 E2.0462
G1 X88.660 Y103.594 E2.4308
G1 X89.338 Y103.594 E2.4579
G1 X96.151 Y110.406 E2.8424
G1 X96.830 Y110.406 E2.8695
G1 X90.017 Y103.594 E3.2540
G1 X90.696 Y103.594 E3.2811
G1 X97.509 Y110.406 E3.6657
G1 X98.188 Y110.406 E3.6928
G1 X91.375 Y103.594 E4.0773
G1 X92.054 Y103.594 E4.1044
G1 X98.866 Y110.406 E4.4889
G1 X99.545 Y110.406 E4.5160
G1 X92.732 Y103.594 E4.9006
G1 X93.411 Y103.594 E4.9277
G1 X100.224 Y110.406 E5.3122
G1 X100.903 Y110.406 E5.3393
G1 X94.090 Y103.594 E5.7239
G1 X94.769 Y103.594 E5.7510
G1 X101.582 Y110.406 E6.1355
G1 X102.261 Y110.406 E6.1626
G1 X95.448 Y103.594 E6.5471
G1 X96.127 Y103.594 E6.5742
G1 X102.939 Y110.406 E6.9588
G1 X103.618 Y110.406 E6.9859
G1 X96.805 Y103.594 E7.3704
G1 X97.484 Y103.594 E7.3975
G1 X104.297 Y110.406 E7.7820
G1 X104.976 Y110.406 E7.8091
G1 X98.163 Y103.594 E8.1937
G1 X98.842 Y103.594 E8.2208
G1 X105.655 Y110.406 E8.6053
G1 X106.333 Y110.406 E8.6324
G1 X99.521 Y103.594 E9.0170
G1 X100.200 Y103.594 E9.0440
G1 X107.012 Y110.406 E9.4286
G1 X107.691 Y110.406 E9.4557
G1 X100.878 Y103.594 E9.8402
G1 X101.557 Y103.594 E9.8673
G1 X108.370 Y110.406 E10.2519
G1 X109.049 Y110.406 E10.2790
G1 X102.236 Y103.594 E10.6635
G1 X102.915 Y103.594 E10.6906
G1 X109.728 Y110.406 E11.0751
G1 X110.406 Y110.406 E11.1022
G1 X103.594 Y103.594 E11.4868
G1 X104.272 Y103.594 E11.5139
G1 X111.085 Y110.406 E11.8984
G1 X111.764 Y110.406 E11.9255
G1 X104.951 Y103.594 E12.3101
G1 X105.630 Y103.594 E12.3371
G1 X112.443 Y110.406 E12.7217
G1 X113.122 Y110.406 E12.7488
G1 X106.309 Y103.594 E13.1333
G1 X106.988 Y103.594 E13.1604
G1 X113.801 Y110.406 E13.5450
G1 X114.479 Y110.406 E13.5721
G1 X107.667 Y103.594 E13.9566
G1 X108.345 Y103.594 E13.9837
G1 X115.158 Y110.406 E14.3682
G1 X115.837 Y110.406 E14.3953
G1 X109.024 Y103.594 E14.7799
G1 X109.703 Y103.594 E14.8070
G1 X116.516 Y110.406 E15.1915
G1 X117.195 Y110.406 E15.2186
G1 X110.382 Y103.594 E15.6032
G1 X111.061 Y103.594 E15.6302
G1 X117.873 Y110.406 E16.0148
G1 X118.552 Y110.406 E16.0419
G1 X111.739 Y103.594 E16.4264
G1 X112.418 Y103.594 E16.4535
G1 X119.231 Y110.406 E16.8381
G1 X119.910 Y110.406 E16.8652
G1 X113.097 Y103.594 E17.2497
G1 X113.776 Y103.594 E17.2768
G1 X120.589 Y110.406 E17.6613
G1 X121.268 Y110.406 E17.6884
G1 X114.455 Y103.594 E18.0730
G1 X115.134 Y103.594 E18.1001
G1 X121.946 Y110.406 E18.4846
G1 X122.625 Y110.406 E18.5117
G1 X115.812 Y103.594 E18.8962
G1 X116.491 Y103.594 E18.9233
G1 X123.304 Y110.406 E19.3079
G1 X123.983 Y110.406 E19.3350
G1 X117.170 Y103.594 E19.7195
G1 X117.849 Y103.594 E19.7466
G1 X124.662 Y110.406 E20.1312
G1 X125.341 Y110.406 E20.1583
G1 X118.528 Y103.594 E20.5428
G1 X119.207 Y103.594 E20.5699
G1 X125.406 Y109.793 E20.9198
G1 X125.406 Y109.115 E20.9469
G1 X119.885 Y103.594 E21.2586
G1 X120.564 Y103.594 E21.2857
G1 X125.406 Y108.436 E21.5590
G1 X125.406 Y107.757 E21.5861
G1 X121.243 Y103.594 E21.8211
G1 X121.922 Y103.594 E21.8482
G1 X125.406 Y107.078 E22.0448
G1 X125.406 Y106.399 E22.0719
G1 X122.601 Y103.594 E22.2303
G1 X123.279 Y103.594 E22.2574
G1 X125.406 Y105.721 E22.3775
G1 X125.406 Y105.042 E22.4045
G1 X123.958 Y103.594 E22.4863
G1 X124.637 Y103.594 E22.5134
G1 X125.406 Y104.363 E22.5568
G1 X125.406 Y103.756 E22.5810
G1 X125.406 Y103.684 F1200
G1 X125.316 Y103.594 F1200
G92 E0
G1 E-4.1000 F1800
; layer 2, Z = 0.400
; inner perimeter
G1 X125.800 Y103.200 F4800
G1 Z0.400 F1002
G1 E0.0000 F1800
G92 E0
G1 X125.800 Y110.800 E0.3033 F2250
G1 X88.200 Y110.800 E1.8040
G1 X88.200 Y103.200 E2.1074
G1 X125.600 Y103.200 E3.6001
G1 X125.800 Y103.200 F2250
G1 X126.280 Y102.720 F4800
G92 E0
G1 X126.280 Y111.280 E0.3416 F2250
G1 X87.720 Y111.280 E1.8807
G1 X87.720 Y102.720 E2.2223
G1 X126.080 Y102.720 E3.7533
G1 X126.280 Y102.720 F2250
; outer perimeter
G1 X126.760 Y102.240 F4800
G92 E0
G1 X126.760 Y111.760 E0.3800 F1500
G1 X87.240 Y111.760 E1.9573
G1 X87.240 Y102.240 E2.3373
G1 X126.560 Y102.240 E3.9066
G1 X126.760 Y102.240 F1500
G1 X126.760 Y107.640 F3000
; solid layer
G1 X125.406 Y110.316 F4800
G92 E0
G1 X125.316 Y110.406 E0.0051 F2400
G1 X124.637 Y110.406 E0.0322
G1 X125.406 Y109.637 E0.0756
G1 X125.406 Y108.958 E0.1027
G1 X123.958 Y110.406 E0.1844
G1 X123.279 Y110.406 E0.2115
G1 X125.406 Y108.279 E0.3316
G1 X125.406 Y107.601 E0.3587
G1 X122.601 Y110.406 E0.5171
G1 X121.922 Y110.406 E0.5442
G1 X125.406 Y106.922 E0.7408
G1 X125.406 Y106.243 E0.7679
G1 X121.243 Y110.406 E1.0029
G1 X120.564 Y110.406 E1.0300
G1 X125.406 Y105.564 E1.3033
G1 X125.406 Y104.885 E1.3304
G1 X119.885 Y110.406 E1.6421
G1 X119.207 Y110.406 E1.6692
G1 X125.406 Y104.207 E2.0191
G1 X125.406 Y103.594 E2.0436
G1 X125.341 Y103.594 E2.0462
G1 X118.528 Y110.406 E2.4307
G1 X117.849 Y110.406 E2.4578
G1 X124.662 Y103.594 E2.8424
G1 X123.983 Y103.594 E2.8695
G1 X117.170 Y110.406 E3.2540
G1 X116.491 Y110.406 E3.2811
G1 X123.304 Y103.594 E3.6656
G1 X122.625 Y103.594 E3.6927
G1 X115.812 Y110.406 E4.0773
G1 X115.134 Y110.406 E4.1044
G1 X121.946 Y103.594 E4.4889
G1 X121.268 Y103.594 E4.5160
G1 X114.455 Y110.406 E4.9006
G1 X113.776 Y110.406 E4.9277
G1 X120.589 Y103.594 E5.3122
G1 X119.910 Y103.594 E5.3393
G1 X113.097 Y110.406 E5.7238
G1 X112.418 Y110.406 E5.7509
G1 X119.231 Y103.594 E6.1355
G1 X118.552 Y103.594 E6.1626
G1 X111.739 Y110.406 E6.5471
G1 X111.061 Y110.406 E6.5742
G1 X117.873 Y103.594 E6.9587
G1 X117.195 Y103.594 E6.9858
G1 X110.382 Y110.406 E7.3704
G1 X109.703 Y110.406 E7.3975
G1 X116.516 Y103.594 E7.7820
G1 X115.837 Y103.594 E7.8091
G1 X109.024 Y110.406 E8.1937
G1 X108.345 Y110.406 E8.2207
G1 X115.158 Y103.594 E8.6053
G1 X114.479 Y103.594 E8.6324
G1 X107.667 Y110.406 E9.0169
G1 X106.988 Y110.406 E9.0440
G1 X113.801 Y103.594 E9.4286
G1 X113.122 Y103.594 E9.4557
G1 X106.309 Y110.406 E9.8402
G1 X105.630 Y110.406 E9.8673
G1 X112.443 Y103.594 E10.2518
G1 X111.764 Y103.594 E10.2789
G1 X104.951 Y110.406 E10.6635
G1 X104.272 Y110.406 E10.6906
G1 X111.085 Y103.594 E11.0751
G1 X110.406 Y103.594 E11.1022
G1 X103.594 Y110.406 E11.4868
G1 X102.915 Y110.406 E11.5138
G1 X109.728 Y103.594 E11.8984
G1 X109.049 Y103.594 E11.9255
G1 X102.236 Y110.406 E12.3100
G1 X101.557 Y110.406 E12.3371
G1 X108.370 Y103.594 E12.7217
G1 X107.691 Y103.594 E12.7488
G1 X100.878 Y110.406 E13.1333
G1 X100.200 Y110.406 E13.1604
G1 X107.012 Y103.594 E13.5449
G1 X106.333 Y103.594 E13.5720
G1 X99.521 Y110.406 E13.9566
G1 X98.842 Y110.406 E13.9837
G1 X105.655 Y103.594 E14.3682
G1 X104.976 Y103.594 E14.3953
G1 X98.163 Y110.406 E14.7799
G1 X97.484 Y110.406 E14.8069
G1 X104.297 Y103.594 E15.1915
G1 X103.618 Y103.594 E15.2186
G1 X96.805 Y110.406 E15.6031
G1 X96.127 Y110.406 E15.6302
G1 X102.939 Y103.594 E16.0148
G1 X102.261 Y103.594 E16.0419
G1 X95.448 Y110.406 E16.4264
G1 X94.769 Y110.406 E16.4535
G1 X101.582 Y103.594 E16.8380
G1 X100.903 Y103.594 E16.8651
G1 X94.090 Y110.406 E17.2497
G1 X93.411 Y110.406 E17.2768
G1 X100.224 Y103.594 E17.6613
G1 X99.545 Y103.594 E17.6884
G1 X92.732 Y110.406 E18.0729
G1 X92.054 Y110.406 E18.1000
G1 X98.866 Y103.594 E18.4846
G1 X98.188 Y103.594 E18.5117
G1 X91.375 Y110.406 E18.8962
G1 X90.696 Y110.406 E18.9233
G1 X97.509 Y103.594 E19.3079
G1 X96.830 Y103.594 E19.3350
G1 X90.017 Y110.406 E19.7195
G1 X89.338 Y110.406 E19.7466
G1 X96.151 Y103.594 E20.1311
G1 X95.472 Y103.594 E20.1582
G1 X88.660 Y110.406 E20.5428
G1 X88.594 Y110.406 E20.5454
G1 X88.594 Y109.794 E20.5699
G1 X94.794 Y103.594 E20.9198
G1 X94.115 Y103.594 E20.9469
G1 X88.594 Y109.115 E21.2585
