;FLAVOR:Marlin
;TIME:2195
;Filament used: 1.40496m
;Layer height: 0.2
;MINX:103.175
;MINY:80.675
;MINZ:0.25
;MAXX:151.825
;MAXY:129.325
;MAXZ:39.85
;Generated with Cura_SteamEngine 4.9.0
M140 S60
M105
M190 S60
M104 S220
M105
M109 S220
M82 ;absolute extrusion mode
M220 S100 ;Reset Feedrate
M221 S100 ;Reset Flowrate
G28 ;Home
;Fix X0 Y0 being outside the bed after homing
G1 Z2.0 F3000 ;Move Z Axis up
G1 X1.3 Y4.8 ;Place the nozzle over the bed
;Code for nozzle cleaning and flow normalization
G92 E0 ;Reset Extruder
G1 Z2.0 F3000 ;Move Z Axis up
G1 X10.4 Y20 Z0.28 F5000.0
G1 X10.4 Y170.0 Z0.28 F1500.0 E15
G1 X10.1 Y170.0 Z0.28 F5000.0
G1 X10.1 Y40 Z0.28 F1500.0 E30
G92 E0 ;Reset Extruder
G1 Z2.0 F3000 ;Move Z Axis up
G92 E0
G92 E0
G1 F2700 E-6
;LAYER_COUNT:199
;LAYER:0
M107
G0 F9000 X104.136 Y82.403 Z0.25
;TYPE:SKIRT
G1 F2700 E0
G1 X104.383 Y82.132 E0.02075
G1 X104.632 Y81.883 E0.04068
G1 X105.065 Y81.506 E0.07317
G1 X105.547 Y81.194 E0.10567
G1 X106.067 Y80.95 E0.13818
G1 X106.616 Y80.782 E0.17067
G1 X107.183 Y80.691 E0.20317
G1 X107.549 Y80.675 E0.2239
G1 X147.451 Y80.675 E2.48212
G1 X148.024 Y80.715 E2.51463
G1 X148.585 Y80.834 E2.54709
G1 X149.125 Y81.03 E2.5796
G1 X149.632 Y81.299 E2.61208
G1 X150.097 Y81.636 E2.64458
G1 X150.368 Y81.883 E2.66533
G1 X150.617 Y82.132 E2.68526
G1 X150.994 Y82.565 E2.71775
G1 X151.306 Y83.047 E2.75025
G1 X151.55 Y83.567 E2.78275
G1 X151.718 Y84.116 E2.81525
G1 X151.809 Y84.683 E2.84775
G1 X151.825 Y85.049 E2.86848
G1 X151.825 Y124.951 E5.1267
G1 X151.785 Y125.524 E5.15921
G1 X151.666 Y126.085 E5.19166
G1 X151.47 Y126.625 E5.22418
G1 X151.201 Y127.132 E5.25666
G1 X150.864 Y127.597 E5.28916
G1 X150.617 Y127.868 E5.30991
G1 X150.368 Y128.117 E5.32984
G1 X149.935 Y128.494 E5.36233
G1 X149.453 Y128.806 E5.39483
G1 X148.933 Y129.05 E5.42733
G1 X148.384 Y129.218 E5.45983
G1 X147.817 Y129.309 E5.49233
G1 X147.451 Y129.325 E5.51306
G1 X107.549 Y129.325 E7.77128
G1 X106.976 Y129.285 E7.80379
G1 X106.415 Y129.166 E7.83624
G1 X105.875 Y128.97 E7.86876
G1 X105.368 Y128.701 E7.90124
G1 X104.903 Y128.364 E7.93374
G1 X104.632 Y128.117 E7.95449
G1 X104.383 Y127.868 E7.97442
G1 X104.006 Y127.435 E8.00691
G1 X103.694 Y126.953 E8.03941
G1 X103.45 Y126.433 E8.07191
G1 X103.282 Y125.884 E8.10441
G1 X103.191 Y125.317 E8.13691
G1 X103.175 Y124.951 E8.15764
G1 X103.175 Y85.049 E10.41586
G1 X103.215 Y84.476 E10.44837
G1 X103.334 Y83.915 E10.48082
G1 X103.53 Y83.375 E10.51333
G1 X103.799 Y82.868 E10.54582
G1 X104.136 Y82.403 E10.57832
G0 F9000 X104.772 Y82.521
G1 F2700 X105.021 Y82.272 E10.59825
G1 X105.426 Y81.924 E10.62847
G1 X105.879 Y81.639 E10.65876
G1 X106.369 Y81.426 E10.68899
G1 X106.885 Y81.287 E10.71924
G1 X107.549 Y81.225 E10.75698
G1 X147.451 Y81.225 E13.0152
G1 X147.984 Y81.265 E13.04545
G1 X148.505 Y81.384 E13.07569
G1 X149.002 Y81.579 E13.10591
G1 X149.465 Y81.846 E13.13616
G1 X149.979 Y82.272 E13.17394
G1 X150.228 Y82.521 E13.19387
G1 X150.576 Y82.926 E13.22409
G1 X150.861 Y83.379 E13.25438
G1 X151.074 Y83.869 E13.28461
G1 X151.213 Y84.385 E13.31486
G1 X151.275 Y85.049 E13.3526
G1 X151.275 Y124.951 E15.61082
G1 X151.235 Y125.484 E15.64107
G1 X151.116 Y126.005 E15.67132
G1 X150.921 Y126.502 E15.70153
G1 X150.654 Y126.965 E15.73178
G1 X150.228 Y127.479 E15.76956
G1 X149.979 Y127.728 E15.78949
G1 X149.574 Y128.076 E15.81971
G1 X149.121 Y128.361 E15.85
G1 X148.631 Y128.574 E15.88024
G1 X148.115 Y128.713 E15.91048
G1 X147.451 Y128.775 E15.94822
G1 X107.549 Y128.775 E18.20644
G1 X107.016 Y128.735 E18.23669
G1 X106.495 Y128.616 E18.26694
G1 X105.998 Y128.421 E18.29715
G1 X105.535 Y128.154 E18.3274
G1 X105.021 Y127.728 E18.36518
G1 X104.772 Y127.479 E18.38511
G1 X104.424 Y127.074 E18.41533
G1 X104.139 Y126.621 E18.44562
G1 X103.926 Y126.131 E18.47586
G1 X103.787 Y125.615 E18.5061
G1 X103.725 Y124.951 E18.54384
G1 X103.725 Y85.049 E20.80207
G1 X103.765 Y84.516 E20.83232
G1 X103.884 Y83.995 E20.86256
G1 X104.079 Y83.498 E20.89278
G1 X104.346 Y83.035 E20.92302
G1 X104.772 Y82.521 E20.9608
G0 F9000 X104.893 Y83.217
G1 F2700 X105.161 Y82.91 E20.98387
G1 X105.41 Y82.661 E21.0038
G1 X105.785 Y82.343 E21.03162
G1 X106.206 Y82.09 E21.05942
G1 X106.663 Y81.908 E21.08726
G1 X107.143 Y81.802 E21.11508
G1 X107.549 Y81.775 E21.13811
G1 X147.451 Y81.775 E23.39633
G1 X147.941 Y81.815 E23.42415
G1 X148.418 Y81.934 E23.45198
G1 X148.869 Y82.128 E23.47976
G1 X149.283 Y82.393 E23.50758
G1 X149.59 Y82.661 E23.53064
G1 X149.839 Y82.91 E23.55057
G1 X150.157 Y83.285 E23.5784
G1 X150.41 Y83.706 E23.6062
G1 X150.592 Y84.163 E23.63403
G1 X150.698 Y84.643 E23.66185
G1 X150.725 Y85.049 E23.68488
G1 X150.725 Y124.951 E25.9431
G1 X150.685 Y125.441 E25.97093
G1 X150.566 Y125.918 E25.99875
G1 X150.372 Y126.369 E26.02654
G1 X150.107 Y126.783 E26.05435
G1 X149.839 Y127.09 E26.07742
G1 X149.59 Y127.339 E26.09735
G1 X149.215 Y127.657 E26.12517
G1 X148.794 Y127.91 E26.15297
G1 X148.337 Y128.092 E26.18081
G1 X147.857 Y128.198 E26.20863
G1 X147.451 Y128.225 E26.23166
G1 X107.549 Y128.225 E28.48988
G1 X107.059 Y128.185 E28.5177
G1 X106.582 Y128.066 E28.54553
G1 X106.131 Y127.872 E28.57331
G1 X105.717 Y127.607 E28.60113
G1 X105.41 Y127.339 E28.62419
G1 X105.161 Y127.09 E28.64412
G1 X104.843 Y126.715 E28.67195
G1 X104.59 Y126.294 E28.69975
G1 X104.408 Y125.837 E28.72758
G1 X104.302 Y125.357 E28.7554
G1 X104.275 Y124.951 E28.77843
G1 X104.275 Y85.049 E31.03665
G1 X104.315 Y84.559 E31.06448
G1 X104.434 Y84.082 E31.0923
G1 X104.628 Y83.631 E31.12009
G1 X104.893 Y83.217 E31.1479
G0 F9000 X105.55 Y83.299
G1 F2700 X105.799 Y83.05 E31.16783
G1 X106.14 Y82.765 E31.19298
G1 X106.527 Y82.546 E31.21815
G1 X106.947 Y82.399 E31.24333
G1 X107.549 Y82.325 E31.27766
G1 X147.451 Y82.325 E33.53588
G1 X147.894 Y82.365 E33.56105
G1 X148.322 Y82.483 E33.58618
G1 X148.723 Y82.677 E33.61139
G1 X149.201 Y83.05 E33.64571
G1 X149.45 Y83.299 E33.66563
G1 X149.735 Y83.64 E33.69079
G1 X149.954 Y84.027 E33.71595
G1 X150.101 Y84.447 E33.74113
G1 X150.175 Y85.049 E33.77546
G1 X150.175 Y124.951 E36.03368
G1 X150.135 Y125.394 E36.05886
G1 X150.017 Y125.822 E36.08398
G1 X149.823 Y126.223 E36.10919
G1 X149.45 Y126.701 E36.14351
G1 X149.201 Y126.95 E36.16343
G1 X148.86 Y127.235 E36.18859
G1 X148.473 Y127.454 E36.21375
G1 X148.053 Y127.601 E36.23894
G1 X147.451 Y127.675 E36.27326
G1 X107.549 Y127.675 E38.53148
G1 X107.106 Y127.635 E38.55666
G1 X106.678 Y127.517 E38.58178
G1 X106.277 Y127.323 E38.60699
G1 X105.799 Y126.95 E38.64131
G1 X105.55 Y126.701 E38.66124
G1 X105.265 Y126.36 E38.68639
G1 X105.046 Y125.973 E38.71155
G1 X104.899 Y125.553 E38.73674
G1 X104.825 Y124.951 E38.77106
G1 X104.825 Y85.049 E41.02928
G1 X104.865 Y84.606 E41.05446
G1 X104.983 Y84.178 E41.07958
G1 X105.177 Y83.777 E41.10479
G1 X105.55 Y83.299 E41.13911
G0 F9000 X105.724 Y83.943
G1 F2700 X105.939 Y83.688 E41.15798
G1 X106.188 Y83.439 E41.17791
G1 X106.492 Y83.191 E41.20012
G1 X106.839 Y83.011 E41.22224
G1 X107.217 Y82.904 E41.24447
G1 X107.549 Y82.875 E41.26333
G1 X147.451 Y82.875 E43.52156
G1 X147.841 Y82.915 E43.54374
G1 X148.215 Y83.033 E43.56594
G1 X148.557 Y83.224 E43.58811
G1 X148.812 Y83.439 E43.60698
G1 X149.061 Y83.688 E43.62691
G1 X149.309 Y83.992 E43.64912
G1 X149.489 Y84.339 E43.67124
G1 X149.596 Y84.717 E43.69347
G1 X149.625 Y85.049 E43.71233
G1 X149.625 Y124.951 E45.97055
G1 X149.585 Y125.341 E45.99274
G1 X149.467 Y125.715 E46.01494
G1 X149.276 Y126.057 E46.03711
G1 X149.061 Y126.312 E46.05598
G1 X148.812 Y126.561 E46.07591
G1 X148.508 Y126.809 E46.09811
G1 X148.161 Y126.989 E46.12024
G1 X147.783 Y127.096 E46.14247
G1 X147.451 Y127.125 E46.16133
G1 X107.549 Y127.125 E48.41955
G1 X107.159 Y127.085 E48.44174
G1 X106.785 Y126.967 E48.46394
G1 X106.443 Y126.776 E48.48611
G1 X106.188 Y126.561 E48.50498
G1 X105.939 Y126.312 E48.52491
G1 X105.691 Y126.008 E48.54711
G1 X105.511 Y125.661 E48.56924
G1 X105.404 Y125.283 E48.59147
G1 X105.375 Y124.951 E48.61033
G1 X105.375 Y85.049 E50.86855
G1 X105.415 Y84.659 E50.89074
G1 X105.533 Y84.285 E50.91294
G1 X105.724 Y83.943 E50.9351
G0 F9000 X106.328 Y84.077
G1 F2700 X106.577 Y83.828 E50.95503
G1 X106.837 Y83.624 E50.97374
G1 X107.139 Y83.488 E50.99248
G1 X107.549 Y83.425 E51.01596
G1 X147.451 Y83.425 E53.27418
G1 X147.78 Y83.465 E53.29294
G1 X148.089 Y83.582 E53.31163
G1 X148.423 Y83.828 E53.33511
G1 X148.672 Y84.077 E53.35504
G1 X148.876 Y84.337 E53.37374
G1 X149.012 Y84.639 E53.39249
G1 X149.075 Y85.049 E53.41596
G1 X149.075 Y124.951 E55.67419
G1 X149.035 Y125.28 E55.69294
G1 X148.918 Y125.589 E55.71164
G1 X148.672 Y125.923 E55.73512
G1 X148.423 Y126.172 E55.75505
G1 X148.163 Y126.376 E55.77375
G1 X147.861 Y126.512 E55.79249
G1 X147.451 Y126.575 E55.81597
G1 X107.549 Y126.575 E58.07419
G1 X107.22 Y126.535 E58.09295
G1 X106.911 Y126.418 E58.11165
G1 X106.577 Y126.172 E58.13512
G1 X106.328 Y125.923 E58.15505
G1 X106.124 Y125.663 E58.17376
G1 X105.988 Y125.361 E58.1925
G1 X105.925 Y124.951 E58.21598
G1 X105.925 Y85.049 E60.4742
G1 X105.965 Y84.72 E60.49295
G1 X106.082 Y84.411 E60.51165
G1 X106.328 Y84.077 E60.53513
G0 F9000 X106.63 Y84.567
G1 F2700 X106.717 Y84.466 E60.54267
G1 X106.966 Y84.217 E60.5626
G1 X107.173 Y84.066 E60.5771
G1 X107.416 Y83.986 E60.59158
G1 X107.549 Y83.975 E60.59914
G1 X147.451 Y83.975 E62.85736
G1 X147.704 Y84.015 E62.87185
G1 X147.933 Y84.13 E62.88636
G1 X148.034 Y84.217 E62.8939
G1 X148.283 Y84.466 E62.91383
G1 X148.434 Y84.673 E62.92833
G1 X148.514 Y84.916 E62.94281
G1 X148.525 Y85.049 E62.95036
G1 X148.525 Y124.951 E65.20858
G1 X148.485 Y125.204 E65.22308
G1 X148.37 Y125.433 E65.23758
G1 X148.283 Y125.534 E65.24513
G1 X148.034 Y125.783 E65.26505
G1 X147.827 Y125.934 E65.27955
G1 X147.584 Y126.014 E65.29403
G1 X147.451 Y126.025 E65.30159
G1 X107.549 Y126.025 E67.55981
G1 X107.296 Y125.985 E67.5743
G1 X107.067 Y125.87 E67.58881
G1 X106.966 Y125.783 E67.59635
G1 X106.717 Y125.534 E67.61628
G1 X106.566 Y125.327 E67.63078
G1 X106.486 Y125.084 E67.64526
G1 X106.475 Y124.951 E67.65281
G1 X106.475 Y85.049 E69.91103
G1 X106.515 Y84.796 E69.92553
G1 X106.63 Y84.567 E69.94003
G0 F9000 X107.106 Y84.855
G1 F2700 X107.355 Y84.606 E69.95996
G1 X107.549 Y84.525 E69.97186
G1 X147.451 Y84.525 E72.23008
G1 X147.645 Y84.606 E72.24198
G1 X147.894 Y84.855 E72.26191
G1 X147.975 Y85.049 E72.27381
G1 X147.975 Y124.951 E74.53203
G1 X147.894 Y125.145 E74.54393
G1 X147.645 Y125.394 E74.56385
G1 X147.451 Y125.475 E74.57575
G1 X107.549 Y125.475 E76.83397
G1 X107.355 Y125.394 E76.84587
G1 X107.106 Y125.145 E76.8658
G1 X107.025 Y124.951 E76.8777
G1 X107.025 Y85.049 E79.13592
G1 X107.106 Y84.855 E79.14782
G1 F2700 E73.14782
;MESH:Cubo40.stl
G0 F9000 X107.96 Y85.46
G0 X107.937 Y124.593
G0 X107.725 Y124.775
;TYPE:WALL-OUTER
G1 F2700 E79.14782
G1 X107.725 Y85.225 E80.97915
G1 X147.275 Y85.225 E82.81049
G1 X147.275 Y124.775 E84.64183
G1 X107.725 Y124.775 E86.47317
G0 F9000 X108.14 Y124.36
;TYPE:SKIN
G1 F2700 X108.14 Y85.64 E88.06686
G1 X146.86 Y85.64 E89.66055
G1 X146.86 Y124.36 E91.25424
G1 X108.14 Y124.36 E92.84794
G0 F9000 X108.363 Y124.202
G1 F2700 X108.296 Y124.135 E92.85184
G0 F9000 X108.296 Y123.569
G1 F2700 X108.929 Y124.202 E92.88868
G0 F9000 X109.494 Y124.202
G1 F2700 X108.296 Y123.004 E92.95841
G0 F9000 X108.296 Y122.438
G1 F2700 X110.06 Y124.202 E93.06109
G0 F9000 X110.626 Y124.202
G1 F2700 X108.296 Y121.872 E93.19672
G0 F9000 X108.296 Y121.306
G1 F2700 X111.191 Y124.202 E93.36526
G0 F9000 X111.757 Y124.202
G1 F2700 X108.296 Y120.741 E93.56672
G0 F9000 X108.296 Y120.175
G1 F2700 X112.323 Y124.202 E93.80112
G0 F9000 X112.888 Y124.202
G1 F2700 X108.296 Y119.609 E94.06845
G0 F9000 X108.296 Y119.044
G1 F2700 X113.454 Y124.202 E94.36868
G0 F9000 X114.02 Y124.202
G1 F2700 X108.296 Y118.478 E94.70187
G0 F9000 X108.296 Y117.912
G1 F2700 X114.585 Y124.202 E95.06797
G0 F9000 X115.151 Y124.202
G1 F2700 X108.296 Y117.347 E95.46698
G0 F9000 X108.296 Y116.781
G1 F2700 X115.717 Y124.202 E95.89895
G0 F9000 X116.283 Y124.202
G1 F2700 X108.296 Y116.215 E96.36386
G0 F9000 X108.296 Y115.65
G1 F2700 X116.848 Y124.202 E96.86165
G0 F9000 X117.414 Y124.202
G1 F2700 X108.296 Y115.084 E97.3924
G0 F9000 X108.296 Y114.518
G1 F2700 X117.98 Y124.202 E97.95608
G0 F9000 X118.545 Y124.202
G1 F2700 X108.296 Y113.953 E98.55266
G0 F9000 X108.296 Y113.387
G1 F2700 X119.111 Y124.202 E99.18218
G0 F9000 X119.677 Y124.202
G1 F2700 X108.296 Y112.821 E99.84465
G0 F9000 X108.296 Y112.256
G1 F2700 X120.242 Y124.202 E100.54
G0 F9000 X120.808 Y124.202
G1 F2700 X108.296 Y111.69 E101.26831
G0 F9000 X108.296 Y111.124
G1 F2700 X121.374 Y124.202 E102.02955
G0 F9000 X121.939 Y124.202
G1 F2700 X108.296 Y110.558 E102.82372
G0 F9000 X108.296 Y109.993
G1 F2700 X122.505 Y124.202 E103.6508
G0 F9000 X123.071 Y124.202
G1 F2700 X108.296 Y109.427 E104.51082
G0 F9000 X108.296 Y108.861
G1 F2700 X123.636 Y124.202 E105.40377
G0 F9000 X124.202 Y124.202
G1 F2700 X108.296 Y108.296 E106.32963
G0 F9000 X108.296 Y107.73
G1 F2700 X124.768 Y124.202 E107.28843
G0 F9000 X125.333 Y124.202
G1 F2700 X108.296 Y107.164 E108.28015
G0 F9000 X108.296 Y106.599
G1 F2700 X125.899 Y124.202 E109.30479
G0 F9000 X126.465 Y124.202
G1 F2700 X108.296 Y106.033 E110.36238
G0 F9000 X108.296 Y105.467
G1 F2700 X127.031 Y124.202 E111.45291
G0 F9000 X127.596 Y124.202
G1 F2700 X108.296 Y104.902 E112.57633
G0 F9000 X108.296 Y104.336
G1 F2700 X128.162 Y124.202 E113.73269
G0 F9000 X128.728 Y124.202
G1 F2700 X108.296 Y103.77 E114.922
G0 F9000 X108.296 Y103.205
G1 F2700 X129.293 Y124.202 E116.1442
G0 F9000 X129.859 Y124.202
G1 F2700 X108.296 Y102.639 E117.39934
G0 F9000 X108.296 Y102.073
G1 F2700 X130.425 Y124.202 E118.68743
G0 F9000 X130.99 Y124.202
G1 F2700 X108.296 Y101.508 E120.00841
G0 F9000 X108.296 Y100.942
G1 F2700 X131.556 Y124.202 E121.36233
G0 F9000 X132.122 Y124.202
G1 F2700 X108.296 Y100.376 E122.7492
G0 F9000 X108.296 Y99.81
G1 F2700 X132.687 Y124.202 E124.16899
G0 F9000 X133.253 Y124.202
G1 F2700 X108.296 Y99.245 E125.62169
G0 F9000 X108.296 Y98.679
G1 F2700 X133.819 Y124.202 E127.10734
G0 F9000 X134.384 Y124.202
G1 F2700 X108.296 Y98.113 E128.6259
G0 F9000 X108.296 Y97.548
G1 F2700 X134.95 Y124.202 E130.17738
G0 F9000 X135.516 Y124.202
G1 F2700 X108.296 Y96.982 E131.76181
G0 F9000 X108.296 Y96.416
G1 F2700 X136.081 Y124.202 E133.37915
G0 F9000 X136.647 Y124.202
G1 F2700 X108.296 Y95.851 E135.02941
G0 F9000 X108.296 Y95.285
G1 F2700 X137.213 Y124.202 E136.71262
G0 F9000 X137.779 Y124.202
G1 F2700 X108.296 Y94.719 E138.42877
G0 F9000 X108.296 Y94.154
G1 F2700 X138.344 Y124.202 E140.17781
G0 F9000 X138.91 Y124.202
G1 F2700 X108.296 Y93.588 E141.9598
G0 F9000 X108.296 Y93.022
G1 F2700 X139.476 Y124.202 E143.77473
G0 F9000 X140.041 Y124.202
G1 F2700 X108.296 Y92.457 E145.62255
G0 F9000 X108.296 Y91.891
G1 F2700 X140.607 Y124.202 E147.50332
G0 F9000 X141.173 Y124.202
G1 F2700 X108.296 Y91.325 E149.41703
G0 F9000 X108.296 Y90.759
G1 F2700 X141.738 Y124.202 E151.36366
G0 F9000 X142.304 Y124.202
G1 F2700 X108.296 Y90.194 E153.3432
G0 F9000 X108.296 Y89.628
G1 F2700 X142.87 Y124.202 E155.35569
G0 F9000 X143.435 Y124.202
G1 F2700 X108.296 Y89.062 E157.4011
G0 F9000 X108.296 Y88.497
G1 F2700 X144.001 Y124.202 E159.47942
G0 F9000 X144.567 Y124.202
G1 F2700 X108.296 Y87.931 E161.59069
G0 F9000 X108.296 Y87.365
G1 F2700 X145.132 Y124.202 E163.73488
G0 F9000 X145.698 Y124.202
G1 F2700 X108.296 Y86.8 E165.91198
G0 F9000 X108.296 Y86.234
G1 F2700 X146.264 Y124.202 E168.12203
G0 F9000 X146.702 Y124.075
G1 F2700 X108.424 Y85.797 E170.35012
G0 F9000 X108.99 Y85.797
G1 F2700 X146.702 Y123.509 E172.54527
G0 F9000 X146.702 Y122.943
G1 F2700 X109.556 Y85.797 E174.70747
G0 F9000 X110.121 Y85.797
G1 F2700 X146.702 Y122.378 E176.83679
G0 F9000 X146.702 Y121.812
G1 F2700 X110.687 Y85.797 E178.93316
G0 F9000 X111.253 Y85.797
G1 F2700 X146.702 Y121.246 E180.99658
G0 F9000 X146.702 Y120.681
G1 F2700 X111.819 Y85.797 E183.02709
G0 F9000 X112.384 Y85.797
G1 F2700 X146.702 Y120.115 E185.02468
G0 F9000 X146.702 Y119.549
G1 F2700 X112.95 Y85.797 E186.98932
G0 F9000 X113.516 Y85.797
G1 F2700 X146.702 Y118.984 E188.92105
G0 F9000 X146.702 Y118.418
G1 F2700 X114.081 Y85.797 E190.81986
G0 F9000 X114.647 Y85.797
G1 F2700 X146.702 Y117.852 E192.68572
