;FLAVOR:Marlin
;TIME:3894
;Filament used: 6.22884m
;Layer height: 0.2
;MINX:103.175
;MINY:80.675
;MINZ:0.25
;MAXX:151.825
;MAXY:129.325
;MAXZ:39.85
;Generated with Cura_SteamEngine 4.9.0
M140 S60
M105
M190 S60
M104 S215
M105
M109 S215
M82 ;absolute extrusion mode
M220 S100 ;Reset Feedrate
M221 S100 ;Reset Flowrate
G28 ;Home
;Fix X0 Y0 being outside the bed after homing
G1 Z2.0 F3000 ;Move Z Axis up
G1 X1.3 Y4.8 ;Place the nozzle over the bed
;Code for nozzle cleaning and flow normalization
G92 E0 ;Reset Extruder
G1 Z2.0 F3000 ;Move Z Axis up
G1 X10.4 Y20 Z0.28 F5000.0
G1 X10.4 Y170.0 Z0.28 F1500.0 E15
G1 X10.1 Y170.0 Z0.28 F5000.0
G1 X10.1 Y40 Z0.28 F1500.0 E30
G92 E0 ;Reset Extruder
G1 Z2.0 F3000 ;Move Z Axis up
G92 E0
G92 E0
G1 F2700 E-6
;LAYER_COUNT:199
;LAYER:0
M107
G0 F9000 X104.136 Y82.154 Z0.25
;TYPE:SKIRT
G1 F2700 E0
G1 X104.534 Y81.74 E0.03345
G1 X104.985 Y81.386 E0.06684
G1 X105.482 Y81.097 E0.10032
G1 X106.013 Y80.881 E0.13371
G1 X106.57 Y80.74 E0.16717
G1 X107.3 Y80.675 E0.20985
G1 X147.7 Y80.675 E2.56277
G1 X148.273 Y80.715 E2.59622
G1 X148.834 Y80.834 E2.62962
G1 X149.374 Y81.03 E2.66308
G1 X149.881 Y81.299 E2.6965
G1 X150.346 Y81.636 E2.72995
G1 X150.76 Y82.034 E2.7634
G1 X151.114 Y82.485 E2.79679
G1 X151.403 Y82.982 E2.83027
G1 X151.619 Y83.513 E2.86366
G1 X151.76 Y84.07 E2.89712
G1 X151.825 Y84.8 E2.9398
G1 X151.825 Y125.2 E5.29272
G1 X151.785 Y125.773 E5.32617
G1 X151.666 Y126.334 E5.35957
G1 X151.47 Y126.874 E5.39303
G1 X151.201 Y127.381 E5.42645
G1 X150.864 Y127.846 E5.4599
G1 X150.466 Y128.26 E5.49335
G1 X150.015 Y128.614 E5.52674
G1 X149.518 Y128.903 E5.56022
G1 X148.987 Y129.119 E5.59361
G1 X148.43 Y129.26 E5.62707
G1 X147.7 Y129.325 E5.66975
G1 X107.3 Y129.325 E8.02267
G1 X106.727 Y129.285 E8.05612
G1 X106.166 Y129.166 E8.08952
G1 X105.626 Y128.97 E8.12298
G1 X105.119 Y128.701 E8.1564
G1 X104.654 Y128.364 E8.18985
G1 X104.24 Y127.966 E8.2233
G1 X103.886 Y127.515 E8.25669
G1 X103.597 Y127.018 E8.29017
G1 X103.381 Y126.487 E8.32356
G1 X103.24 Y125.93 E8.35702
G1 X103.175 Y125.2 E8.3997
G1 X103.175 Y84.8 E10.75262
G1 X103.215 Y84.227 E10.78607
G1 X103.334 Y83.666 E10.81947
G1 X103.53 Y83.126 E10.85293
G1 X103.799 Y82.619 E10.88635
G1 X104.136 Y82.154 E10.9198
G0 F9000 X104.68 Y82.368
G1 F2700 X105.071 Y82.005 E10.95087
G1 X105.513 Y81.704 E10.98202
G1 X105.995 Y81.472 E11.01317
G1 X106.505 Y81.314 E11.04427
G1 X107.3 Y81.225 E11.09086
G1 X147.7 Y81.225 E13.44377
G1 X148.233 Y81.265 E13.4749
G1 X148.754 Y81.384 E13.50602
G1 X149.251 Y81.579 E13.53712
G1 X149.714 Y81.846 E13.56824
G1 X150.132 Y82.18 E13.59941
G1 X150.495 Y82.571 E13.63048
G1 X150.796 Y83.013 E13.66162
G1 X151.028 Y83.495 E13.69278
G1 X151.186 Y84.005 E13.72387
G1 X151.275 Y84.8 E13.77046
G1 X151.275 Y125.2 E16.12338
G1 X151.235 Y125.733 E16.15451
G1 X151.116 Y126.254 E16.18563
G1 X150.921 Y126.751 E16.21672
G1 X150.654 Y127.214 E16.24785
G1 X150.32 Y127.632 E16.27901
G1 X149.929 Y127.995 E16.31009
G1 X149.487 Y128.296 E16.34123
G1 X149.005 Y128.528 E16.37238
G1 X148.495 Y128.686 E16.40348
G1 X147.7 Y128.775 E16.45007
G1 X107.3 Y128.775 E18.80298
G1 X106.767 Y128.735 E18.83411
G1 X106.246 Y128.616 E18.86524
G1 X105.749 Y128.421 E18.89633
G1 X105.286 Y128.154 E18.92746
G1 X104.868 Y127.82 E18.95862
G1 X104.505 Y127.429 E18.98969
G1 X104.204 Y126.987 E19.02084
G1 X103.972 Y126.505 E19.05199
G1 X103.814 Y125.995 E19.08309
G1 X103.725 Y125.2 E19.12968
G1 X103.725 Y84.8 E21.48259
G1 X103.765 Y84.267 E21.51372
G1 X103.884 Y83.746 E21.54484
G1 X104.079 Y83.249 E21.57594
G1 X104.346 Y82.786 E21.60707
G1 X104.68 Y82.368 E21.63823
G0 F9000 X104.893 Y82.968
G1 F2700 X105.222 Y82.602 E21.66689
G1 X105.605 Y82.294 E21.69551
G1 X106.033 Y82.053 E21.72412
G1 X106.495 Y81.884 E21.75277
G1 X106.978 Y81.792 E21.78141
G1 X107.3 Y81.775 E21.80019
G1 X147.7 Y81.775 E24.1531
G1 X148.19 Y81.815 E24.18173
G1 X148.667 Y81.934 E24.21036
G1 X149.118 Y82.128 E24.23896
G1 X149.532 Y82.393 E24.26758
G1 X149.898 Y82.722 E24.29625
G1 X150.206 Y83.105 E24.32487
G1 X150.447 Y83.533 E24.35348
G1 X150.616 Y83.995 E24.38213
G1 X150.708 Y84.478 E24.41076
G1 X150.725 Y84.8 E24.42954
G1 X150.725 Y125.2 E26.78246
G1 X150.685 Y125.69 E26.81109
G1 X150.566 Y126.167 E26.83972
G1 X150.372 Y126.618 E26.86831
G1 X150.107 Y127.032 E26.89694
G1 X149.778 Y127.398 E26.9256
G1 X149.395 Y127.706 E26.95423
G1 X148.967 Y127.947 E26.98284
G1 X148.505 Y128.116 E27.01149
G1 X148.022 Y128.208 E27.04012
G1 X147.7 Y128.225 E27.0589
G1 X107.3 Y128.225 E29.41181
G1 X106.81 Y128.185 E29.44045
G1 X106.333 Y128.066 E29.46908
G1 X105.882 Y127.872 E29.49767
G1 X105.468 Y127.607 E29.5263
G1 X105.102 Y127.278 E29.55496
G1 X104.794 Y126.895 E29.58359
G1 X104.553 Y126.467 E29.61219
G1 X104.384 Y126.005 E29.64084
G1 X104.292 Y125.522 E29.66948
G1 X104.275 Y125.2 E29.68826
G1 X104.275 Y84.8 E32.04117
G1 X104.315 Y84.31 E32.0698
G1 X104.434 Y83.833 E32.09844
G1 X104.628 Y83.382 E32.12703
G1 X104.893 Y82.968 E32.15566
G0 F9000 X105.438 Y83.169
G1 F2700 X105.76 Y82.862 E32.18157
G1 X106.131 Y82.618 E32.20743
G1 X106.541 Y82.444 E32.23337
G1 X106.974 Y82.347 E32.25921
G1 X107.3 Y82.325 E32.27824
G1 X147.7 Y82.325 E34.63116
G1 X148.143 Y82.365 E34.65706
G1 X148.571 Y82.483 E34.68292
G1 X148.972 Y82.677 E34.70886
G1 X149.331 Y82.938 E34.73471
G1 X149.638 Y83.26 E34.76062
G1 X149.882 Y83.631 E34.78648
G1 X150.056 Y84.041 E34.81242
G1 X150.153 Y84.474 E34.83827
G1 X150.175 Y84.8 E34.8573
G1 X150.175 Y125.2 E37.21021
G1 X150.135 Y125.643 E37.23611
G1 X150.017 Y126.071 E37.26197
G1 X149.823 Y126.472 E37.28792
G1 X149.562 Y126.831 E37.31377
G1 X149.24 Y127.138 E37.33968
G1 X148.869 Y127.382 E37.36554
G1 X148.459 Y127.556 E37.39148
G1 X148.026 Y127.653 E37.41732
G1 X147.7 Y127.675 E37.43635
G1 X107.3 Y127.675 E39.78926
G1 X106.857 Y127.635 E39.81517
G1 X106.429 Y127.517 E39.84103
G1 X106.028 Y127.323 E39.86697
G1 X105.669 Y127.062 E39.89282
G1 X105.362 Y126.74 E39.91873
G1 X105.118 Y126.369 E39.94459
G1 X104.944 Y125.959 E39.97053
G1 X104.847 Y125.526 E39.99637
G1 X104.825 Y125.2 E40.0154
G1 X104.825 Y84.8 E42.36832
G1 X104.865 Y84.357 E42.39422
G1 X104.983 Y83.929 E42.42008
G1 X105.177 Y83.528 E42.44602
G1 X105.438 Y83.169 E42.47187
G0 F9000 X105.724 Y83.694
G1 F2700 X105.981 Y83.398 E42.4947
G1 X106.292 Y83.16 E42.51751
G1 X106.645 Y82.99 E42.54033
G1 X107.025 Y82.895 E42.56314
G1 X107.3 Y82.875 E42.5792
G1 X147.7 Y82.875 E44.93211
G1 X148.09 Y82.915 E44.95495
G1 X148.464 Y83.033 E44.97779
G1 X148.806 Y83.224 E45.0006
G1 X149.102 Y83.481 E45.02343
G1 X149.34 Y83.792 E45.04624
G1 X149.51 Y84.145 E45.06906
G1 X149.605 Y84.525 E45.09187
G1 X149.625 Y84.8 E45.10793
G1 X149.625 Y125.2 E47.46084
G1 X149.585 Y125.59 E47.48367
G1 X149.467 Y125.964 E47.50651
G1 X149.276 Y126.306 E47.52933
G1 X149.019 Y126.602 E47.55216
G1 X148.708 Y126.84 E47.57497
G1 X148.355 Y127.01 E47.59778
G1 X147.975 Y127.105 E47.6206
G1 X147.7 Y127.125 E47.63666
G1 X107.3 Y127.125 E49.98957
G1 X106.91 Y127.085 E50.0124
G1 X106.536 Y126.967 E50.03524
G1 X106.194 Y126.776 E50.05806
G1 X105.898 Y126.519 E50.08089
G1 X105.66 Y126.208 E50.10369
G1 X105.49 Y125.855 E50.12651
G1 X105.395 Y125.475 E50.14932
G1 X105.375 Y125.2 E50.16538
G1 X105.375 Y84.8 E52.5183
G1 X105.415 Y84.41 E52.54113
G1 X105.533 Y84.036 E52.56397
G1 X105.724 Y83.694 E52.58678
G0 F9000 X106.27 Y83.889
G1 F2700 X106.518 Y83.669 E52.60609
G1 X106.81 Y83.515 E52.62532
G1 X107.132 Y83.435 E52.64464
G1 X107.3 Y83.425 E52.65444
G1 X147.7 Y83.425 E55.00735
G1 X148.029 Y83.465 E55.02666
G1 X148.338 Y83.582 E55.0459
G1 X148.611 Y83.77 E55.0652
G1 X148.831 Y84.018 E55.08451
G1 X148.985 Y84.31 E55.10374
G1 X149.065 Y84.632 E55.12306
G1 X149.075 Y84.8 E55.13286
G1 X149.075 Y125.2 E57.48578
G1 X149.035 Y125.529 E57.50508
G1 X148.918 Y125.838 E57.52432
G1 X148.73 Y126.111 E57.54363
G1 X148.482 Y126.331 E57.56293
G1 X148.19 Y126.485 E57.58216
G1 X147.868 Y126.565 E57.60148
G1 X147.7 Y126.575 E57.61129
G1 X107.3 Y126.575 E59.9642
G1 X106.971 Y126.535 E59.9835
G1 X106.662 Y126.418 E60.00274
G1 X106.389 Y126.23 E60.02205
G1 X106.169 Y125.982 E60.04136
G1 X106.015 Y125.69 E60.06058
G1 X105.935 Y125.368 E60.07991
G1 X105.925 Y125.2 E60.08971
G1 X105.925 Y84.8 E62.44262
G1 X105.965 Y84.471 E62.46192
G1 X106.082 Y84.162 E62.48117
G1 X106.27 Y83.889 E62.50047
G0 F9000 X106.63 Y84.318
G1 F2700 X106.81 Y84.136 E62.51538
G1 X107.037 Y84.018 E62.53028
G1 X107.3 Y83.975 E62.5458
G1 X147.7 Y83.975 E64.89871
G1 X147.953 Y84.015 E64.91363
G1 X148.182 Y84.13 E64.92855
G1 X148.364 Y84.31 E64.94346
G1 X148.482 Y84.537 E64.95836
G1 X148.525 Y84.8 E64.97388
G1 X148.525 Y125.2 E67.3268
G1 X148.485 Y125.453 E67.34171
G1 X148.37 Y125.682 E67.35664
G1 X148.19 Y125.864 E67.37155
G1 X147.963 Y125.982 E67.38645
G1 X147.7 Y126.025 E67.40197
G1 X107.3 Y126.025 E69.75488
G1 X107.047 Y125.985 E69.7698
G1 X106.818 Y125.87 E69.78472
G1 X106.636 Y125.69 E69.79963
G1 X106.518 Y125.463 E69.81453
G1 X106.475 Y125.2 E69.83005
G1 X106.475 Y84.8 E72.18296
G1 X106.515 Y84.547 E72.19788
G1 X106.63 Y84.318 E72.2128
G0 F9000 X107.064 Y84.658
G1 F2700 X107.171 Y84.557 E72.22137
G1 X107.3 Y84.525 E72.22911
G1 X147.7 Y84.525 E74.58203
G1 X147.842 Y84.564 E74.5906
G1 X147.943 Y84.671 E74.59917
G1 X147.975 Y84.8 E74.60691
G1 X147.975 Y125.2 E76.95983
G1 X147.936 Y125.342 E76.9684
G1 X147.829 Y125.443 E76.97697
G1 X147.7 Y125.475 E76.98471
G1 X107.3 Y125.475 E79.33762
G1 X107.158 Y125.436 E79.3462
G1 X107.057 Y125.329 E79.35477
G1 X107.025 Y125.2 E79.36251
G1 X107.025 Y84.8 E81.71542
G1 X107.064 Y84.658 E81.724
G1 F2700 E75.724
;MESH:Cubo40.stl
G0 F9000 X108.41 Y85.91
G0 X108.05 Y124.48
G0 X107.725 Y124.775
;TYPE:WALL-OUTER
G1 F2700 E81.724
G1 X107.725 Y85.225 E83.60861
G1 X147.275 Y85.225 E85.49321
G1 X147.275 Y124.775 E87.37782
G1 X107.725 Y124.775 E89.26243
G0 F9000 X108.175 Y124.325
;TYPE:WALL-INNER
G1 F2700 X108.175 Y85.675 E91.10415
G1 X146.825 Y85.675 E92.94587
G1 X146.825 Y124.325 E94.78759
G1 X108.175 Y124.325 E96.62931
G0 F9000 X108.59 Y123.91
;TYPE:SKIN
G1 F2700 X108.59 Y86.09 E98.23124
G1 X146.41 Y86.09 E99.83316
G1 X146.41 Y123.91 E101.43509
G1 X108.59 Y123.91 E103.03702
G0 F9000 X109.044 Y123.752
G1 F2700 X108.746 Y123.454 E103.05487
G0 F9000 X108.746 Y122.888
G1 F2700 X109.61 Y123.752 E103.10663
G0 F9000 X110.175 Y123.752
G1 F2700 X108.746 Y122.323 E103.19223
G0 F9000 X108.746 Y121.757
G1 F2700 X110.741 Y123.752 E103.31173
G0 F9000 X111.307 Y123.752
G1 F2700 X108.746 Y121.191 E103.46514
G0 F9000 X108.746 Y120.626
G1 F2700 X111.872 Y123.752 E103.65239
G0 F9000 X112.438 Y123.752
G1 F2700 X108.746 Y120.06 E103.87354
G0 F9000 X108.746 Y119.494
G1 F2700 X113.004 Y123.752 E104.1286
G0 F9000 X113.569 Y123.752
G1 F2700 X108.746 Y118.928 E104.41754
G0 F9000 X108.746 Y118.363
G1 F2700 X114.135 Y123.752 E104.74035
G0 F9000 X114.701 Y123.752
G1 F2700 X108.746 Y117.797 E105.09706
G0 F9000 X108.746 Y117.231
G1 F2700 X115.266 Y123.752 E105.48765
G0 F9000 X115.832 Y123.752
G1 F2700 X108.746 Y116.666 E105.91211
G0 F9000 X108.746 Y116.1
G1 F2700 X116.398 Y123.752 E106.37047
G0 F9000 X116.963 Y123.752
G1 F2700 X108.746 Y115.534 E106.86271
G0 F9000 X108.746 Y114.969
G1 F2700 X117.529 Y123.752 E107.38883
G0 F9000 X118.095 Y123.752
G1 F2700 X108.746 Y114.403 E107.94884
G0 F9000 X108.746 Y113.837
G1 F2700 X118.661 Y123.752 E108.54277
G0 F9000 X119.226 Y123.752
G1 F2700 X108.746 Y113.272 E109.17053
G0 F9000 X108.746 Y112.706
G1 F2700 X119.792 Y123.752 E109.8322
G0 F9000 X120.358 Y123.752
G1 F2700 X108.746 Y112.14 E110.52778
G0 F9000 X108.746 Y111.575
G1 F2700 X120.923 Y123.752 E111.2572
G0 F9000 X121.489 Y123.752
G1 F2700 X108.746 Y111.009 E112.02052
G0 F9000 X108.746 Y110.443
G1 F2700 X122.055 Y123.752 E112.81775
G0 F9000 X122.62 Y123.752
G1 F2700 X108.746 Y109.878 E113.64882
G0 F9000 X108.746 Y109.312
G1 F2700 X123.186 Y123.752 E114.51379
G0 F9000 X123.752 Y123.752
G1 F2700 X108.746 Y108.746 E115.41267
G0 F9000 X108.746 Y108.18
G1 F2700 X124.317 Y123.752 E116.34543
G0 F9000 X124.883 Y123.752
G1 F2700 X108.746 Y107.615 E117.31206
G0 F9000 X108.746 Y107.049
G1 F2700 X125.449 Y123.752 E118.31259
G0 F9000 X126.014 Y123.752
G1 F2700 X108.746 Y106.483 E119.34699
G0 F9000 X108.746 Y105.918
G1 F2700 X126.58 Y123.752 E120.41528
G0 F9000 X127.146 Y123.752
G1 F2700 X108.746 Y105.352 E121.51746
G0 F9000 X108.745 Y104.786
G1 F2700 X127.712 Y123.752 E122.65358
G0 F9000 X128.278 Y123.752
G1 F2700 X108.745 Y104.22 E123.8236
G0 F9000 X108.745 Y103.654
G1 F2700 X128.844 Y123.752 E125.02753
G0 F9000 X129.409 Y123.752
G1 F2700 X108.745 Y103.089 E126.2653
G0 F9000 X108.745 Y102.523
G1 F2700 X129.975 Y123.752 E127.53698
G0 F9000 X130.541 Y123.752
G1 F2700 X108.745 Y101.957 E128.84256
G0 F9000 X108.745 Y101.392
G1 F2700 X131.106 Y123.752 E130.18198
G0 F9000 X131.672 Y123.752
G1 F2700 X108.745 Y100.826 E131.55531
G0 F9000 X108.745 Y100.26
G1 F2700 X132.238 Y123.752 E132.96254
G0 F9000 X132.803 Y123.752
G1 F2700 X108.745 Y99.694 E134.40365
G0 F9000 X108.745 Y99.129
G1 F2700 X133.369 Y123.752 E135.87863
G0 F9000 X133.935 Y123.752
G1 F2700 X108.745 Y98.563 E137.38752
G0 F9000 X108.745 Y97.997
G1 F2700 X134.5 Y123.752 E138.93028
G0 F9000 X135.066 Y123.752
G1 F2700 X108.745 Y97.432 E140.50691
G0 F9000 X108.745 Y96.866
G1 F2700 X135.632 Y123.752 E142.11745
G0 F9000 X136.197 Y123.752
G1 F2700 X108.745 Y96.3 E143.76186
G0 F9000 X108.745 Y95.735
G1 F2700 X136.763 Y123.752 E145.44015
G0 F9000 X137.329 Y123.752
G1 F2700 X108.745 Y95.169 E147.15234
G0 F9000 X108.745 Y94.603
G1 F2700 X137.895 Y123.752 E148.89843
G0 F9000 X138.46 Y123.752
G1 F2700 X108.745 Y94.038 E150.67837
G0 F9000 X108.745 Y93.472
G1 F2700 X139.026 Y123.752 E152.49221
G0 F9000 X139.592 Y123.752
G1 F2700 X108.745 Y92.906 E154.33996
G0 F9000 X108.745 Y92.341
G1 F2700 X140.157 Y123.752 E156.22155
G0 F9000 X140.723 Y123.752
G1 F2700 X108.745 Y91.775 E158.13705
G0 F9000 X108.745 Y91.209
G1 F2700 X141.289 Y123.752 E160.08645
G0 F9000 X141.854 Y123.752
G1 F2700 X108.745 Y90.644 E162.06969
G0 F9000 X108.745 Y90.078
G1 F2700 X142.42 Y123.752 E164.08684
G0 F9000 X142.986 Y123.752
G1 F2700 X108.745 Y89.512 E166.13789
G0 F9000 X108.745 Y88.946
G1 F2700 X143.551 Y123.752 E168.22282
G0 F9000 X144.117 Y123.752
G1 F2700 X108.745 Y88.381 E170.34162
G0 F9000 X108.745 Y87.815
G1 F2700 X144.683 Y123.752 E172.49433
G0 F9000 X145.248 Y123.752
G1 F2700 X108.745 Y87.249 E174.6809
G0 F9000 X108.745 Y86.684
G1 F2700 X145.814 Y123.752 E176.90136
G0 F9000 X146.252 Y123.624
G1 F2700 X108.874 Y86.247 E179.14032
G0 F9000 X109.44 Y86.247
G1 F2700 X146.252 Y123.059 E181.34541
G0 F9000 X146.252 Y122.493
G1 F2700 X110.006 Y86.247 E183.51659
G0 F9000 X110.571 Y86.247
G1 F2700 X146.252 Y121.927 E185.65391
G0 F9000 X146.252 Y121.362
G1 F2700 X111.137 Y86.247 E187.75734
G0 F9000 X111.703 Y86.247
G1 F2700 X146.252 Y120.796 E189.82687
G0 F9000 X146.252 Y120.23
G1 F2700 X112.268 Y86.247 E191.86253
G0 F9000 X112.834 Y86.247
G1 F2700 X146.252 Y119.665 E193.86432
G0 F9000 X146.252 Y119.099
G1 F2700 X113.4 Y86.247 E195.83219
G0 F9000 X113.965 Y86.247
G1 F2700 X146.252 Y118.533 E197.7662
G0 F9000 X146.252 Y117.968
G1 F2700 X114.531 Y86.247 E199.66633
G0 F9000 X115.097 Y86.247
G1 F2700 X146.252 Y117.402 E201.53256
G0 F9000 X146.252 Y116.836
G1 F2700 X115.662 Y86.247 E203.36491
G0 F9000 X116.228 Y86.247
G1 F2700 X146.252 Y116.27 E205.16336
G0 F9000 X146.252 Y115.705
G1 F2700 X116.794 Y86.247 E206.92793
G0 F9000 X117.359 Y86.247
G1 F2700 X146.252 Y115.139 E208.65863
G0 F9000 X146.252 Y114.573
G1 F2700 X117.925 Y86.247 E210.35543
G0 F9000 X118.491 Y86.247
G1 F2700 X146.252 Y114.008 E212.01835
G0 F9000 X146.252 Y113.442
G1 F2700 X119.056 Y86.247 E213.6474
G0 F9000 X119.622 Y86.247
G1 F2700 X146.252 Y112.876 E215.24254
G0 F9000 X146.252 Y112.311
G1 F2700 X120.188 Y86.247 E216.80381
G0 F9000 X120.754 Y86.247
G1 F2700 X146.252 Y111.745 E218.33117
G0 F9000 X146.252 Y111.179
G1 F2700 X121.319 Y86.247 E219.82467
G0 F9000 X121.885 Y86.247
G1 F2700 X146.252 Y110.614 E221.28428
G0 F9000 X146.252 Y110.048
G1 F2700 X122.451 Y86.247 E222.70999
G0 F9000 X123.016 Y86.247
G1 F2700 X146.252 Y109.482 E224.10183
G0 F9000 X146.252 Y108.917
