; generated by PrusaSlicer 2.3.0+win64 on 2021-02-26 at 17:38:25 UTC

; 

; external perimeters extrusion width = 0.45mm
; perimeters extrusion width = 0.45mm
; infill extrusion width = 0.38mm
; solid infill extrusion width = 0.45mm
; top infill extrusion width = 0.40mm
; support material extrusion width = 0.40mm

M201 X9000 Y9000 Z500 E10000 ; sets maximum accelerations, mm/sec^2
M203 X500 Y500 Z12 E120 ; sets maximum feedrates, mm/sec
M204 P1500 R1500 T1500 ; sets acceleration (P, T) and retract acceleration (R), mm/sec^2
M205 X10.00 Y10.00 Z0.20 E2.50 ; sets the jerk limits, mm/sec
M205 S0 T0 ; sets the minimum extruding and travel feed rate, mm/sec
M107
;TYPE:Custom
M117 Preheating... 
M104 S205  ; pre heat nozzle to ...
M140 S60; start warming the bed to ...
;----------------------------------------
M117 Homing;
G28; Home all 3 axis
;----------------------------------------
M117 Auto leveling ;If you dont have a Sensor it will automatically skip this step
G29; run auto level
;----------------------------------------
M117 Parking Nozzle
G1 X250 Y15 F3000
G1 Z0 F300; Close Nozzle
;----------------------------------------
M117 Continuing Heating
M190 S60; set bed temp and wait for it to come up
M109 S205 ; set hot end temp to first layer temp
;----------------------------------------
M117 Priming;
G92 E0 
G1 F300 E-0.5
G0 X220 Y15 Z0.2 F5000
G1 F400 E8
G1 X80 E25 F800
G4 P500 ; Pause 
;----------------------------------------
M117 Printing...
G21 ; set units to millimeters
G90 ; use absolute coordinates
M82 ; use absolute distances for extrusion
G92 E0
; Filament gcode
;LAYER_CHANGE
;Z:0.2128
;HEIGHT:0.2128
G1 Z0.213 F4800.000
G1 E-7.00000 F2100.000
G92 E0
G1 Z0.513 F4800.000
G1 X47.767 Y17.551
G1 Z0.213
G1 E7.00000 F1800.000
;TYPE:Skirt
;WIDTH:0.45
G1 X49.284 Y16.929 E7.05866
G1 X50.289 Y16.733 E7.09529
G1 X54.429 Y16.323 E7.24410
G1 X186.544 Y16.322 E11.97014
G1 X187.489 Y16.389 E12.00401
G1 X191.539 Y17.025 E12.15067
G1 X192.724 Y17.420 E12.19534
G1 X193.811 Y18.021 E12.23979
G1 X194.995 Y19.041 E12.29570
G1 X195.915 Y20.305 E12.35161
G1 X196.520 Y21.739 E12.40730
G1 X196.785 Y23.279 E12.46321
G1 X197.996 Y60.098 E13.78100
G1 X197.996 Y76.142 E14.35493
G1 X195.997 Y144.003 E16.78353
G1 X195.800 Y145.289 E16.83004
G1 X195.364 Y146.507 E16.87633
G1 X194.703 Y147.626 E16.92284
G1 X193.845 Y148.595 E16.96912
G1 X192.852 Y149.363 E17.01402
G1 X191.729 Y149.938 E17.05915
G1 X190.526 Y150.295 E17.10406
G1 X189.277 Y150.425 E17.14896
G1 X50.281 Y150.266 E22.12116
G1 X48.905 Y150.121 E22.17065
G1 X47.580 Y149.698 E22.22038
G1 X46.370 Y149.016 E22.27010
G1 X45.323 Y148.101 E22.31982
G1 X44.572 Y147.136 E22.36358
G1 X44.006 Y146.051 E22.40734
G1 X43.644 Y144.883 E22.45109
G1 X43.496 Y143.662 E22.49508
G1 X43.540 Y89.709 E24.42509
G1 X44.285 Y23.219 E26.80374
G1 X44.468 Y21.906 E26.85117
G1 X44.899 Y20.658 E26.89837
G1 X45.566 Y19.513 E26.94580
G1 X46.442 Y18.518 E26.99323
G1 X47.718 Y17.586 E27.04974
G1 X47.956 Y17.913 F4800.000
G1 F1800.000
G1 X49.422 Y17.311 E27.10646
G1 X50.349 Y17.133 E27.14020
G1 X54.440 Y16.728 E27.28730
G1 X186.544 Y16.727 E32.01292
G1 X187.429 Y16.789 E32.04465
G1 X191.419 Y17.412 E32.18913
G1 X192.523 Y17.773 E32.23068
G1 X193.549 Y18.332 E32.27244
G1 X194.678 Y19.295 E32.32555
G1 X195.553 Y20.487 E32.37844
G1 X196.133 Y21.853 E32.43155
G1 X196.382 Y23.311 E32.48443
G1 X197.592 Y60.103 E33.80127
G1 X197.592 Y76.125 E34.37441
G1 X195.594 Y143.973 E36.80256
G1 X195.409 Y145.183 E36.84632
G1 X194.998 Y146.335 E36.89009
G1 X194.375 Y147.388 E36.93386
G1 X193.564 Y148.304 E36.97763
G1 X192.630 Y149.025 E37.01984
G1 X191.579 Y149.562 E37.06205
G1 X190.448 Y149.898 E37.10426
G1 X189.268 Y150.020 E37.14669
G1 X50.281 Y149.861 E42.11854
G1 X48.984 Y149.724 E42.16520
G1 X47.736 Y149.325 E42.21208
G1 X46.595 Y148.680 E42.25897
G1 X45.614 Y147.821 E42.30563
G1 X44.906 Y146.908 E42.34695
G1 X44.374 Y145.882 E42.38827
G1 X44.035 Y144.778 E42.42959
G1 X43.900 Y143.637 E42.47068
G1 X43.944 Y89.718 E44.39951
G1 X44.689 Y23.242 E46.77764
G1 X44.861 Y21.999 E46.82252
G1 X45.270 Y20.819 E46.86718
G1 X45.899 Y19.741 E46.91184
G1 X46.726 Y18.806 E46.95650
G1 X47.907 Y17.949 E47.00870
G1 E40.00870 F2100.000
G92 E0
G1 Z0.513 F4800.000
G1 X189.200 Y143.616
G1 Z0.213
G1 E7.00000 F1800.000
;TYPE:Support material
;WIDTH:0.4
G1 X189.200 Y127.886 E7.49312
G1 X188.491 Y127.886 E7.51534
G1 X188.491 Y143.457 E8.00346
G1 X187.782 Y143.457 E8.02567
G1 X187.782 Y127.886 E8.51380
G1 X187.074 Y127.886 E8.53601
G1 X187.074 Y143.457 E9.02413
G1 X186.365 Y143.457 E9.04635
G1 X186.365 Y127.886 E9.53447
G1 X186.153 Y127.886 E9.54113
G1 X186.153 Y140.049 E9.92243
G1 X185.917 Y140.285 E9.93287
G1 X185.656 Y140.285 E9.94105
G1 X185.656 Y143.457 E10.04048
G1 X184.948 Y143.457 E10.06270
G1 X184.948 Y140.285 E10.16213
G1 X184.239 Y140.285 E10.18435
G1 X184.239 Y143.457 E10.28378
G1 X183.530 Y143.457 E10.30600
G1 X183.530 Y140.285 E10.40543
G1 X182.822 Y140.285 E10.42765
G1 X182.822 Y143.457 E10.52709
G1 X182.113 Y143.457 E10.54930
G1 X182.113 Y140.285 E10.64874
G1 X181.404 Y140.285 E10.67095
G1 X181.404 Y143.457 E10.77039
G1 X180.696 Y143.457 E10.79260
G1 X180.696 Y140.285 E10.89204
G1 X179.987 Y140.285 E10.91425
G1 X179.987 Y143.457 E11.01369
G1 X179.278 Y143.457 E11.03590
G1 X179.278 Y140.285 E11.13534
G1 X178.570 Y140.285 E11.15755
G1 X178.570 Y143.457 E11.25699
G1 X177.861 Y143.457 E11.27921
G1 X177.861 Y140.285 E11.37864
G1 X177.152 Y140.285 E11.40086
G1 X177.152 Y143.457 E11.50029
G1 X176.444 Y143.457 E11.52251
G1 X176.444 Y140.285 E11.62194
G1 X175.735 Y140.285 E11.64416
G1 X175.735 Y143.457 E11.74359
G1 X175.026 Y143.457 E11.76581
G1 X175.026 Y140.285 E11.86524
G1 X174.318 Y140.285 E11.88746
G1 X174.318 Y143.457 E11.98689
G1 X173.609 Y143.457 E12.00911
G1 X173.609 Y140.285 E12.10855
G1 X172.900 Y140.285 E12.13076
G1 X172.900 Y143.457 E12.23020
G1 X172.192 Y143.457 E12.25241
G1 X172.192 Y140.285 E12.35185
G1 X171.483 Y140.285 E12.37406
G1 X171.483 Y143.457 E12.47350
G1 X170.774 Y143.457 E12.49571
G1 X170.774 Y140.285 E12.59515
G1 X170.066 Y140.285 E12.61736
G1 X170.066 Y143.457 E12.71680
G1 X169.357 Y143.457 E12.73901
G1 X169.357 Y140.285 E12.83845
G1 X168.648 Y140.285 E12.86067
G1 X168.648 Y143.457 E12.96010
G1 X167.940 Y143.457 E12.98232
G1 X167.940 Y140.285 E13.08175
G1 X167.231 Y140.285 E13.10397
G1 X167.231 Y143.457 E13.20340
G1 X166.522 Y143.457 E13.22562
G1 X166.522 Y140.285 E13.32505
G1 X165.814 Y140.285 E13.34727
G1 X165.814 Y143.457 E13.44670
G1 X165.105 Y143.457 E13.46892
G1 X165.105 Y140.285 E13.56835
G1 X164.396 Y140.285 E13.59057
G1 X164.396 Y143.457 E13.69000
G1 X163.688 Y143.457 E13.71222
G1 X163.688 Y140.285 E13.81166
G1 X162.979 Y140.285 E13.83387
G1 X162.979 Y143.457 E13.93331
G1 X162.270 Y143.457 E13.95552
G1 X162.270 Y140.285 E14.05496
G1 X161.562 Y140.285 E14.07717
G1 X161.562 Y143.457 E14.17661
G1 X160.853 Y143.457 E14.19882
G1 X160.853 Y140.285 E14.29826
G1 X160.144 Y140.285 E14.32047
G1 X160.144 Y143.457 E14.41991
G1 X159.436 Y143.457 E14.44212
G1 X159.436 Y140.285 E14.54156
G1 X158.727 Y140.285 E14.56378
G1 X158.727 Y143.457 E14.66321
G1 X158.018 Y143.457 E14.68543
G1 X158.018 Y140.285 E14.78486
G1 X157.310 Y140.285 E14.80708
G1 X157.310 Y143.457 E14.90651
G1 X156.601 Y143.457 E14.92873
G1 X156.601 Y140.285 E15.02816
G1 X155.892 Y140.285 E15.05038
G1 X155.892 Y143.457 E15.14981
G1 X155.184 Y143.457 E15.17203
G1 X155.184 Y140.285 E15.27146
G1 X154.475 Y140.285 E15.29368
G1 X154.475 Y143.457 E15.39311
G1 X153.766 Y143.457 E15.41533
G1 X153.766 Y140.285 E15.51477
G1 X153.058 Y140.285 E15.53698
G1 X153.058 Y143.457 E15.63642
G1 X152.349 Y143.457 E15.65863
G1 X152.349 Y140.285 E15.75807
G1 X151.640 Y140.285 E15.78028
G1 X151.640 Y143.457 E15.87972
G1 X150.932 Y143.457 E15.90193
G1 X150.932 Y140.285 E16.00137
G1 X150.223 Y140.285 E16.02358
G1 X150.223 Y143.457 E16.12302
G1 X149.514 Y143.457 E16.14523
G1 X149.514 Y140.285 E16.24467
G1 X148.806 Y140.285 E16.26689
G1 X148.806 Y143.457 E16.36632
G1 X148.097 Y143.457 E16.38854
G1 X148.097 Y140.285 E16.48797
G1 X147.388 Y140.285 E16.51019
G1 X147.388 Y143.457 E16.60962
G1 X146.680 Y143.457 E16.63184
G1 X146.680 Y140.285 E16.73127
G1 X145.971 Y140.285 E16.75349
G1 X145.971 Y143.457 E16.85292
G1 X145.262 Y143.457 E16.87514
G1 X145.262 Y140.285 E16.97457
G1 X144.554 Y140.285 E16.99679
G1 X144.554 Y143.457 E17.09623
G1 X143.845 Y143.457 E17.11844
G1 X143.845 Y140.285 E17.21788
G1 X143.136 Y140.285 E17.24009
G1 X143.136 Y143.457 E17.33953
G1 X142.428 Y143.457 E17.36174
G1 X142.428 Y140.285 E17.46118
G1 X141.719 Y140.285 E17.48339
G1 X141.719 Y143.457 E17.58283
G1 X141.010 Y143.457 E17.60504
G1 X141.010 Y140.285 E17.70448
G1 X140.302 Y140.285 E17.72669
G1 X140.302 Y143.457 E17.82613
G1 X139.593 Y143.457 E17.84834
G1 X139.593 Y140.285 E17.94778
G1 X138.884 Y140.285 E17.97000
G1 X138.884 Y143.457 E18.06943
G1 X138.176 Y143.457 E18.09165
G1 X138.176 Y140.285 E18.19108
G1 X137.467 Y140.285 E18.21330
G1 X137.467 Y143.457 E18.31273
G1 X136.758 Y143.457 E18.33495
G1 X136.758 Y140.285 E18.43438
G1 X136.050 Y140.285 E18.45660
G1 X136.050 Y143.457 E18.55603
G1 X135.341 Y143.457 E18.57825
G1 X135.341 Y140.285 E18.67768
G1 X134.632 Y140.285 E18.69990
G1 X134.632 Y143.457 E18.79934
G1 X133.924 Y143.457 E18.82155
G1 X133.924 Y140.285 E18.92099
G1 X133.215 Y140.285 E18.94320
G1 X133.215 Y143.457 E19.04264
G1 X132.506 Y143.457 E19.06485
G1 X132.506 Y140.285 E19.16429
G1 X131.798 Y140.285 E19.18650
G1 X131.798 Y143.457 E19.28594
G1 X131.089 Y143.457 E19.30815
G1 X131.089 Y140.285 E19.40759
G1 X130.380 Y140.285 E19.42980
G1 X130.380 Y143.457 E19.52924
G1 X129.672 Y143.457 E19.55146
G1 X129.672 Y140.285 E19.65089
G1 X128.963 Y140.285 E19.67311
G1 X128.963 Y143.457 E19.77254
G1 X128.254 Y143.457 E19.79476
G1 X128.254 Y140.285 E19.89419
G1 X127.546 Y140.285 E19.91641
G1 X127.546 Y143.457 E20.01584
G1 X126.837 Y143.457 E20.03806
G1 X126.837 Y140.285 E20.13749
G1 X126.129 Y140.285 E20.15971
G1 X126.129 Y143.457 E20.25914
G1 X125.420 Y143.457 E20.28136
G1 X125.420 Y140.285 E20.38079
G1 X124.711 Y140.285 E20.40301
G1 X124.711 Y143.457 E20.50245
G1 X124.003 Y143.457 E20.52466
G1 X124.003 Y140.285 E20.62410
G1 X123.294 Y140.285 E20.64631
G1 X123.294 Y143.457 E20.74575
G1 X122.585 Y143.457 E20.76796
G1 X122.585 Y140.285 E20.86740
G1 X121.877 Y140.285 E20.88961
G1 X121.877 Y143.457 E20.98905
G1 X121.168 Y143.457 E21.01126
G1 X121.168 Y140.285 E21.11070
G1 X120.459 Y140.285 E21.13291
G1 X120.459 Y143.457 E21.23235
G1 X119.751 Y143.457 E21.25457
G1 X119.751 Y140.285 E21.35400
G1 X119.042 Y140.285 E21.37622
G1 X119.042 Y143.457 E21.47565
G1 X118.333 Y143.457 E21.49787
G1 X118.333 Y140.285 E21.59730
G1 X117.625 Y140.285 E21.61952
G1 X117.625 Y143.457 E21.71895
G1 X116.916 Y143.457 E21.74117
G1 X116.916 Y140.285 E21.84060
G1 X116.207 Y140.285 E21.86282
G1 X116.207 Y143.457 E21.96225
G1 X115.499 Y143.457 E21.98447
G1 X115.499 Y140.285 E22.08390
G1 X114.790 Y140.285 E22.10612
G1 X114.790 Y143.457 E22.20556
G1 X114.081 Y143.457 E22.22777
G1 X114.081 Y140.285 E22.32721
G1 X113.373 Y140.285 E22.34942
G1 X113.373 Y143.457 E22.44886
G1 X112.664 Y143.457 E22.47107
G1 X112.664 Y140.285 E22.57051
G1 X111.955 Y140.285 E22.59272
G1 X111.955 Y143.457 E22.69216
G1 X111.247 Y143.457 E22.71437
G1 X111.247 Y140.285 E22.81381
G1 X110.538 Y140.285 E22.83602
G1 X110.538 Y143.457 E22.93546
G1 X109.829 Y143.457 E22.95768
G1 X109.829 Y140.285 E23.05711
G1 X109.121 Y140.285 E23.07933
G1 X109.121 Y143.457 E23.17876
G1 X108.412 Y143.457 E23.20098
G1 X108.412 Y140.285 E23.30041
G1 X107.703 Y140.285 E23.32263
G1 X107.703 Y143.457 E23.42206
G1 X106.995 Y143.457 E23.44428
G1 X106.995 Y140.285 E23.54371
G1 X106.286 Y140.285 E23.56593
G1 X106.286 Y143.457 E23.66536
G1 X105.577 Y143.457 E23.68758
G1 X105.577 Y140.285 E23.78701
G1 X104.869 Y140.285 E23.80923
G1 X104.869 Y143.457 E23.90867
G1 X104.160 Y143.457 E23.93088
G1 X104.160 Y140.285 E24.03032
G1 X103.451 Y140.285 E24.05253
G1 X103.451 Y143.457 E24.15197
G1 X102.743 Y143.457 E24.17418
G1 X102.743 Y140.285 E24.27362
G1 X102.034 Y140.285 E24.29583
G1 X102.034 Y143.457 E24.39527
G1 X101.325 Y143.457 E24.41748
G1 X101.325 Y140.285 E24.51692
G1 X100.617 Y140.285 E24.53913
G1 X100.617 Y143.457 E24.63857
G1 X99.908 Y143.457 E24.66079
G1 X99.908 Y140.285 E24.76022
G1 X99.199 Y140.285 E24.78244
G1 X99.199 Y143.457 E24.88187
G1 X98.491 Y143.457 E24.90409
G1 X98.491 Y140.285 E25.00352
G1 X97.782 Y140.285 E25.02574
G1 X97.782 Y143.457 E25.12517
G1 X97.073 Y143.457 E25.14739
G1 X97.073 Y140.285 E25.24682
G1 X96.365 Y140.285 E25.26904
G1 X96.365 Y143.457 E25.36847
G1 X95.656 Y143.457 E25.39069
G1 X95.656 Y140.285 E25.49012
G1 X94.947 Y140.285 E25.51234
G1 X94.947 Y143.457 E25.61178
G1 X94.239 Y143.457 E25.63399
G1 X94.239 Y140.285 E25.73343
G1 X93.530 Y140.285 E25.75564
G1 X93.530 Y143.457 E25.85508
G1 X92.821 Y143.457 E25.87729
G1 X92.821 Y140.285 E25.97673
G1 X92.113 Y140.285 E25.99894
G1 X92.113 Y143.457 E26.09838
G1 X91.404 Y143.457 E26.12059
G1 X91.404 Y140.285 E26.22003
G1 X90.695 Y140.285 E26.24224
G1 X90.695 Y143.457 E26.34168
G1 X89.987 Y143.457 E26.36390
G1 X89.987 Y140.285 E26.46333
G1 X89.278 Y140.285 E26.48555
G1 X89.278 Y143.457 E26.58498
G1 X88.569 Y143.457 E26.60720
G1 X88.569 Y140.285 E26.70663
G1 X87.861 Y140.285 E26.72885
G1 X87.861 Y143.457 E26.82828
G1 X87.152 Y143.457 E26.85050
G1 X87.152 Y140.285 E26.94993
G1 X86.443 Y140.285 E26.97215
G1 X86.443 Y143.457 E27.07158
G1 X85.735 Y143.457 E27.09380
G1 X85.735 Y140.285 E27.19323
G1 X85.026 Y140.285 E27.21545
G1 X85.026 Y143.457 E27.31489
G1 X84.317 Y143.457 E27.33710
G1 X84.317 Y140.285 E27.43654
G1 X83.609 Y140.285 E27.45875
G1 X83.609 Y143.457 E27.55819
G1 X82.900 Y143.457 E27.58040
G1 X82.900 Y140.285 E27.67984
G1 X82.191 Y140.285 E27.70205
G1 X82.191 Y143.457 E27.80149
G1 X81.483 Y143.457 E27.82370
G1 X81.483 Y140.285 E27.92314
G1 X80.774 Y140.285 E27.94535
G1 X80.774 Y143.457 E28.04479
G1 X80.065 Y143.457 E28.06701
G1 X80.065 Y140.285 E28.16644
G1 X79.357 Y140.285 E28.18866
G1 X79.357 Y143.457 E28.28809
G1 X78.648 Y143.457 E28.31031
G1 X78.648 Y140.285 E28.40974
G1 X77.939 Y140.285 E28.43196
G1 X77.939 Y143.457 E28.53139
G1 X77.231 Y143.457 E28.55361
G1 X77.231 Y140.285 E28.65304
G1 X76.522 Y140.285 E28.67526
G1 X76.522 Y143.457 E28.77469
G1 X75.813 Y143.457 E28.79691
G1 X75.813 Y140.285 E28.89634
G1 X75.105 Y140.285 E28.91856
G1 X75.105 Y143.457 E29.01800
G1 X74.396 Y143.457 E29.04021
G1 X74.396 Y140.285 E29.13965
G1 X73.687 Y140.285 E29.16186
G1 X73.687 Y143.457 E29.26130
G1 X72.979 Y143.457 E29.28351
G1 X72.979 Y140.285 E29.38295
G1 X72.270 Y140.285 E29.40516
G1 X72.270 Y143.457 E29.50460
G1 X71.561 Y143.457 E29.52681
G1 X71.561 Y140.285 E29.62625
G1 X70.853 Y140.285 E29.64846
G1 X70.853 Y143.457 E29.74790
G1 X70.144 Y143.457 E29.77012
G1 X70.144 Y140.285 E29.86955
G1 X69.435 Y140.285 E29.89177
G1 X69.435 Y143.457 E29.99120
G1 X68.727 Y143.457 E30.01342
G1 X68.727 Y140.285 E30.11285
G1 X68.018 Y140.285 E30.13507
G1 X68.018 Y143.457 E30.23450
G1 X67.309 Y143.457 E30.25672
G1 X67.309 Y140.285 E30.35615
G1 X66.601 Y140.285 E30.37837
G1 X66.601 Y143.457 E30.47780
G1 X65.892 Y143.457 E30.50002
G1 X65.892 Y140.285 E30.59945
G1 X65.183 Y140.285 E30.62167
G1 X65.183 Y143.457 E30.72111
G1 X64.475 Y143.457 E30.74332
G1 X64.475 Y140.285 E30.84276
G1 X63.766 Y140.285 E30.86497
G1 X63.766 Y143.457 E30.96441
G1 X63.057 Y143.457 E30.98662
G1 X63.057 Y140.285 E31.08606
G1 X62.349 Y140.285 E31.10827
G1 X62.349 Y143.457 E31.20771
G1 X61.640 Y143.457 E31.22992
G1 X61.640 Y140.285 E31.32936
G1 X60.931 Y140.285 E31.35157
G1 X60.931 Y143.457 E31.45101
G1 X60.223 Y143.457 E31.47323
G1 X60.223 Y140.285 E31.57266
G1 X59.514 Y140.285 E31.59488
G1 X59.514 Y143.457 E31.69431
G1 X58.805 Y143.457 E31.71653
G1 X58.805 Y140.285 E31.81596
G1 X58.097 Y140.285 E31.83818
G1 X58.097 Y143.457 E31.93761
G1 X57.388 Y143.457 E31.95983
G1 X57.388 Y140.285 E32.05926
G1 X56.679 Y140.285 E32.08148
G1 X56.679 Y143.457 E32.18091
G1 X55.971 Y143.457 E32.20313
G1 X55.971 Y140.285 E32.30256
G1 X55.262 Y140.285 E32.32478
G1 X55.262 Y143.457 E32.42422
