; generated by PrusaSlicer 2.3.0-rc2+win64 on 2021-03-20 at 15:15:05 UTC

; 

; external perimeters extrusion width = 0.45mm
; perimeters extrusion width = 0.45mm
; infill extrusion width = 0.38mm
; solid infill extrusion width = 0.45mm
; top infill extrusion width = 0.40mm
; support material extrusion width = 0.40mm

M201 X9000 Y9000 Z500 E10000 ; sets maximum accelerations, mm/sec^2
M203 X500 Y500 Z12 E120 ; sets maximum feedrates, mm/sec
M204 P1500 R1500 T1500 ; sets acceleration (P, T) and retract acceleration (R), mm/sec^2
M205 X10.00 Y10.00 Z0.20 E2.50 ; sets the jerk limits, mm/sec
M205 S0 T0 ; sets the minimum extruding and travel feed rate, mm/sec
M107
;TYPE:Custom
M117 Preheating... 
M104 S205  ; pre heat nozzle to ...
M140 S60; start warming the bed to ...
;----------------------------------------
M117 Homing;
G28; Home all 3 axis
;----------------------------------------
M117 Auto leveling ;If you dont have a Sensor it will automatically skip this step
G29; run auto level
;----------------------------------------
M117 Parking Nozzle
G1 X250 Y15 F3000
G1 Z0 F300; Close Nozzle
;----------------------------------------
M117 Continuing Heating
M190 S60; set bed temp and wait for it to come up
M109 S205 ; set hot end temp to first layer temp
;----------------------------------------
M117 Priming;
G92 E0 
G1 F300 E-0.5
G0 X220 Y15 Z0.2 F5000
G1 F400 E8
G1 X80 E25 F800
G4 P500 ; Pause 
;----------------------------------------
M117 Printing...
G21 ; set units to millimeters
G90 ; use absolute coordinates
M82 ; use absolute distances for extrusion
G92 E0
; Filament gcode
;LAYER_CHANGE
;Z:0.2128
;HEIGHT:0.2128
G1 Z0.213 F4800.000
G1 E-7.00000 F2100.000
G92 E0
G1 Z0.513 F4800.000
G1 X13.434 Y37.041
G1 Z0.213
G1 E7.00000 F1800.000
;TYPE:Skirt
;WIDTH:0.45
G1 X13.995 Y35.679 E7.05270
G1 X17.601 Y30.454 E7.27979
G1 X19.691 Y28.396 E7.38471
G1 X20.822 Y27.577 E7.43467
G1 X22.078 Y27.013 E7.48393
G1 X23.429 Y26.712 E7.53343
G1 X29.903 Y26.506 E7.76516
G1 X30.925 Y26.584 E7.80179
G1 X31.928 Y26.817 E7.83865
G1 X32.886 Y27.198 E7.87551
G1 X33.775 Y27.719 E7.91237
G1 X235.225 Y168.911 E16.71242
G1 X235.848 Y169.471 E16.74238
G1 X236.401 Y170.109 E16.77257
G1 X236.868 Y170.804 E16.80253
G1 X237.246 Y171.551 E16.83249
G1 X237.677 Y172.953 E16.88496
G1 X237.963 Y175.263 E16.96822
G1 X237.964 Y183.104 E17.24870
G1 X237.882 Y184.099 E17.28441
G1 X237.677 Y184.997 E17.31736
G1 X236.692 Y188.058 E17.43238
G1 X236.250 Y188.988 E17.46924
G1 X235.673 Y189.842 E17.50610
G1 X233.695 Y191.882 E17.60774
G1 X232.805 Y192.604 E17.64874
G1 X231.463 Y193.314 E17.70305
G1 X229.997 Y193.708 E17.75736
G1 X229.156 Y193.783 E17.78754
G1 X221.368 Y193.944 E18.06619
G1 X218.735 Y193.935 E18.16040
G1 X217.884 Y193.834 E18.19105
G1 X217.053 Y193.627 E18.22170
G1 X216.254 Y193.318 E18.25235
G1 X215.500 Y192.910 E18.28300
G1 X15.743 Y52.478 E27.01784
G1 X14.773 Y51.538 E27.06619
G1 X14.007 Y50.424 E27.11453
G1 X13.475 Y49.174 E27.16311
G1 X13.202 Y47.851 E27.21146
G1 X13.180 Y38.492 E27.54623
G1 X13.424 Y37.100 E27.59679
G1 X13.821 Y37.170 F4800.000
G1 F1800.000
G1 X14.362 Y35.851 E27.64778
G1 X17.910 Y30.714 E27.87110
G1 X19.956 Y28.701 E27.97380
G1 X21.034 Y27.922 E28.02135
G1 X22.225 Y27.390 E28.06801
G1 X23.499 Y27.111 E28.11467
G1 X29.903 Y26.910 E28.34386
G1 X30.868 Y26.985 E28.37849
G1 X31.811 Y27.204 E28.41312
G1 X32.710 Y27.562 E28.44775
G1 X33.545 Y28.052 E28.48239
G1 X234.968 Y169.224 E37.28121
G1 X236.083 Y170.358 E37.33809
G1 X236.881 Y171.726 E37.39475
G1 X237.283 Y173.045 E37.44409
G1 X237.559 Y175.289 E37.52496
G1 X237.560 Y183.096 E37.80421
G1 X237.486 Y184.011 E37.83706
G1 X237.291 Y184.876 E37.86880
G1 X236.322 Y187.894 E37.98218
G1 X235.906 Y188.776 E38.01704
G1 X235.358 Y189.589 E38.05212
G1 X233.421 Y191.584 E38.15161
G1 X232.593 Y192.259 E38.18981
G1 X231.321 Y192.935 E38.24137
G1 X229.929 Y193.310 E38.29292
G1 X221.360 Y193.540 E38.59954
G1 X218.771 Y193.532 E38.69216
G1 X217.964 Y193.438 E38.72122
G1 X217.176 Y193.242 E38.75027
G1 X216.419 Y192.949 E38.77933
G1 X215.710 Y192.565 E38.80816
G1 X16.000 Y52.166 E47.54094
G1 X15.077 Y51.271 E47.58694
G1 X14.354 Y50.215 E47.63271
G1 X13.856 Y49.037 E47.67848
G1 X13.601 Y47.783 E47.72425
G1 X13.582 Y38.531 E48.05522
G1 X13.810 Y37.229 E48.10250
G1 E41.10250 F2100.000
G92 E0
G1 Z0.513 F4800.000
G1 X19.974 Y47.144
G1 Z0.213
G1 E7.00000 F1800.000
;TYPE:Support material
;WIDTH:0.4
G1 X19.974 Y38.937 E7.25727
G1 X20.682 Y38.937 E7.27949
G1 X20.682 Y47.367 E7.54376
G1 X22.808 Y48.037 F4800.000
G1 F1800.000
G1 X22.808 Y47.622 E7.55680
G1 X22.100 Y47.125 E7.58392
G1 X22.100 Y47.647 E7.60027
G1 X21.391 Y47.423 E7.62356
G1 X21.391 Y46.629 E7.64846
G1 X21.166 Y46.472 E7.65707
G1 X21.108 Y46.144 E7.66751
G1 X21.391 Y45.740 E7.68296
G1 X21.391 Y37.571 E7.93904
G1 X22.100 Y37.571 E7.96125
G1 X22.100 Y44.728 E8.18560
G1 X22.808 Y43.716 E8.22433
G1 X22.808 Y34.840 E8.50257
G1 X23.517 Y34.840 E8.52479
G1 X23.517 Y42.830 E8.77528
G1 X23.744 Y42.790 E8.78250
G1 X24.226 Y43.128 E8.80094
G1 X24.226 Y33.474 E9.10356
G1 X24.934 Y33.474 E9.12578
G1 X24.934 Y43.624 E9.44395
G1 X25.643 Y44.120 E9.47107
G1 X25.643 Y33.474 E9.80481
G1 X26.352 Y33.474 E9.82702
G1 X26.352 Y44.811 E10.18241
G1 E3.18241 F2100.000
G92 E0
G1 Z0.513 F4800.000
G1 X29.895 Y33.315
G1 Z0.213
G1 E7.00000 F1800.000
G1 X29.895 Y33.595 E7.00878
G1 X29.186 Y34.607 E7.04751
G1 X29.186 Y33.474 E7.08302
G1 X28.478 Y33.474 E7.10524
G1 X28.478 Y35.619 E7.17248
G1 X27.769 Y36.631 E7.21121
G1 X27.769 Y33.474 E7.31017
G1 X27.060 Y33.474 E7.33239
G1 X27.060 Y45.113 E7.69723
G1 X27.769 Y45.609 E7.72435
G1 X27.769 Y38.167 E7.95763
G1 X28.478 Y38.664 E7.98475
G1 X28.478 Y46.105 E8.21803
G1 X29.186 Y46.601 E8.24515
G1 X29.186 Y39.160 E8.47843
G1 X29.895 Y39.656 E8.50555
G1 X29.895 Y47.097 E8.73882
G1 X30.604 Y47.594 E8.76595
G1 X30.604 Y40.152 E8.99922
G1 X31.312 Y40.648 E9.02634
G1 X31.312 Y48.090 E9.25962
G1 X32.021 Y48.586 E9.28674
G1 X32.021 Y41.145 E9.52002
G1 X32.730 Y41.641 E9.54714
G1 X32.730 Y49.082 E9.78042
G1 X33.438 Y49.578 E9.80754
G1 X33.438 Y42.137 E10.04082
G1 X34.147 Y42.633 E10.06794
G1 X34.147 Y50.075 E10.30121
G1 X34.856 Y50.571 E10.32833
G1 X34.856 Y43.129 E10.56161
G1 X35.564 Y43.626 E10.58873
G1 X35.564 Y51.067 E10.82201
G1 X36.273 Y51.563 E10.84913
G1 X36.273 Y44.122 E11.08241
G1 X36.982 Y44.618 E11.10953
G1 X36.982 Y52.059 E11.34281
G1 X37.690 Y52.556 E11.36993
G1 X37.690 Y45.114 E11.60320
G1 X38.399 Y45.610 E11.63032
G1 X38.399 Y53.052 E11.86360
G1 X39.108 Y53.548 E11.89072
G1 X39.108 Y46.107 E12.12400
G1 X39.816 Y46.603 E12.15112
G1 X39.816 Y54.044 E12.38440
G1 X40.525 Y54.541 E12.41152
G1 X40.525 Y47.099 E12.64480
G1 X41.234 Y47.595 E12.67192
G1 X41.234 Y55.037 E12.90519
G1 X41.942 Y55.533 E12.93231
G1 X41.942 Y48.092 E13.16559
G1 X42.651 Y48.588 E13.19271
G1 X42.651 Y56.029 E13.42599
G1 X43.360 Y56.525 E13.45311
G1 X43.360 Y49.084 E13.68639
G1 X44.068 Y49.580 E13.71351
G1 X44.068 Y57.022 E13.94679
G1 X44.777 Y57.518 E13.97391
G1 X44.777 Y50.076 E14.20718
G1 X45.486 Y50.573 E14.23430
G1 X45.486 Y58.014 E14.46758
G1 X46.194 Y58.510 E14.49470
G1 X46.194 Y51.069 E14.72798
G1 X46.903 Y51.565 E14.75510
G1 X46.903 Y59.006 E14.98838
G1 X47.612 Y59.503 E15.01550
G1 X47.612 Y52.061 E15.24878
G1 X48.320 Y52.557 E15.27590
G1 X48.320 Y59.999 E15.50918
G1 X49.029 Y60.495 E15.53630
G1 X49.029 Y53.054 E15.76957
G1 X49.738 Y53.550 E15.79669
G1 X49.738 Y60.991 E16.02997
G1 X50.446 Y61.488 E16.05709
G1 X50.446 Y54.046 E16.29037
G1 X51.155 Y54.542 E16.31749
G1 X51.155 Y61.984 E16.55077
G1 X51.864 Y62.480 E16.57789
G1 X51.864 Y55.039 E16.81117
G1 X52.572 Y55.535 E16.83829
G1 X52.572 Y62.976 E17.07156
G1 X53.281 Y63.472 E17.09868
G1 X53.281 Y56.031 E17.33196
G1 X53.990 Y56.527 E17.35908
G1 X53.990 Y63.969 E17.59236
G1 X54.698 Y64.465 E17.61948
G1 X54.698 Y57.023 E17.85276
G1 X55.407 Y57.520 E17.87988
G1 X55.407 Y64.961 E18.11316
G1 X56.116 Y65.457 E18.14028
G1 X56.116 Y58.016 E18.37355
G1 X56.824 Y58.512 E18.40067
G1 X56.824 Y65.953 E18.63395
G1 X57.533 Y66.450 E18.66107
G1 X57.533 Y59.008 E18.89435
G1 X58.242 Y59.504 E18.92147
G1 X58.242 Y66.946 E19.15475
G1 X58.950 Y67.442 E19.18187
G1 X58.950 Y60.001 E19.41515
G1 X59.659 Y60.497 E19.44227
G1 X59.659 Y67.938 E19.67554
G1 X60.368 Y68.435 E19.70266
G1 X60.368 Y60.993 E19.93594
G1 X61.076 Y61.489 E19.96306
G1 X61.076 Y68.931 E20.19634
G1 X61.785 Y69.427 E20.22346
G1 X61.785 Y61.986 E20.45674
G1 X62.494 Y62.482 E20.48386
G1 X62.494 Y69.923 E20.71714
G1 X63.202 Y70.419 E20.74426
G1 X63.202 Y62.978 E20.97754
G1 X63.911 Y63.474 E21.00466
G1 X63.911 Y70.916 E21.23793
G1 X64.620 Y71.412 E21.26505
G1 X64.620 Y63.970 E21.49833
G1 X65.328 Y64.467 E21.52545
G1 X65.328 Y71.908 E21.75873
G1 X66.037 Y72.404 E21.78585
G1 X66.037 Y64.963 E22.01913
G1 X66.746 Y65.459 E22.04625
G1 X66.746 Y72.900 E22.27953
G1 X67.454 Y73.397 E22.30665
G1 X67.454 Y65.955 E22.53992
G1 X68.163 Y66.451 E22.56704
G1 X68.163 Y73.893 E22.80032
G1 X68.872 Y74.389 E22.82744
G1 X68.872 Y66.948 E23.06072
G1 X69.580 Y67.444 E23.08784
G1 X69.580 Y74.885 E23.32112
G1 X70.289 Y75.381 E23.34824
G1 X70.289 Y67.940 E23.58152
G1 X70.998 Y68.436 E23.60864
G1 X70.998 Y75.878 E23.84191
G1 X71.706 Y76.374 E23.86903
G1 X71.706 Y68.932 E24.10231
G1 X72.415 Y69.429 E24.12943
G1 X72.415 Y76.870 E24.36271
G1 X73.124 Y77.366 E24.38983
G1 X73.124 Y69.925 E24.62311
G1 X73.832 Y70.421 E24.65023
G1 X73.832 Y77.863 E24.88351
G1 X74.541 Y78.359 E24.91063
G1 X74.541 Y70.917 E25.14390
G1 X75.250 Y71.414 E25.17103
G1 X75.250 Y78.855 E25.40430
G1 X75.958 Y79.351 E25.43142
G1 X75.958 Y71.910 E25.66470
G1 X76.667 Y72.406 E25.69182
G1 X76.667 Y79.847 E25.92510
G1 X77.376 Y80.344 E25.95222
G1 X77.376 Y72.902 E26.18550
G1 X78.084 Y73.398 E26.21262
G1 X78.084 Y80.840 E26.44590
G1 X78.793 Y81.336 E26.47302
G1 X78.793 Y73.895 E26.70629
G1 X79.502 Y74.391 E26.73341
G1 X79.502 Y81.832 E26.96669
G1 X80.210 Y82.328 E26.99381
G1 X80.210 Y74.887 E27.22709
G1 X80.919 Y75.383 E27.25421
G1 X80.919 Y82.825 E27.48749
G1 X81.628 Y83.321 E27.51461
G1 X81.628 Y75.879 E27.74789
G1 X82.336 Y76.376 E27.77501
G1 X82.336 Y83.817 E28.00828
G1 X83.045 Y84.313 E28.03540
G1 X83.045 Y76.872 E28.26868
G1 X83.754 Y77.368 E28.29580
G1 X83.754 Y84.810 E28.52908
G1 X84.462 Y85.306 E28.55620
G1 X84.462 Y77.864 E28.78948
G1 X85.171 Y78.361 E28.81660
G1 X85.171 Y85.802 E29.04988
G1 X85.880 Y86.298 E29.07700
G1 X85.880 Y78.857 E29.31027
G1 X86.588 Y79.353 E29.33740
G1 X86.588 Y86.794 E29.57067
G1 X87.297 Y87.291 E29.59779
G1 X87.297 Y79.849 E29.83107
G1 X88.006 Y80.345 E29.85819
G1 X88.006 Y87.787 E30.09147
G1 X88.714 Y88.283 E30.11859
G1 X88.714 Y80.842 E30.35187
G1 X89.423 Y81.338 E30.37899
G1 X89.423 Y88.779 E30.61227
G1 X90.132 Y89.275 E30.63939
G1 X90.132 Y81.834 E30.87266
G1 X90.840 Y82.330 E30.89978
G1 X90.840 Y89.772 E31.13306
G1 X91.549 Y90.268 E31.16018
G1 X91.549 Y82.826 E31.39346
G1 X92.258 Y83.323 E31.42058
G1 X92.258 Y90.764 E31.65386
G1 X92.966 Y91.260 E31.68098
G1 X92.966 Y83.819 E31.91426
G1 X93.675 Y84.315 E31.94138
G1 X93.675 Y91.756 E32.17465
G1 X94.384 Y92.253 E32.20177
G1 X94.384 Y84.811 E32.43505
G1 X95.092 Y85.307 E32.46217
G1 X95.092 Y92.749 E32.69545
G1 X95.801 Y93.245 E32.72257
G1 X95.801 Y85.804 E32.95585
G1 X96.510 Y86.300 E32.98297
G1 X96.510 Y93.741 E33.21625
G1 X97.218 Y94.238 E33.24337
G1 X97.218 Y86.796 E33.47665
G1 X97.927 Y87.292 E33.50377
G1 X97.927 Y94.734 E33.73704
G1 X98.636 Y95.230 E33.76416
G1 X98.636 Y87.789 E33.99744
G1 X99.344 Y88.285 E34.02456
G1 X99.344 Y95.726 E34.25784
G1 X100.053 Y96.222 E34.28496
G1 X100.053 Y88.781 E34.51824
G1 X100.762 Y89.277 E34.54536
G1 X100.762 Y96.719 E34.77864
G1 X101.470 Y97.215 E34.80576
G1 X101.470 Y89.773 E35.03903
G1 X102.179 Y90.270 E35.06615
G1 X102.179 Y97.711 E35.29943
G1 X102.888 Y98.207 E35.32655
G1 X102.888 Y90.766 E35.55983
G1 X103.596 Y91.262 E35.58695
G1 X103.596 Y98.703 E35.82023
G1 X104.305 Y99.200 E35.84735
G1 X104.305 Y91.758 E36.08063
G1 X105.014 Y92.254 E36.10775
G1 X105.014 Y99.696 E36.34103
G1 X105.722 Y100.192 E36.36815
G1 X105.722 Y92.751 E36.60142
G1 X106.431 Y93.247 E36.62854
G1 X106.431 Y100.688 E36.86182
G1 X107.140 Y101.185 E36.88894
G1 X107.140 Y93.743 E37.12222
G1 X107.848 Y94.239 E37.14934
G1 X107.848 Y101.681 E37.38262
G1 X108.557 Y102.177 E37.40974
G1 X108.557 Y94.736 E37.64302
G1 X109.266 Y95.232 E37.67014
G1 X109.266 Y102.673 E37.90341
G1 X109.974 Y103.169 E37.93053
G1 X109.974 Y95.728 E38.16381
G1 X110.683 Y96.224 E38.19093
G1 X110.683 Y103.666 E38.42421
G1 X111.392 Y104.162 E38.45133
G1 X111.392 Y96.720 E38.68461
G1 X112.100 Y97.217 E38.71173
G1 X112.100 Y104.658 E38.94501
G1 X112.809 Y105.154 E38.97213
G1 X112.809 Y97.713 E39.20541
G1 X113.518 Y98.209 E39.23253
G1 X113.518 Y105.650 E39.46580
G1 X114.226 Y106.147 E39.49292
G1 X114.226 Y98.705 E39.72620
G1 X114.935 Y99.201 E39.75332
G1 X114.935 Y106.643 E39.98660
G1 X115.644 Y107.139 E40.01372
G1 X115.644 Y99.698 E40.24700
G1 X116.352 Y100.194 E40.27412
G1 X116.352 Y107.635 E40.50740
G1 X117.061 Y108.132 E40.53452
G1 X117.061 Y100.690 E40.76779
G1 X117.770 Y101.186 E40.79491
G1 X117.770 Y108.628 E41.02819
G1 X118.478 Y109.124 E41.05531
G1 X118.478 Y101.683 E41.28859
G1 X119.187 Y102.179 E41.31571
G1 X119.187 Y109.620 E41.54899
G1 X119.896 Y110.116 E41.57611
G1 X119.896 Y102.675 E41.80939
G1 X120.604 Y103.171 E41.83651
G1 X120.604 Y110.613 E42.06978
G1 X121.313 Y111.109 E42.09691
G1 X121.313 Y103.667 E42.33018
G1 X122.022 Y104.164 E42.35730
G1 X122.022 Y111.605 E42.59058
G1 X122.730 Y112.101 E42.61770
G1 X122.730 Y104.660 E42.85098
G1 X123.439 Y105.156 E42.87810
G1 X123.439 Y112.597 E43.11138
G1 X124.148 Y113.094 E43.13850
G1 X124.148 Y105.652 E43.37178
G1 X124.856 Y106.148 E43.39890
G1 X124.856 Y113.590 E43.63217
G1 X125.565 Y114.086 E43.65929
G1 X125.565 Y106.645 E43.89257
G1 X126.274 Y107.141 E43.91969
G1 X126.274 Y114.582 E44.15297
G1 X126.982 Y115.078 E44.18009
G1 X126.982 Y107.637 E44.41337
G1 X127.691 Y108.133 E44.44049
G1 X127.691 Y115.575 E44.67377
G1 X128.400 Y116.071 E44.70089
G1 X128.400 Y108.629 E44.93417
G1 X129.108 Y109.126 E44.96129
G1 X129.108 Y116.567 E45.19456
G1 X129.817 Y117.063 E45.22168
G1 X129.817 Y109.622 E45.45496
G1 X130.526 Y110.118 E45.48208
G1 X130.526 Y117.560 E45.71536
G1 X131.234 Y118.056 E45.74248
G1 X131.234 Y110.614 E45.97576
G1 X131.943 Y111.111 E46.00288
G1 X131.943 Y118.552 E46.23616
G1 X132.652 Y119.048 E46.26328
G1 X132.652 Y111.607 E46.49655
G1 X133.360 Y112.103 E46.52367
G1 X133.360 Y119.544 E46.75695
G1 X134.069 Y120.041 E46.78407
G1 X134.069 Y112.599 E47.01735
G1 X134.778 Y113.095 E47.04447
G1 X134.778 Y120.537 E47.27775
G1 X135.486 Y121.033 E47.30487
G1 X135.486 Y113.592 E47.53815
G1 X136.195 Y114.088 E47.56527
G1 X136.195 Y121.529 E47.79855
G1 X136.904 Y122.025 E47.82567
G1 X136.904 Y114.584 E48.05894
G1 X137.612 Y115.080 E48.08606
G1 X137.612 Y122.522 E48.31934
G1 X138.321 Y123.018 E48.34646
G1 X138.321 Y115.576 E48.57974
G1 X139.029 Y116.073 E48.60686
G1 X139.029 Y123.514 E48.84014
G1 X139.738 Y124.010 E48.86726
G1 X139.738 Y116.569 E49.10054
G1 X140.447 Y117.065 E49.12766
G1 X140.447 Y124.507 E49.36093
G1 X141.155 Y125.003 E49.38805
G1 X141.155 Y117.561 E49.62133
G1 X141.864 Y118.058 E49.64845
G1 X141.864 Y125.499 E49.88173
G1 X142.573 Y125.995 E49.90885
G1 X142.573 Y118.554 E50.14213
G1 X143.281 Y119.050 E50.16925
G1 X143.281 Y126.491 E50.40253
G1 X143.990 Y126.988 E50.42965
G1 X143.990 Y119.546 E50.66293
G1 X144.699 Y120.042 E50.69005
G1 X144.699 Y127.484 E50.92332
G1 X145.407 Y127.980 E50.95044
G1 X145.407 Y120.539 E51.18372
G1 X146.116 Y121.035 E51.21084
G1 X146.116 Y128.476 E51.44412
G1 X146.825 Y128.972 E51.47124
G1 X146.825 Y121.531 E51.70452
G1 X147.533 Y122.027 E51.73164
G1 X147.533 Y129.469 E51.96492
G1 X148.242 Y129.965 E51.99204
G1 X148.242 Y122.523 E52.22531
G1 X148.951 Y123.020 E52.25244
G1 X148.951 Y130.461 E52.48571
G1 X149.659 Y130.957 E52.51283
G1 X149.659 Y123.516 E52.74611
G1 X150.368 Y124.012 E52.77323
G1 X150.368 Y131.454 E53.00651
G1 X151.077 Y131.950 E53.03363
G1 X151.077 Y124.508 E53.26691
G1 X151.785 Y125.004 E53.29403
G1 X151.785 Y132.446 E53.52731
