; generated by PrusaSlicer 2.3.0+win64 on 2021-03-26 at 15:42:25 UTC

; 

; external perimeters extrusion width = 0.45mm
; perimeters extrusion width = 0.45mm
; infill extrusion width = 0.38mm
; solid infill extrusion width = 0.45mm
; top infill extrusion width = 0.40mm

M201 X9000 Y9000 Z500 E10000 ; sets maximum accelerations, mm/sec^2
M203 X500 Y500 Z12 E120 ; sets maximum feedrates, mm/sec
M204 P1500 R1500 T1500 ; sets acceleration (P, T) and retract acceleration (R), mm/sec^2
M205 X10.00 Y10.00 Z0.20 E2.50 ; sets the jerk limits, mm/sec
M205 S0 T0 ; sets the minimum extruding and travel feed rate, mm/sec
M107
;TYPE:Custom
M117 Preheating... 
M104 S205  ; pre heat nozzle to ...
M140 S60; start warming the bed to ...
;----------------------------------------
M117 Homing;
G28; Home all 3 axis
;----------------------------------------
M117 Auto leveling ;If you dont have a Sensor it will automatically skip this step
G29; run auto level
;----------------------------------------
M117 Parking Nozzle
G1 X250 Y15 F3000
G1 Z0 F300; Close Nozzle
;----------------------------------------
M117 Continuing Heating
M190 S60; set bed temp and wait for it to come up
M109 S205 ; set hot end temp to first layer temp
;----------------------------------------
M117 Priming;
G92 E0 
G1 F300 E-0.5
G0 X220 Y15 Z0.2 F5000
G1 F400 E8
G1 X80 E25 F800
G4 P500 ; Pause 
;----------------------------------------
M117 Printing...
G21 ; set units to millimeters
G90 ; use absolute coordinates
M82 ; use absolute distances for extrusion
G92 E0
; Filament gcode
;LAYER_CHANGE
;Z:0.266
;HEIGHT:0.266
G1 Z0.266 F4800.000
G1 E-7.00000 F2100.000
G92 E0
G1 Z0.566 F4800.000
G1 X35.123 Y51.079
G1 Z0.266
G1 E7.00000 F1800.000
;TYPE:Skirt
;WIDTH:0.45
G1 X36.077 Y50.054 E7.06085
G1 X36.983 Y49.386 E7.10974
G1 X37.980 Y48.880 E7.15834
G1 X39.047 Y48.545 E7.20694
G1 X40.161 Y48.388 E7.25582
G1 X65.990 Y48.378 E8.37815
G1 X67.174 Y48.483 E8.42982
G1 X68.328 Y48.796 E8.48177
G1 X69.409 Y49.306 E8.53371
G1 X70.384 Y49.998 E8.58566
G1 X71.222 Y50.851 E8.63761
G1 X71.898 Y51.837 E8.68955
G1 X72.390 Y52.926 E8.74150
G1 X72.683 Y54.085 E8.79345
G1 X72.769 Y55.143 E8.83954
G1 X72.734 Y71.686 E9.55841
G1 X72.487 Y72.935 E9.61370
G1 X72.012 Y74.115 E9.66899
G1 X71.324 Y75.185 E9.72428
G1 X70.449 Y76.109 E9.77957
G1 X69.527 Y76.786 E9.82928
G1 X68.504 Y77.299 E9.87900
G1 X67.410 Y77.633 E9.92872
G1 X66.275 Y77.778 E9.97844
G1 X40.347 Y77.408 E11.10520
G1 X38.965 Y77.225 E11.16578
G1 X37.649 Y76.763 E11.22635
G1 X36.456 Y76.042 E11.28693
G1 X35.435 Y75.093 E11.34751
G1 X34.791 Y74.226 E11.39444
G1 X34.295 Y73.274 E11.44109
G1 X33.954 Y72.249 E11.48802
G1 X33.780 Y71.190 E11.53467
G1 X33.759 Y54.990 E12.23859
G1 X33.939 Y53.601 E12.29944
G1 X34.400 Y52.279 E12.36030
G1 X35.092 Y51.131 E12.41854
G1 X35.430 Y51.337 F4800.000
G1 F1800.000
G1 X35.464 Y51.281 E12.42138
G1 X36.375 Y50.315 E12.47909
G1 X37.224 Y49.700 E12.52464
G1 X38.167 Y49.228 E12.57046
G1 X39.169 Y48.920 E12.61601
G1 X40.208 Y48.779 E12.66155
G1 X65.990 Y48.771 E13.78185
G1 X67.114 Y48.872 E13.83092
G1 X68.210 Y49.171 E13.88025
G1 X69.229 Y49.656 E13.92932
G1 X70.148 Y50.313 E13.97838
G1 X70.936 Y51.121 E14.02745
G1 X71.573 Y52.061 E14.07678
G1 X72.034 Y53.099 E14.12612
G1 X72.303 Y54.195 E14.17518
G1 X72.376 Y55.147 E14.21667
G1 X72.345 Y71.629 E14.93283
G1 X72.111 Y72.822 E14.98568
G1 X71.655 Y73.950 E15.03853
G1 X70.993 Y74.970 E15.09138
G1 X70.151 Y75.847 E15.14423
G1 X69.281 Y76.476 E15.19086
G1 X68.324 Y76.948 E15.23722
G1 X67.296 Y77.256 E15.28385
G1 X66.231 Y77.387 E15.33048
G1 X40.349 Y77.015 E16.45523
G1 X39.033 Y76.837 E16.51294
G1 X37.788 Y76.394 E16.57038
G1 X36.655 Y75.700 E16.62809
G1 X35.694 Y74.792 E16.68552
G1 X35.098 Y73.976 E16.72945
G1 X34.638 Y73.076 E16.77338
G1 X34.325 Y72.114 E16.81730
G1 X34.169 Y71.122 E16.86096
G1 X34.152 Y54.989 E17.56199
G1 X34.326 Y53.672 E17.61970
G1 X34.768 Y52.420 E17.67741
G1 X35.398 Y51.388 E17.72995
G1 E10.72995 F2100.000
G92 E0
G1 Z0.566 F4800.000
G1 X41.946 Y60.429
G1 Z0.266
G1 E7.00000 F1800.000
;TYPE:Perimeter
G1 X64.580 Y60.429 E7.98349
G1 X64.580 Y66.688 E8.25546
G1 X41.946 Y66.688 E9.23895
G1 X41.946 Y60.489 E9.50831
G1 X41.553 Y60.036 F4800.000
G1 F1800.000
G1 X64.973 Y60.036 E10.52595
G1 X64.973 Y67.081 E10.83206
G1 X41.553 Y67.081 E11.84970
G1 X41.553 Y60.096 E12.15321
G1 X41.424 Y59.643 F4800.000
G1 F1800.000
G1 X65.160 Y59.643 E13.18459
G1 X65.160 Y55.782 E13.35239
G1 X65.366 Y55.782 E13.36131
G1 X65.366 Y70.381 E13.99570
G1 X65.160 Y70.381 E14.00462
G1 X65.160 Y67.474 E14.13095
G1 X41.403 Y67.474 E15.16326
G1 X41.403 Y70.007 E15.27333
G1 X41.160 Y70.007 E15.28388
G1 X41.160 Y55.782 E15.90201
G1 X41.424 Y55.782 E15.91349
G1 X41.424 Y59.583 E16.07868
G1 X41.817 Y59.250 F4800.000
;TYPE:External perimeter
G1 F1800.000
G1 X64.767 Y59.250 E17.07592
G1 X64.767 Y55.389 E17.24372
G1 X65.759 Y55.389 E17.28679
G1 X65.759 Y70.774 E17.95532
G1 X64.767 Y70.774 E17.99839
G1 X64.767 Y67.867 E18.12471
G1 X41.796 Y67.867 E19.12289
G1 X41.796 Y70.400 E19.23296
G1 X40.767 Y70.400 E19.27765
G1 X40.767 Y55.389 E19.92993
G1 X41.817 Y55.389 E19.97555
G1 X41.817 Y59.190 E20.14075
G1 X41.853 Y59.649 F4800.000
G1 E13.14075 F2100.000
G92 E0
G1 Z0.566 F4800.000
G1 X64.482 Y61.329
G1 Z0.266
G1 E7.00000 F1800.000
;TYPE:Solid infill
;WIDTH:0.453318
G1 X63.857 Y60.704 E7.03870
G1 X63.297 Y60.704 E7.06326
G1 X64.305 Y61.712 E7.12572
G1 X64.305 Y62.273 E7.15028
G1 X62.736 Y60.704 E7.24747
G1 X62.176 Y60.704 E7.27203
G1 X64.305 Y62.833 E7.40395
G1 X64.305 Y63.393 E7.42850
G1 X61.616 Y60.704 E7.59515
G1 X61.055 Y60.704 E7.61970
G1 X64.305 Y63.954 E7.82108
G1 X64.305 Y64.514 E7.84563
G1 X60.495 Y60.704 E8.08173
G1 X59.935 Y60.704 E8.10628
G1 X64.305 Y65.074 E8.37711
G1 X64.305 Y65.635 E8.40166
G1 X59.374 Y60.704 E8.70721
G1 X58.814 Y60.704 E8.73176
G1 X64.305 Y66.195 E9.07204
G1 X64.305 Y66.413 E9.08159
G1 X63.962 Y66.413 E9.09659
G1 X58.253 Y60.704 E9.45037
G1 X57.693 Y60.704 E9.47493
G1 X63.402 Y66.413 E9.82871
G1 X62.842 Y66.413 E9.85326
G1 X57.133 Y60.704 E10.20704
G1 X56.572 Y60.704 E10.23160
G1 X62.281 Y66.413 E10.58538
G1 X61.721 Y66.413 E10.60993
G1 X56.012 Y60.704 E10.96371
G1 X55.452 Y60.704 E10.98827
G1 X61.161 Y66.413 E11.34205
G1 X60.600 Y66.413 E11.36660
G1 X54.891 Y60.704 E11.72038
G1 X54.331 Y60.704 E11.74494
G1 X60.040 Y66.413 E12.09872
G1 X59.479 Y66.413 E12.12327
G1 X53.771 Y60.704 E12.47705
G1 X53.210 Y60.704 E12.50161
G1 X58.919 Y66.413 E12.85539
G1 X58.359 Y66.413 E12.87994
G1 X52.650 Y60.704 E13.23372
G1 X52.090 Y60.704 E13.25828
G1 X57.798 Y66.413 E13.61206
G1 X57.238 Y66.413 E13.63661
G1 X51.529 Y60.704 E13.99039
G1 X50.969 Y60.704 E14.01495
G1 X56.678 Y66.413 E14.36873
G1 X56.117 Y66.413 E14.39328
G1 X50.408 Y60.704 E14.74707
G1 X49.848 Y60.704 E14.77162
G1 X55.557 Y66.413 E15.12540
G1 X54.997 Y66.413 E15.14996
G1 X49.288 Y60.704 E15.50374
G1 X48.727 Y60.704 E15.52829
G1 X54.436 Y66.413 E15.88207
G1 X53.876 Y66.413 E15.90663
G1 X48.167 Y60.704 E16.26041
G1 X47.607 Y60.704 E16.28496
G1 X53.316 Y66.413 E16.63874
G1 X52.755 Y66.413 E16.66330
G1 X47.046 Y60.704 E17.01708
G1 X46.486 Y60.704 E17.04163
G1 X52.195 Y66.413 E17.39541
G1 X51.634 Y66.413 E17.41997
G1 X45.926 Y60.704 E17.77375
G1 X45.365 Y60.704 E17.79830
G1 X51.074 Y66.413 E18.15208
G1 X50.514 Y66.413 E18.17664
G1 X44.805 Y60.704 E18.53042
G1 X44.244 Y60.704 E18.55497
G1 X49.953 Y66.413 E18.90875
G1 X49.393 Y66.413 E18.93331
G1 X43.684 Y60.704 E19.28709
G1 X43.124 Y60.704 E19.31164
G1 X48.833 Y66.413 E19.66542
G1 X48.272 Y66.413 E19.68998
G1 X42.563 Y60.704 E20.04376
G1 X42.221 Y60.704 E20.05876
G1 X42.221 Y60.922 E20.06831
G1 X47.712 Y66.413 E20.40858
G1 X47.152 Y66.413 E20.43313
G1 X42.221 Y61.483 E20.73867
G1 X42.221 Y62.043 E20.76323
G1 X46.591 Y66.413 E21.03404
G1 X46.031 Y66.413 E21.05860
G1 X42.221 Y62.603 E21.29469
G1 X42.221 Y63.164 E21.31924
G1 X45.470 Y66.413 E21.52061
G1 X44.910 Y66.413 E21.54516
G1 X42.221 Y63.724 E21.71180
G1 X42.221 Y64.284 E21.73636
G1 X44.350 Y66.413 E21.86827
G1 X43.789 Y66.413 E21.89282
G1 X42.221 Y64.845 E21.99001
G1 X42.221 Y65.405 E22.01456
G1 X43.229 Y66.413 E22.07703
G1 X42.669 Y66.413 E22.10158
G1 X42.044 Y65.789 E22.14027
;LAYER_CHANGE
;Z:0.466
;HEIGHT:0.2
G1 Z0.466 F4800.000
M104 S195 ; set temperature
M140 S55 ; set bed temperature
G1 E15.14027 F2100.000
G92 E0
G1 Z0.766 F4800.000
G1 X41.989 Y60.472
G1 Z0.466
G1 E7.00000 F1800.000
;TYPE:Perimeter
;WIDTH:0.45
G1 X64.537 Y60.472 E7.76325
G1 X64.537 Y66.646 E7.97223
G1 X41.989 Y66.646 E8.73548
G1 X41.989 Y60.532 E8.94243
G1 X41.582 Y60.064 F4800.000
G1 F1800.000
G1 X64.944 Y60.064 E9.73323
G1 X64.944 Y67.053 E9.96977
G1 X41.582 Y67.053 E10.76058
G1 X41.582 Y60.124 E10.99508
G1 X41.410 Y59.657 F4800.000
G1 F1800.000
G1 X65.174 Y59.657 E11.79947
G1 X65.174 Y54.964 E11.95833
G1 X65.351 Y54.964 E11.96433
G1 X65.351 Y71.198 E12.51383
G1 X65.174 Y71.198 E12.51982
G1 X65.174 Y67.460 E12.64637
G1 X41.389 Y67.460 E13.45149
G1 X41.389 Y70.824 E13.56538
G1 X41.174 Y70.824 E13.57263
G1 X41.174 Y54.964 E14.10948
G1 X41.410 Y54.964 E14.11747
G1 X41.410 Y59.597 E14.27429
G1 X41.817 Y59.250 F4800.000
;TYPE:External perimeter
G1 F1260.000
G1 X64.767 Y59.250 E15.05112
G1 X64.767 Y54.964 E15.19622
;TYPE:Overhang perimeter
;WIDTH:0.393954
;HEIGHT:0.393954
G1 F2700.000
G1 X64.767 Y54.557 E15.21683
G1 X65.759 Y54.557 E15.26706
G1 X65.759 Y54.964 E15.28766
;TYPE:External perimeter
;WIDTH:0.45
;HEIGHT:0.2
G1 F1260.000
G1 X65.759 Y71.199 E15.83720
;TYPE:Overhang perimeter
;WIDTH:0.393954
;HEIGHT:0.393954
G1 F2700.000
G1 X65.759 Y71.605 E15.85780
G1 X64.767 Y71.605 E15.90803
G1 X64.767 Y71.199 E15.92864
;TYPE:External perimeter
;WIDTH:0.45
;HEIGHT:0.2
G1 F1260.000
G1 X64.767 Y67.867 E16.04142
G1 X41.796 Y67.867 E16.81898
G1 X41.796 Y70.825 E16.91911
;TYPE:Overhang perimeter
;WIDTH:0.393954
;HEIGHT:0.393954
G1 F2700.000
G1 X41.796 Y71.231 E16.93971
G1 X40.767 Y71.231 E16.99183
G1 X40.767 Y70.825 E17.01244
;TYPE:External perimeter
;WIDTH:0.45
;HEIGHT:0.2
G1 F1260.000
G1 X40.767 Y54.964 E17.54932
;TYPE:Overhang perimeter
;WIDTH:0.393954
;HEIGHT:0.393954
G1 F2700.000
G1 X40.767 Y54.557 E17.56992
G1 X41.817 Y54.557 E17.62313
G1 X41.817 Y54.964 E17.64373
;TYPE:External perimeter
;WIDTH:0.45
;HEIGHT:0.2
G1 F1260.000
G1 X41.817 Y59.190 E17.78680
G1 E10.78680 F2100.000
G92 E0
G1 Z0.766 F4800.000
G1 X64.438 Y65.821
G1 Z0.466
G1 E7.00000 F1800.000
;TYPE:Top solid infill
;WIDTH:0.401486
G1 F900.000
G1 X63.874 Y66.386 E7.02379
G1 X63.367 Y66.386 E7.03891
G1 X64.277 Y65.475 E7.07731
G1 X64.277 Y64.968 E7.09243
G1 X62.860 Y66.386 E7.15221
G1 X62.352 Y66.386 E7.16733
G1 X64.277 Y64.461 E7.24849
G1 X64.277 Y63.954 E7.26361
G1 X61.845 Y66.386 E7.36616
G1 X61.338 Y66.386 E7.38128
G1 X64.277 Y63.447 E7.50520
G1 X64.277 Y62.939 E7.52032
G1 X60.831 Y66.386 E7.66562
G1 X60.324 Y66.386 E7.68074
G1 X64.277 Y62.432 E7.84743
G1 X64.277 Y61.925 E7.86255
G1 X59.817 Y66.386 E8.05062
G1 X59.310 Y66.386 E8.06574
G1 X64.277 Y61.418 E8.27519
G1 X64.277 Y60.911 E8.29030
G1 X58.803 Y66.386 E8.52114
G1 X58.296 Y66.386 E8.53625
G1 X63.950 Y60.732 E8.77466
G1 X63.443 Y60.732 E8.78978
G1 X57.789 Y66.386 E9.02818
G1 X57.282 Y66.386 E9.04330
G1 X62.936 Y60.732 E9.28170
G1 X62.429 Y60.732 E9.29682
G1 X56.774 Y66.386 E9.53522
G1 X56.267 Y66.386 E9.55034
G1 X61.921 Y60.732 E9.78874
G1 X61.414 Y60.732 E9.80386
G1 X55.760 Y66.386 E10.04226
G1 X55.253 Y66.386 E10.05738
G1 X60.907 Y60.732 E10.29578
G1 X60.400 Y60.732 E10.31090
G1 X54.746 Y66.386 E10.54930
G1 X54.239 Y66.386 E10.56442
G1 X59.893 Y60.732 E10.80282
G1 X59.386 Y60.732 E10.81794
G1 X53.732 Y66.386 E11.05634
G1 X53.225 Y66.386 E11.07146
G1 X58.879 Y60.732 E11.30986
G1 X58.372 Y60.732 E11.32498
G1 X52.718 Y66.386 E11.56338
G1 X52.211 Y66.386 E11.57850
G1 X57.865 Y60.732 E11.81691
G1 X57.358 Y60.732 E11.83202
G1 X51.704 Y66.386 E12.07043
G1 X51.197 Y66.386 E12.08554
G1 X56.851 Y60.732 E12.32395
G1 X56.343 Y60.732 E12.33907
G1 X50.689 Y66.386 E12.57747
G1 X50.182 Y66.386 E12.59259
G1 X55.836 Y60.732 E12.83099
G1 X55.329 Y60.732 E12.84611
G1 X49.675 Y66.386 E13.08451
G1 X49.168 Y66.386 E13.09963
G1 X54.822 Y60.732 E13.33803
G1 X54.315 Y60.732 E13.35315
G1 X48.661 Y66.386 E13.59155
G1 X48.154 Y66.386 E13.60667
G1 X53.808 Y60.732 E13.84507
G1 X53.301 Y60.731 E13.86019
G1 X47.647 Y66.386 E14.09859
G1 X47.140 Y66.386 E14.11371
G1 X52.794 Y60.732 E14.35211
G1 X52.287 Y60.732 E14.36723
G1 X46.633 Y66.386 E14.60563
G1 X46.126 Y66.386 E14.62075
G1 X51.780 Y60.732 E14.85915
G1 X51.273 Y60.732 E14.87427
G1 X45.619 Y66.386 E15.11267
G1 X45.111 Y66.386 E15.12779
G1 X50.766 Y60.732 E15.36620
G1 X50.258 Y60.732 E15.38131
G1 X44.604 Y66.386 E15.61972
G1 X44.097 Y66.386 E15.63484
G1 X49.751 Y60.732 E15.87324
G1 X49.244 Y60.731 E15.88836
G1 X43.590 Y66.386 E16.12676
G1 X43.083 Y66.386 E16.14188
G1 X48.737 Y60.732 E16.38028
G1 X48.230 Y60.732 E16.39540
G1 X42.576 Y66.386 E16.63380
G1 X42.249 Y66.386 E16.64356
G1 X42.249 Y66.206 E16.64892
G1 X42.746 Y65.708 E16.66990
G1 X42.746 Y65.201 E16.68502
G1 X42.249 Y65.699 E16.70600
G1 X42.249 Y65.192 E16.72112
G1 X42.746 Y64.694 E16.74210
G1 X42.746 Y64.187 E16.75722
G1 X42.249 Y64.685 E16.77820
G1 X42.249 Y64.178 E16.79332
G1 X42.746 Y63.680 E16.81430
G1 X42.746 Y63.173 E16.82942
G1 X42.249 Y63.671 E16.85040
G1 X42.249 Y63.163 E16.86552
G1 X42.746 Y62.666 E16.88650
G1 X42.746 Y62.159 E16.90162
G1 X42.088 Y62.817 E16.92938
G1 E9.92938 F2100.000
G92 E0
G1 Z0.766 F4800.000
G1 X43.060 Y65.394
G1 Z0.466
G1 E7.00000 F1800.000
G1 F900.000
G1 X47.723 Y60.732 E7.19660
G1 X47.216 Y60.732 E7.21172
G1 X43.221 Y64.726 E7.38017
G1 X43.221 Y64.219 E7.39529
G1 X46.709 Y60.732 E7.54236
G1 X46.202 Y60.732 E7.55747
G1 X43.221 Y63.712 E7.68316
G1 X43.221 Y63.205 E7.69828
G1 X45.695 Y60.732 E7.80258
G1 X45.188 Y60.731 E7.81770
G1 X43.221 Y62.698 E7.90062
G1 X43.221 Y62.191 E7.91574
G1 X44.680 Y60.731 E7.97728
G1 X44.173 Y60.732 E7.99240
G1 X43.060 Y61.845 E8.03934
G1 X43.827 Y60.571 F4800.000
G1 F900.000
G1 X43.169 Y61.229 E8.06710
G1 X42.746 Y61.229 E8.07969
G1 X42.746 Y61.652 E8.09229
G1 X42.249 Y62.149 E8.11327
G1 X42.249 Y61.642 E8.12839
G1 X43.159 Y60.732 E8.16679
G1 X42.652 Y60.732 E8.18191
G1 X42.088 Y61.296 E8.20570
;LAYER_CHANGE
;Z:0.666
;HEIGHT:0.2
G1 Z0.666 F4800.000
G1 X41.817 Y60.064
;TYPE:Perimeter
;WIDTH:0.45
G1 F900.000
G1 X42.003 Y60.064 E8.21199
G1 X42.003 Y67.053 E8.44853
G1 X41.582 Y67.053 E8.46280
G1 X41.582 Y60.064 E8.69934
G1 X41.757 Y60.064 E8.70529
G1 X41.410 Y59.657 F4800.000
G1 F900.000
G1 X42.410 Y59.657 E8.73914
G1 X42.410 Y67.460 E9.00324
G1 X41.389 Y67.460 E9.03782
G1 X41.389 Y71.305 E9.16799
G1 X41.174 Y71.305 E9.17524
G1 X41.174 Y54.483 E9.74465
G1 X41.410 Y54.483 E9.75263
G1 X41.410 Y59.597 E9.92574
G1 X41.817 Y59.250 F4800.000
;TYPE:External perimeter
G1 F900.000
G1 X42.817 Y59.250 E9.95959
G1 X42.817 Y67.867 E10.25124
G1 X41.796 Y67.867 E10.28582
G1 X41.796 Y71.656 E10.41409
;TYPE:Overhang perimeter
;WIDTH:0.393954
;HEIGHT:0.393954
G1 X41.796 Y71.712 E10.41693
G1 X40.767 Y71.712 E10.46905
G1 X40.767 Y71.656 E10.47188
;TYPE:External perimeter
;WIDTH:0.45
;HEIGHT:0.2
G1 X40.767 Y54.132 E11.06506
;TYPE:Overhang perimeter
;WIDTH:0.393954
;HEIGHT:0.393954
G1 X40.767 Y54.076 E11.06790
G1 X41.817 Y54.076 E11.12111
G1 X41.817 Y54.132 E11.12394
;TYPE:External perimeter
;WIDTH:0.45
;HEIGHT:0.2
G1 X41.817 Y59.190 E11.29516
G1 E4.29516 F2100.000
G92 E0
G1 Z0.966 F4800.000
G1 X64.876 Y60.064
G1 Z0.666
G1 E7.00000 F1800.000
;TYPE:Perimeter
G1 F900.000
G1 X64.944 Y60.064 E7.00231
G1 X64.944 Y67.053 E7.23885
G1 X64.876 Y67.053 E7.24116
G1 X64.876 Y60.124 E7.47567
G1 X64.469 Y59.657 F4800.000
G1 F900.000
G1 X65.174 Y59.657 E7.49955
G1 X65.174 Y54.483 E7.67469
G1 X65.351 Y54.483 E7.68068
G1 X65.351 Y71.679 E8.26275
G1 X65.174 Y71.679 E8.26874
G1 X65.174 Y67.460 E8.41157
G1 X64.469 Y67.460 E8.43545
G1 X64.469 Y59.717 E8.69751
G1 X64.062 Y59.250 F4800.000
;TYPE:External perimeter
G1 F900.000
G1 X64.767 Y59.250 E8.72139
G1 X64.767 Y54.132 E8.89464
;TYPE:Overhang perimeter
;WIDTH:0.393954
;HEIGHT:0.393954
G1 X64.767 Y54.076 E8.89747
G1 X65.759 Y54.076 E8.94770
