; generated by PrusaSlicer 2.3.0-rc2 on 2021-05-14 at 12:38:07 UTC

; 

; external perimeters extrusion width = 0.45mm
; perimeters extrusion width = 0.45mm
; infill extrusion width = 0.38mm
; solid infill extrusion width = 0.45mm
; top infill extrusion width = 0.40mm

M201 X9000 Y9000 Z500 E10000 ; sets maximum accelerations, mm/sec^2
M203 X500 Y500 Z12 E120 ; sets maximum feedrates, mm/sec
M204 P1500 R1500 T1500 ; sets acceleration (P, T) and retract acceleration (R), mm/sec^2
M205 X10.00 Y10.00 Z0.20 E2.50 ; sets the jerk limits, mm/sec
M205 S0 T0 ; sets the minimum extruding and travel feed rate, mm/sec
M107
M190 S57 ; set bed temperature and wait for it to be reached
M104 S230 ; set temperature
;TYPE:Custom
M220 S100 ;Reset Feedrate
M221 S100 ;Reset Flowrate
G28 ;Home
;Fix X0 Y0 being outside the bed after homing
G1 Z2.0 F3000 ;Move Z Axis up
G1 X1.3 Y4.8 ;Place the nozzle over the bed
;Code for nozzle cleaning and flow normalization
G92 E0 ;Reset Extruder
G1 Z2.0 F3000 ;Move Z Axis up
G1 X10.4 Y20 Z0.28 F5000.0
G1 X10.4 Y170.0 Z0.28 F1500.0 E15
G1 X10.1 Y170.0 Z0.28 F5000.0
G1 X10.1 Y40 Z0.28 F1500.0 E30
G92 E0 ;Reset Extruder
G1 Z2.0 F3000 ;Move Z Axis up
M109 S230 ; set temperature and wait for it to be reached
G21 ; set units to millimeters
G90 ; use absolute coordinates
M82 ; use absolute distances for extrusion
G92 E0
; Filament gcode
;LAYER_CHANGE
;Z:0.266
;HEIGHT:0.266
G1 Z0.266 F4800.000
G1 E-6.50000 F2400.000
G92 E0
G1 X103.618 Y93.356 F4800.000
G1 E6.50000 F2400.000
;TYPE:Skirt
;WIDTH:0.45
G1 F2700.000
G1 X104.915 Y93.215 E6.55668
G1 X145.006 Y93.214 E8.29877
G1 X146.235 Y93.328 E8.35239
G1 X147.423 Y93.662 E8.40601
G1 X148.531 Y94.205 E8.45963
G1 X149.522 Y94.940 E8.51324
G1 X150.363 Y95.843 E8.56686
G1 X151.027 Y96.883 E8.62048
G1 X151.492 Y98.026 E8.67410
G1 X151.742 Y99.234 E8.72771
G1 X151.785 Y110.077 E9.19888
G1 X151.596 Y111.594 E9.26530
G1 X151.046 Y113.081 E9.33421
G1 X150.166 Y114.401 E9.40312
G1 X149.008 Y115.476 E9.47176
G1 X147.628 Y116.256 E9.54068
G1 X146.376 Y116.645 E9.59763
G1 X145.079 Y116.785 E9.65432
G1 X104.498 Y116.767 E11.41764
G1 X103.576 Y116.635 E11.45816
G1 X102.679 Y116.377 E11.49867
G1 X101.827 Y115.998 E11.53919
G1 X101.040 Y115.511 E11.57943
G1 X100.322 Y114.916 E11.61994
G1 X99.692 Y114.228 E11.66046
G1 X99.163 Y113.461 E11.70098
G1 X98.744 Y112.628 E11.74149
G1 X98.368 Y111.439 E11.79567
G1 X98.217 Y110.201 E11.84984
G1 X98.215 Y99.929 E12.29619
G1 X98.336 Y98.721 E12.34897
G1 X98.542 Y97.917 E12.38502
G1 X98.847 Y97.138 E12.42135
G1 X99.246 Y96.403 E12.45768
G1 X99.732 Y95.723 E12.49402
G1 X100.293 Y95.112 E12.53007
G1 X100.930 Y94.570 E12.56640
G1 X101.628 Y94.111 E12.60273
G1 X102.372 Y93.744 E12.63878
G1 X103.561 Y93.374 E12.69285
G1 E6.19285 F2400.000
G92 E0
G1 X101.199 Y94.860 F4800.000
G1 E6.50000 F2400.000
G1 F2700.000
G1 X102.578 Y94.083 E6.56877
G1 X103.730 Y93.734 E6.62107
G1 X104.928 Y93.607 E6.67338
G1 X145.006 Y93.607 E8.41491
G1 X146.168 Y93.715 E8.46559
G1 X147.290 Y94.031 E8.51628
G1 X148.337 Y94.547 E8.56696
G1 X149.272 Y95.244 E8.61765
G1 X150.065 Y96.099 E8.66834
G1 X150.690 Y97.085 E8.71902
G1 X151.125 Y98.167 E8.76971
G1 X151.356 Y99.310 E8.82040
G1 X151.393 Y110.069 E9.28787
G1 X151.221 Y111.473 E9.34936
G1 X150.700 Y112.895 E9.41516
G1 X149.859 Y114.155 E9.48097
G1 X148.745 Y115.181 E9.54677
G1 X147.422 Y115.917 E9.61257
G1 X146.270 Y116.266 E9.66488
G1 X145.066 Y116.393 E9.71746
G1 X104.538 Y116.376 E11.47851
G1 X103.661 Y116.251 E11.51702
G1 X102.809 Y116.006 E11.55553
G1 X102.000 Y115.645 E11.59404
G1 X101.248 Y115.176 E11.63255
G1 X100.568 Y114.607 E11.67107
G1 X99.973 Y113.950 E11.70958
G1 X99.475 Y113.217 E11.74809
G1 X99.083 Y112.422 E11.78660
G1 X98.745 Y111.319 E11.83675
G1 X98.609 Y110.172 E11.88689
G1 X98.607 Y99.938 E12.33162
G1 X98.720 Y98.802 E12.38123
G1 X99.210 Y97.290 E12.45026
G1 X100.053 Y95.951 E12.51903
G1 X101.156 Y94.901 E12.58519
G1 X102.409 Y96.263 F4800.000
G1 F2700.000
G1 X103.524 Y95.692 E12.63962
G1 X104.584 Y95.481 E12.68658
G1 X145.487 Y95.485 E14.46393
G1 X146.397 Y95.665 E14.50424
G1 X147.258 Y96.040 E14.54504
G1 X148.478 Y97.079 E14.61466
G1 X149.192 Y98.223 E14.67327
G1 X149.519 Y99.552 E14.73271
G1 X149.466 Y110.874 E15.22471
G1 X149.187 Y111.783 E15.26600
G1 X148.530 Y112.864 E15.32098
G1 X147.591 Y113.737 E15.37670
G1 X146.476 Y114.308 E15.43112
G1 X145.416 Y114.519 E15.47808
G1 X104.548 Y114.519 E17.25393
G1 X103.345 Y114.242 E17.30756
G1 X102.222 Y113.598 E17.36379
G1 X101.295 Y112.636 E17.42186
G1 X100.692 Y111.476 E17.47868
G1 X100.481 Y110.412 E17.52578
G1 X100.534 Y99.126 E18.01621
G1 X100.813 Y98.217 E18.05750
G1 X101.470 Y97.136 E18.11248
G1 X102.365 Y96.304 E18.16559
G1 X102.613 Y96.600 F4800.000
G1 F2700.000
G1 X103.678 Y96.054 E18.21757
G1 X104.602 Y95.874 E18.25850
G1 X145.467 Y95.878 E20.03418
G1 X146.298 Y96.046 E20.07100
G1 X147.072 Y96.387 E20.10777
G1 X148.198 Y97.356 E20.17229
G1 X148.841 Y98.402 E20.22565
G1 X149.126 Y99.574 E20.27805
G1 X149.081 Y110.789 E20.76539
G1 X148.837 Y111.602 E20.80228
G1 X148.240 Y112.597 E20.85269
G1 X147.387 Y113.400 E20.90362
G1 X146.322 Y113.946 E20.95560
G1 X145.398 Y114.126 E20.99652
G1 X104.571 Y114.126 E22.77056
G1 X103.464 Y113.866 E22.81996
G1 X102.445 Y113.273 E22.87119
G1 X101.599 Y112.386 E22.92444
G1 X101.054 Y111.322 E22.97639
G1 X100.874 Y110.395 E23.01742
G1 X100.919 Y99.211 E23.50340
G1 X101.163 Y98.398 E23.54030
G1 X101.760 Y97.403 E23.59071
G1 X102.570 Y96.641 E23.63903
G1 X102.839 Y96.927 F4800.000
G1 F2700.000
G1 X103.829 Y96.418 E23.68741
G1 X104.621 Y96.267 E23.72241
G1 X145.447 Y96.271 E25.49641
G1 X146.197 Y96.426 E25.52968
G1 X146.884 Y96.733 E25.56242
G1 X147.916 Y97.631 E25.62184
G1 X148.488 Y98.578 E25.66993
G1 X148.733 Y99.596 E25.71539
G1 X148.696 Y110.706 E26.19817
G1 X148.486 Y111.425 E26.23070
G1 X147.950 Y112.330 E26.27643
G1 X147.139 Y113.095 E26.32487
G1 X146.171 Y113.582 E26.37196
G1 X145.380 Y113.733 E26.40695
G1 X104.594 Y113.733 E28.17919
G1 X103.585 Y113.491 E28.22428
G1 X102.670 Y112.950 E28.27048
G1 X101.905 Y112.139 E28.31891
G1 X101.418 Y111.171 E28.36600
G1 X101.267 Y110.378 E28.40108
G1 X101.304 Y99.294 E28.88270
G1 X101.514 Y98.575 E28.91523
G1 X102.050 Y97.670 E28.96097
G1 X102.795 Y96.968 E29.00545
G1 X103.061 Y97.246 F4800.000
G1 F2700.000
G1 X103.981 Y96.782 E29.05020
G1 X104.638 Y96.660 E29.07925
G1 X145.427 Y96.664 E30.85163
G1 X146.056 Y96.793 E30.87954
G1 X146.696 Y97.080 E30.91003
G1 X147.632 Y97.905 E30.96421
G1 X148.135 Y98.752 E31.00705
G1 X148.340 Y99.618 E31.04569
G1 X148.311 Y110.626 E31.52401
G1 X148.134 Y111.249 E31.55219
G1 X147.658 Y112.066 E31.59328
G1 X146.935 Y112.757 E31.63672
G1 X146.019 Y113.218 E31.68127
G1 X145.362 Y113.340 E31.71031
G1 X104.617 Y113.340 E33.48081
G1 X103.756 Y113.137 E33.51921
G1 X102.934 Y112.658 E33.56059
G1 X102.243 Y111.935 E33.60402
G1 X101.782 Y111.019 E33.64858
G1 X101.660 Y110.361 E33.67766
G1 X101.689 Y99.374 E34.15506
G1 X101.866 Y98.751 E34.18324
G1 X102.342 Y97.934 E34.22433
G1 X103.018 Y97.288 E34.26495
G1 X103.290 Y97.572 F4800.000
G1 F2700.000
G1 X104.128 Y97.147 E34.30580
G1 X104.655 Y97.053 E34.32903
G1 X145.406 Y97.057 E36.09977
G1 X145.952 Y97.173 E36.12405
G1 X146.506 Y97.424 E36.15047
G1 X147.346 Y98.176 E36.19944
G1 X147.780 Y98.923 E36.23701
G1 X147.947 Y99.639 E36.26895
G1 X147.925 Y110.548 E36.74296
G1 X147.780 Y111.077 E36.76682
G1 X147.365 Y111.803 E36.80312
G1 X146.686 Y112.452 E36.84395
G1 X145.872 Y112.853 E36.88338
G1 X145.346 Y112.947 E36.90661
G1 X104.639 Y112.947 E38.67543
G1 X103.926 Y112.781 E38.70725
G1 X103.197 Y112.365 E38.74369
G1 X102.548 Y111.686 E38.78451
G1 X102.147 Y110.872 E38.82395
G1 X102.053 Y110.345 E38.84720
G1 X102.075 Y99.452 E39.32052
G1 X102.220 Y98.923 E39.34439
G1 X102.635 Y98.197 E39.38069
G1 X103.246 Y97.613 E39.41743
G1 X103.514 Y97.889 F4800.000
G1 F2700.000
G1 X104.275 Y97.512 E39.45431
G1 X104.670 Y97.446 E39.47169
G1 X145.383 Y97.450 E41.24081
G1 X145.845 Y97.552 E41.26136
G1 X146.312 Y97.768 E41.28371
G1 X147.057 Y98.444 E41.32744
G1 X147.424 Y99.091 E41.35973
G1 X147.554 Y99.661 E41.38513
G1 X147.539 Y110.473 E41.85497
G1 X147.424 Y110.909 E41.87455
G1 X147.069 Y111.542 E41.90610
G1 X146.483 Y112.113 E41.94165
G1 X145.725 Y112.488 E41.97841
G1 X145.330 Y112.554 E41.99579
G1 X104.660 Y112.554 E43.76300
G1 X104.092 Y112.424 E43.78835
G1 X103.458 Y112.069 E43.81992
G1 X102.887 Y111.483 E43.85547
G1 X102.512 Y110.725 E43.89223
G1 X102.446 Y110.330 E43.90963
G1 X102.461 Y99.527 E44.37905
G1 X102.576 Y99.091 E44.39863
G1 X102.931 Y98.458 E44.43018
G1 X103.472 Y97.930 E44.46300
G1 X103.746 Y98.212 F4800.000
G1 F2700.000
G1 X104.416 Y97.880 E44.49552
G1 X104.683 Y97.839 E44.50725
G1 X145.360 Y97.843 E46.27476
G1 X145.735 Y97.929 E46.29147
G1 X146.116 Y98.109 E46.30978
G1 X146.766 Y98.710 E46.34823
G1 X147.066 Y99.254 E46.37523
G1 X147.161 Y99.681 E46.39427
G1 X147.152 Y110.403 E46.86012
G1 X147.066 Y110.745 E46.87546
G1 X146.773 Y111.282 E46.90206
G1 X146.233 Y111.809 E46.93484
G1 X145.584 Y112.120 E46.96613
G1 X145.317 Y112.161 E46.97786
G1 X104.681 Y112.161 E48.74357
G1 X104.254 Y112.066 E48.76260
G1 X103.718 Y111.773 E48.78914
G1 X103.191 Y111.233 E48.82192
G1 X102.880 Y110.584 E48.85322
G1 X102.839 Y110.317 E48.86495
G1 X102.848 Y99.597 E49.33072
G1 X102.934 Y99.255 E49.34606
G1 X103.227 Y98.718 E49.37266
G1 X103.703 Y98.254 E49.40154
G1 X104.510 Y98.263 F4800.000
G1 F2700.000
G1 X104.700 Y98.232 E49.40990
G1 X145.338 Y98.236 E51.17571
G1 X145.586 Y98.293 E51.18679
G1 X145.919 Y98.451 E51.20281
G1 X146.471 Y98.971 E51.23579
G1 X146.705 Y99.412 E51.25747
G1 X146.768 Y99.702 E51.27034
G1 X146.764 Y110.337 E51.73247
G1 X146.706 Y110.587 E51.74360
G1 X146.473 Y111.027 E51.76527
G1 X146.028 Y111.472 E51.79259
G1 X145.490 Y111.737 E51.81867
G1 X145.300 Y111.768 E51.82703
G1 X104.702 Y111.768 E53.59113
G1 X104.412 Y111.705 E53.60401
G1 X103.973 Y111.473 E53.62561
G1 X103.528 Y111.028 E53.65294
G1 X103.263 Y110.490 E53.67901
G1 X103.232 Y110.300 E53.68737
G1 X103.236 Y99.663 E54.14959
G1 X103.294 Y99.413 E54.16072
G1 X103.527 Y98.973 E54.18238
G1 X103.972 Y98.528 E54.20971
G1 X104.456 Y98.289 E54.23318
G1 X103.658 Y99.564 F4800.000
G1 F2700.000
G1 X103.828 Y99.227 E54.24959
G1 X104.226 Y98.829 E54.27403
G1 X104.605 Y98.644 E54.29237
G1 X104.718 Y98.625 E54.29734
G1 X145.314 Y98.629 E56.06136
G1 X145.436 Y98.657 E56.06680
G1 X145.721 Y98.792 E56.08048
G1 X146.173 Y99.229 E56.10778
G1 X146.342 Y99.564 E56.12411
G1 X146.375 Y99.721 E56.13110
G1 X146.375 Y110.279 E56.58984
G1 X146.342 Y110.436 E56.59683
G1 X146.172 Y110.773 E56.61323
G1 X145.774 Y111.171 E56.63768
G1 X145.395 Y111.356 E56.65601
G1 X145.282 Y111.375 E56.66099
G1 X104.721 Y111.375 E58.42344
G1 X104.564 Y111.342 E58.43043
G1 X104.227 Y111.172 E58.44684
G1 X103.829 Y110.774 E58.47129
G1 X103.644 Y110.395 E58.48962
G1 X103.625 Y110.282 E58.49460
G1 X103.625 Y99.721 E58.95348
G1 X103.645 Y99.623 E58.95786
G1 X104.024 Y99.707 F4800.000
G1 F2700.000
G1 X104.132 Y99.479 E58.96879
G1 X104.479 Y99.132 E58.99013
G1 X104.740 Y99.018 E59.00250
G1 X145.293 Y99.024 E60.76466
G1 X145.521 Y99.132 E60.77559
G1 X145.868 Y99.479 E60.79693
G1 X145.982 Y99.740 E60.80930
G1 X145.976 Y110.293 E61.26788
G1 X145.868 Y110.521 E61.27882
G1 X145.521 Y110.868 E61.30015
G1 X145.260 Y110.982 E61.31252
G1 X104.707 Y110.976 E63.07468
G1 X104.479 Y110.868 E63.08562
G1 X104.132 Y110.521 E63.10695
G1 X104.018 Y110.260 E63.11932
G1 X104.018 Y99.766 E63.57532
G1 X104.441 Y99.726 F4800.000
G1 F2700.000
G1 X104.726 Y99.441 E63.59286
G1 X104.798 Y99.411 E63.59626
G1 X145.202 Y99.411 E65.35190
G1 X145.274 Y99.441 E65.35530
G1 X145.559 Y99.726 E65.37284
G1 X145.589 Y99.798 E65.37623
G1 X145.589 Y110.202 E65.82830
G1 X145.559 Y110.274 E65.83170
G1 X145.274 Y110.559 E65.84924
G1 X145.202 Y110.589 E65.85263
G1 X104.798 Y110.589 E67.60827
G1 X104.726 Y110.559 E67.61167
G1 X104.441 Y110.274 E67.62921
G1 X104.411 Y110.202 E67.63261
G1 X104.418 Y99.781 E68.08540
G1 X104.804 Y99.919 F4800.000
G1 F2700.000
G1 X104.919 Y99.804 E68.09247
G1 X145.081 Y99.804 E69.83765
G1 X145.196 Y99.919 E69.84472
G1 X145.196 Y110.081 E70.28632
G1 X145.081 Y110.196 E70.29339
G1 X104.919 Y110.196 E72.03856
G1 X104.804 Y110.081 E72.04563
G1 X104.804 Y99.979 E72.48462
G1 E65.98462 F2400.000
G92 E0
G1 X106.404 Y101.404 F4800.000
G1 E6.50000 F2400.000
;TYPE:Perimeter
G1 F1350.000
G1 X143.596 Y101.404 E8.11611
G1 X143.596 Y108.596 E8.42864
G1 X106.404 Y108.596 E10.04475
G1 X106.404 Y101.464 E10.35468
G1 X106.011 Y101.011 F4800.000
G1 F1350.000
G1 X143.989 Y101.011 E12.00493
G1 X143.989 Y108.989 E12.35161
G1 X106.011 Y108.989 E14.00187
G1 X106.011 Y101.071 E14.34594
G1 X105.618 Y100.618 F4800.000
G1 F1350.000
G1 X144.382 Y100.618 E16.03034
G1 X144.382 Y109.382 E16.41117
G1 X105.618 Y109.382 E18.09557
G1 X105.618 Y100.678 E18.47379
G1 X105.225 Y100.225 F4800.000
;TYPE:External perimeter
G1 F945.000
G1 X144.775 Y100.225 E20.19234
G1 X144.775 Y109.775 E20.60731
G1 X105.225 Y109.775 E22.32586
G1 X105.225 Y100.285 E22.73822
G1 X105.624 Y100.257 F4800.000
G1 E16.23822 F2400.000
G92 E0
G1 X143.498 Y102.300 F4800.000
G1 E6.50000 F2400.000
;TYPE:Solid infill
;WIDTH:0.451548
G1 F900.000
G1 X142.877 Y101.679 E6.53830
G1 X142.319 Y101.679 E6.56263
G1 X143.321 Y102.681 E6.62444
G1 X143.321 Y103.238 E6.64877
G1 X141.762 Y101.679 E6.74499
G1 X141.204 Y101.679 E6.76933
G1 X143.321 Y103.796 E6.89996
G1 X143.321 Y104.354 E6.92430
G1 X140.646 Y101.679 E7.08935
G1 X140.088 Y101.679 E7.11369
G1 X143.321 Y104.912 E7.31316
G1 X143.321 Y105.470 E7.33749
G1 X139.530 Y101.679 E7.57138
G1 X138.972 Y101.679 E7.59571
G1 X143.321 Y106.028 E7.86401
G1 X143.321 Y106.586 E7.88835
G1 X138.414 Y101.679 E8.19106
G1 X137.857 Y101.679 E8.21540
G1 X143.321 Y107.143 E8.55253
G1 X143.321 Y107.701 E8.57687
G1 X137.299 Y101.679 E8.94842
G1 X136.741 Y101.679 E8.97275
G1 X143.321 Y108.259 E9.37872
G1 X143.321 Y108.321 E9.38143
G1 X142.825 Y108.321 E9.40305
G1 X136.183 Y101.679 E9.81285
G1 X135.625 Y101.679 E9.83718
G1 X142.268 Y108.321 E10.24698
G1 X141.710 Y108.321 E10.27131
G1 X135.067 Y101.679 E10.68111
G1 X134.509 Y101.679 E10.70544
G1 X141.152 Y108.321 E11.11524
G1 X140.594 Y108.321 E11.13957
G1 X133.952 Y101.679 E11.54937
G1 X133.394 Y101.679 E11.57370
G1 X140.036 Y108.321 E11.98350
G1 X139.478 Y108.321 E12.00784
G1 X132.836 Y101.679 E12.41763
G1 X132.278 Y101.679 E12.44197
G1 X138.920 Y108.321 E12.85176
G1 X138.363 Y108.321 E12.87610
G1 X131.720 Y101.679 E13.28589
G1 X131.162 Y101.679 E13.31023
G1 X137.805 Y108.321 E13.72002
G1 X137.247 Y108.321 E13.74436
G1 X130.604 Y101.679 E14.15415
G1 X130.047 Y101.679 E14.17849
G1 X136.689 Y108.321 E14.58828
G1 X136.131 Y108.321 E14.61262
G1 X129.489 Y101.679 E15.02241
G1 X128.931 Y101.679 E15.04675
G1 X135.573 Y108.321 E15.45654
G1 X135.015 Y108.321 E15.48088
G1 X128.373 Y101.679 E15.89067
G1 X127.815 Y101.679 E15.91501
G1 X134.458 Y108.321 E16.32480
G1 X133.900 Y108.321 E16.34914
G1 X127.257 Y101.679 E16.75893
G1 X126.699 Y101.679 E16.78327
G1 X133.342 Y108.321 E17.19306
G1 X132.784 Y108.321 E17.21740
G1 X126.142 Y101.679 E17.62720
G1 X125.584 Y101.679 E17.65153
G1 X132.226 Y108.321 E18.06133
G1 X131.668 Y108.321 E18.08566
G1 X125.026 Y101.679 E18.49546
G1 X124.468 Y101.679 E18.51979
G1 X131.110 Y108.321 E18.92959
G1 X130.553 Y108.321 E18.95392
G1 X123.910 Y101.679 E19.36372
G1 X123.352 Y101.679 E19.38805
G1 X129.995 Y108.321 E19.79785
G1 X129.437 Y108.321 E19.82218
G1 X122.794 Y101.679 E20.23198
G1 X122.237 Y101.679 E20.25631
G1 X128.879 Y108.321 E20.66611
G1 X128.321 Y108.321 E20.69044
G1 X121.679 Y101.679 E21.10024
G1 X121.121 Y101.679 E21.12457
G1 X127.763 Y108.321 E21.53437
G1 X127.205 Y108.321 E21.55871
G1 X120.563 Y101.679 E21.96850
G1 X120.005 Y101.679 E21.99284
G1 X126.648 Y108.321 E22.40263
G1 X126.090 Y108.321 E22.42697
G1 X119.447 Y101.679 E22.83676
G1 X118.889 Y101.679 E22.86110
G1 X125.532 Y108.321 E23.27089
G1 X124.974 Y108.321 E23.29523
G1 X118.332 Y101.679 E23.70502
G1 X117.774 Y101.679 E23.72936
G1 X124.416 Y108.321 E24.13915
G1 X123.858 Y108.321 E24.16349
