;FLAVOR:Marlin
;TIME:6187
;Filament used: 5.49273m
;Layer height: 0.2
;MINX:14.127
;MINY:60.165
;MINZ:0.2
;MAXX:238.873
;MAXY:145.05
;MAXZ:36
;Generated with Cura_SteamEngine 4.8.0
M140 S60
M105
M190 S60
M104 S200
M105
M109 S200
M82 ;absolute extrusion mode
M220 S100 ;Reset Feedrate
M221 S100 ;Reset Flowrate

G28 ;Home

;Fix X0 Y0 being outside the bed after homing
G1 Z2.0 F3000 ;Move Z Axis up
G1 X1.3 Y4.8 ;Place the nozzle over the bed
G92 X0 Y0 ;Set new X0 Y0

;Code for nozzle cleaning and flow normalization
G92 E0 ;Reset Extruder
G1 Z2.0 F3000 ;Move Z Axis up
G1 X10.4 Y20 Z0.28 F5000.0
G1 X10.4 Y170.0 Z0.28 F1500.0 E15
G1 X10.1 Y170.0 Z0.28 F5000.0
G1 X10.1 Y40 Z0.28 F1500.0 E30

G92 E0 ;Reset Extruder
G1 Z2.0 F3000 ;Move Z Axis up
G92 E0
G92 E0
G1 F1500 E-6.5
;LAYER_COUNT:180
;LAYER:0
M107
G0 F9000 X23.082 Y110.798 Z0.2
;TYPE:SKIRT
G1 F1500 E0
G1 F1800 X24.265 Y110.615 E0.04977
G1 X26.978 Y110.343 E0.16313
G1 X29.466 Y110.021 E0.26743
G1 X31.967 Y109.626 E0.3727
G1 X34.386 Y109.173 E0.47502
G1 X36.875 Y108.633 E0.5809
G1 X39.271 Y108.042 E0.6835
G1 X41.736 Y107.36 E0.78984
G1 X44.112 Y106.629 E0.89319
G1 X46.498 Y105.821 E0.99792
G1 X48.874 Y104.941 E1.10326
G1 X51.179 Y104.011 E1.2066
G1 X53.466 Y103.012 E1.31036
G1 X55.749 Y101.938 E1.41525
G1 X58.006 Y100.797 E1.52039
G1 X60.206 Y99.605 E1.62442
G1 X62.367 Y98.355 E1.72821
G1 X64.491 Y97.044 E1.83199
G1 X66.609 Y95.653 E1.93734
G1 X68.677 Y94.209 E2.0422
G1 X70.669 Y92.734 E2.14525
G1 X72.634 Y91.189 E2.24917
G1 X74.241 Y89.843 E2.33632
G1 X75.337 Y88.934 E2.39552
G1 X76.36 Y88.179 E2.44838
G1 X76.926 Y87.809 E2.4765
G1 X79.133 Y86.319 E2.58721
G1 X81.128 Y84.889 E2.68925
G1 X83.169 Y83.338 E2.79583
G1 X85.096 Y81.785 E2.89872
G1 X86.993 Y80.164 E3.00246
G1 X88.873 Y78.464 E3.10784
G1 X90.694 Y76.722 E3.21261
G1 X92.455 Y74.939 E3.3168
G1 X94.157 Y73.115 E3.42052
G1 X95.826 Y71.221 E3.52548
G1 X97.427 Y69.3 E3.62944
G1 X98.967 Y67.339 E3.73311
G1 X99.409 Y66.742 E3.76399
G1 X100.258 Y65.62 E3.82249
G1 X100.452 Y65.37 E3.83564
G1 X100.537 Y65.264 E3.84129
G1 X100.895 Y64.84 E3.86436
G1 X101.051 Y64.664 E3.87414
G1 X101.71 Y63.981 E3.9136
G1 X102.161 Y63.573 E3.93888
G1 X102.381 Y63.385 E3.95092
G1 X103.128 Y62.8 E3.99036
G1 X103.601 Y62.479 E4.01413
G1 X104.008 Y62.217 E4.03425
G1 X104.826 Y61.737 E4.07368
G1 X105.588 Y61.369 E4.10886
G1 X106.03 Y61.182 E4.12882
G1 X106.261 Y61.09 E4.13915
G1 X107.481 Y60.684 E4.19261
G1 X107.588 Y60.655 E4.19722
G1 X108.045 Y60.541 E4.2168
G1 X108.301 Y60.483 E4.22772
G1 X109.563 Y60.272 E4.28091
G1 X109.7 Y60.257 E4.28664
G1 X110.216 Y60.212 E4.30818
G1 X110.438 Y60.198 E4.31742
G1 X110.899 Y60.178 E4.33661
G1 X111.172 Y60.171 E4.34796
G1 X111.719 Y60.165 E4.3707
G1 X144.813 Y60.166 E5.74659
G1 X145.519 Y60.176 E5.77595
G1 X145.91 Y60.188 E5.79221
G1 X146.505 Y60.228 E5.81701
G1 X146.773 Y60.253 E5.8282
G1 X147.829 Y60.402 E5.87253
G1 X147.95 Y60.425 E5.87765
G1 X148.737 Y60.604 E5.91121
G1 X148.993 Y60.672 E5.92222
G1 X150.034 Y61.003 E5.96764
G1 X150.144 Y61.044 E5.97252
G1 X150.698 Y61.268 E5.99736
G1 X150.942 Y61.374 E6.00842
G1 X152.113 Y61.966 E6.06297
G1 X152.199 Y62.016 E6.06711
G1 X152.604 Y62.263 E6.08683
G1 X152.834 Y62.41 E6.09818
G1 X153.827 Y63.124 E6.14903
G1 X153.914 Y63.194 E6.15367
G1 X154.302 Y63.521 E6.17477
G1 X154.488 Y63.685 E6.18508
G1 X155.315 Y64.492 E6.23312
G1 X155.399 Y64.583 E6.23827
G1 X155.793 Y65.034 E6.26316
G1 X155.953 Y65.227 E6.27359
G1 X156.677 Y66.203 E6.32411
G1 X156.755 Y66.321 E6.32999
G1 X157.047 Y66.787 E6.35285
G1 X157.287 Y67.191 E6.37239
G1 X158.632 Y69.389 E6.47952
G1 X159.997 Y71.485 E6.58352
G1 X161.432 Y73.554 E6.6882
G1 X162.907 Y75.561 E6.79175
G1 X164.476 Y77.572 E6.8978
G1 X166.053 Y79.482 E7.00077
G1 X167.712 Y81.376 E7.10545
G1 X169.42 Y83.22 E7.20995
G1 X171.166 Y85.001 E7.31364
G1 X172.989 Y86.758 E7.41891
G1 X174.838 Y88.441 E7.52285
G1 X176.728 Y90.068 E7.62654
G1 X178.693 Y91.665 E7.73181
G1 X180.678 Y93.185 E7.83575
G1 X182.737 Y94.672 E7.94135
G1 X184.773 Y96.057 E8.04372
G1 X186.917 Y97.428 E8.14953
G1 X189.055 Y98.712 E8.25321
G1 X191.247 Y99.944 E8.35775
G1 X193.466 Y101.112 E8.46201
G1 X195.733 Y102.223 E8.56697
G1 X197.989 Y103.252 E8.67006
G1 X200.348 Y104.248 E8.77652
G1 X202.671 Y105.149 E8.88011
G1 X205.025 Y105.989 E8.98402
G1 X207.393 Y106.76 E9.08755
G1 X209.838 Y107.479 E9.19351
G1 X212.247 Y108.114 E9.29709
G1 X214.704 Y108.69 E9.402
G1 X217.152 Y109.187 E9.50586
G1 X219.624 Y109.619 E9.61019
G1 X222.105 Y109.981 E9.71443
G1 X224.575 Y110.269 E9.81782
G1 X227.51 Y110.524 E9.9403
G1 X228.417 Y110.589 E9.9781
G1 X229.359 Y110.696 E10.01752
G1 X230.289 Y110.883 E10.05696
G1 X231.2 Y111.147 E10.09639
G1 X232.086 Y111.487 E10.13585
G1 X232.939 Y111.9 E10.17525
G1 X233.755 Y112.384 E10.21469
G1 X234.527 Y112.935 E10.25412
G1 X235.25 Y113.549 E10.29356
G1 X235.919 Y114.221 E10.33298
G1 X236.529 Y114.948 E10.37244
G1 X237.075 Y115.723 E10.41185
G1 X237.554 Y116.542 E10.4513
G1 X237.963 Y117.398 E10.49074
G1 X238.298 Y118.285 E10.53016
G1 X238.556 Y119.198 E10.5696
G1 X238.738 Y120.129 E10.60904
G1 X238.859 Y121.49 E10.66585
G1 X238.868 Y121.806 E10.67899
G1 X238.873 Y122.114 E10.6918
G1 X238.873 Y123.224 E10.73795
G1 X238.863 Y123.946 E10.76797
G1 X238.81 Y124.893 E10.8074
G1 X238.677 Y125.832 E10.84683
G1 X238.466 Y126.757 E10.88628
G1 X238.177 Y127.66 E10.92569
G1 X237.814 Y128.536 E10.96512
G1 X237.378 Y129.378 E11.00454
G1 X236.872 Y130.181 E11.044
G1 X236.301 Y130.938 E11.08342
G1 X235.668 Y131.645 E11.12287
G1 X234.978 Y132.295 E11.16228
G1 X234.235 Y132.885 E11.20173
G1 X233.446 Y133.411 E11.24115
G1 X232.615 Y133.868 E11.28058
G1 X231.748 Y134.253 E11.32002
G1 X230.852 Y134.564 E11.35945
G1 X229.933 Y134.798 E11.39888
G1 X228.997 Y134.955 E11.43834
G1 X227.953 Y135.035 E11.48187
G1 X226.472 Y135.079 E11.54347
G1 X226.035 Y135.089 E11.56164
G1 X223.503 Y135.21 E11.66703
G1 X221.041 Y135.397 E11.76968
G1 X218.489 Y135.665 E11.87637
G1 X216.049 Y135.991 E11.97871
G1 X213.52 Y136.401 E12.08523
G1 X211.092 Y136.866 E12.18801
G1 X208.656 Y137.404 E12.29173
G1 X206.182 Y138.024 E12.39776
G1 X203.782 Y138.698 E12.5014
G1 X201.399 Y139.441 E12.60518
G1 X199.002 Y140.264 E12.71055
G1 X196.672 Y141.138 E12.81401
G1 X194.312 Y142.1 E12.91996
G1 X192.036 Y143.104 E13.02339
G1 X190.251 Y143.948 E13.10548
G1 X190.043 Y144.042 E13.11497
G1 X189.163 Y144.396 E13.1544
G1 X188.256 Y144.674 E13.19384
G1 X187.329 Y144.875 E13.23328
G1 X186.389 Y144.997 E13.27269
G1 X185.689 Y145.037 E13.30184
G1 X185.286 Y145.047 E13.3186
G1 X185.007 Y145.05 E13.3302
G1 X128.713 Y145.049 E15.67063
G1 X128.011 Y145.039 E15.69982
G1 X127.064 Y144.985 E15.73925
G1 X126.125 Y144.852 E15.77868
G1 X125.2 Y144.641 E15.81813
G1 X124.297 Y144.352 E15.85755
G1 X123.398 Y143.977 E15.89804
G1 X122.329 Y143.476 E15.94713
G1 X119.98 Y142.416 E16.05427
G1 X117.644 Y141.436 E16.15959
G1 X115.34 Y140.551 E16.2622
G1 X112.948 Y139.706 E16.36767
G1 X110.546 Y138.934 E16.47257
G1 X108.182 Y138.247 E16.57492
G1 X105.723 Y137.606 E16.68057
G1 X103.229 Y137.03 E16.78698
G1 X100.822 Y136.549 E16.88903
G1 X98.344 Y136.124 E16.99356
G1 X95.865 Y135.771 E17.09767
G1 X93.358 Y135.486 E17.20257
G1 X90.884 Y135.275 E17.3058
G1 X88.33 Y135.13 E17.41215
G1 X85.847 Y135.059 E17.51542
G1 X84.504 Y135.05 E17.57126
G1 X25.907 Y135.049 E20.00744
G1 X25.209 Y135.038 E20.03646
G1 X24.262 Y134.983 E20.0759
G1 X23.323 Y134.848 E20.11534
G1 X22.399 Y134.635 E20.15476
G1 X21.496 Y134.345 E20.1942
G1 X20.62 Y133.98 E20.23365
G1 X19.779 Y133.542 E20.27307
G1 X18.977 Y133.035 E20.31252
G1 X18.221 Y132.462 E20.35196
G1 X17.516 Y131.828 E20.39138
G1 X16.867 Y131.137 E20.43079
G1 X16.278 Y130.393 E20.47024
G1 X15.754 Y129.602 E20.50969
G1 X15.299 Y128.77 E20.54912
G1 X14.915 Y127.903 E20.58854
G1 X14.606 Y127.006 E20.62798
G1 X14.373 Y126.087 E20.6674
G1 X14.219 Y125.151 E20.70684
G1 X14.14 Y124.095 E20.75086
G1 X14.131 Y123.764 E20.76463
G1 X14.127 Y123.469 E20.77689
G1 X14.127 Y122.297 E20.82562
G1 X14.137 Y121.638 E20.85302
G1 X14.192 Y120.691 E20.89246
G1 X14.326 Y119.752 E20.93189
G1 X14.538 Y118.828 E20.97131
G1 X14.828 Y117.925 E21.01074
G1 X15.192 Y117.049 E21.05018
G1 X15.63 Y116.208 E21.0896
G1 X16.136 Y115.406 E21.12902
G1 X16.708 Y114.649 E21.16847
G1 X17.342 Y113.944 E21.20789
G1 X18.033 Y113.294 E21.24733
G1 X18.777 Y112.705 E21.28678
G1 X19.567 Y112.181 E21.3262
G1 X20.399 Y111.725 E21.36564
G1 X21.266 Y111.341 E21.40506
G1 X22.162 Y111.031 E21.44448
G1 X23.082 Y110.798 E21.48394
G0 F9000 X23.512 Y111.224
G1 F1800 X24.315 Y111.112 E21.51765
G1 X27.056 Y110.838 E21.63217
G1 X29.538 Y110.516 E21.73623
G1 X32.032 Y110.122 E21.8412
G1 X34.513 Y109.657 E21.94615
G1 X36.962 Y109.126 E22.05033
G1 X39.411 Y108.523 E22.15519
G1 X41.889 Y107.837 E22.26209
G1 X44.273 Y107.103 E22.36579
G1 X46.653 Y106.297 E22.47026
G1 X49.024 Y105.418 E22.57539
G1 X51.386 Y104.465 E22.68128
G1 X53.699 Y103.456 E22.7862
G1 X55.95 Y102.396 E22.88964
G1 X58.246 Y101.236 E22.99659
G1 X60.432 Y100.052 E23.09995
G1 X62.628 Y98.781 E23.20544
G1 X64.776 Y97.455 E23.31039
G1 X66.877 Y96.076 E23.41487
G1 X68.96 Y94.621 E23.52051
G1 X70.981 Y93.124 E23.62507
G1 X72.96 Y91.568 E23.72973
G1 X74.56 Y90.228 E23.8165
G1 X75.656 Y89.319 E23.8757
G1 X76.634 Y88.597 E23.92624
G1 X77.251 Y88.194 E23.95688
G1 X79.386 Y86.752 E24.06399
G1 X81.443 Y85.278 E24.1692
G1 X83.449 Y83.754 E24.27394
G1 X85.435 Y82.154 E24.37997
G1 X87.319 Y80.544 E24.483
G1 X89.218 Y78.826 E24.58947
G1 X91.042 Y77.081 E24.69441
G1 X92.804 Y75.296 E24.79869
G1 X94.527 Y73.45 E24.90368
G1 X96.213 Y71.537 E25.00969
G1 X97.817 Y69.613 E25.11383
G1 X99.351 Y67.661 E25.21705
G1 X99.808 Y67.043 E25.249
G1 X100.657 Y65.921 E25.3075
G1 X100.842 Y65.683 E25.32003
G1 X100.927 Y65.577 E25.32568
G1 X101.269 Y65.171 E25.34775
G1 X101.425 Y64.995 E25.35753
G1 X102.07 Y64.329 E25.39608
G1 X102.486 Y63.954 E25.41936
G1 X102.706 Y63.766 E25.43139
G1 X103.436 Y63.194 E25.46995
G1 X103.871 Y62.899 E25.4918
G1 X104.278 Y62.637 E25.51192
G1 X105.079 Y62.169 E25.55049
G1 X105.788 Y61.827 E25.58322
G1 X106.215 Y61.647 E25.60249
G1 X106.446 Y61.555 E25.61282
G1 X107.612 Y61.166 E25.66393
G1 X107.719 Y61.137 E25.66854
G1 X108.156 Y61.029 E25.68725
G1 X108.412 Y60.971 E25.69816
G1 X109.617 Y60.769 E25.74896
G1 X109.754 Y60.754 E25.75469
G1 X110.247 Y60.711 E25.77527
G1 X110.469 Y60.697 E25.78451
G1 X110.917 Y60.677 E25.80316
G1 X111.179 Y60.671 E25.81405
G1 X111.719 Y60.665 E25.83651
G1 X144.806 Y60.666 E27.2121
G1 X145.512 Y60.676 E27.24146
G1 X145.89 Y60.688 E27.25718
G1 X146.458 Y60.725 E27.28085
G1 X146.726 Y60.75 E27.29204
G1 X147.735 Y60.893 E27.33441
G1 X147.856 Y60.916 E27.33953
G1 X148.609 Y61.087 E27.37163
G1 X148.865 Y61.155 E27.38264
G1 X149.859 Y61.472 E27.42602
G1 X149.969 Y61.513 E27.4309
G1 X150.498 Y61.726 E27.45461
G1 X150.742 Y61.832 E27.46567
G1 X151.862 Y62.399 E27.51786
G1 X151.948 Y62.449 E27.52199
G1 X152.334 Y62.684 E27.54078
G1 X152.564 Y62.831 E27.55213
G1 X153.514 Y63.513 E27.60075
G1 X153.601 Y63.583 E27.60539
G1 X153.972 Y63.896 E27.62557
G1 X154.158 Y64.06 E27.63588
G1 X154.947 Y64.831 E27.68175
G1 X155.031 Y64.922 E27.6869
G1 X155.408 Y65.353 E27.7107
G1 X155.568 Y65.546 E27.72113
G1 X156.26 Y66.479 E27.76942
G1 X156.338 Y66.597 E27.7753
G1 X156.616 Y67.042 E27.79712
G1 X156.845 Y67.429 E27.81581
G1 X158.202 Y69.646 E27.92388
G1 X159.583 Y71.765 E28.02904
G1 X161.022 Y73.841 E28.13405
G1 X162.51 Y75.865 E28.23849
G1 X164.069 Y77.864 E28.34389
G1 X165.679 Y79.812 E28.44896
G1 X167.357 Y81.728 E28.55485
G1 X169.05 Y83.557 E28.65846
G1 X170.815 Y85.358 E28.7633
G1 X172.623 Y87.099 E28.86766
G1 X174.53 Y88.836 E28.9749
G1 X176.403 Y90.448 E29.07764
G1 X178.39 Y92.063 E29.18409
G1 X180.398 Y93.601 E29.28925
G1 X182.416 Y95.057 E29.39271
G1 X184.524 Y96.492 E29.49873
G1 X186.643 Y97.847 E29.6033
G1 X188.812 Y99.149 E29.70847
G1 X190.993 Y100.375 E29.81249
G1 X193.251 Y101.563 E29.91857
G1 X195.528 Y102.68 E30.02401
G1 X197.797 Y103.714 E30.12768
G1 X200.158 Y104.711 E30.23423
G1 X202.482 Y105.612 E30.33786
G1 X204.849 Y106.458 E30.44236
G1 X207.276 Y107.247 E30.54847
G1 X209.673 Y107.952 E30.65234
G1 X212.143 Y108.603 E30.75854
G1 X214.588 Y109.176 E30.86295
G1 X217.043 Y109.675 E30.9671
G1 X219.571 Y110.117 E31.0738
G1 X222.012 Y110.473 E31.17635
G1 X224.543 Y110.768 E31.28229
G1 X227.429 Y111.019 E31.40273
G1 X228.381 Y111.087 E31.44241
G1 X229.302 Y111.193 E31.48096
G1 X230.211 Y111.378 E31.51952
G1 X231.1 Y111.641 E31.55807
G1 X231.963 Y111.979 E31.5966
G1 X232.794 Y112.391 E31.63516
G1 X233.587 Y112.872 E31.67372
G1 X234.335 Y113.42 E31.71227
G1 X235.033 Y114.03 E31.75081
G1 X235.675 Y114.698 E31.78933
G1 X236.258 Y115.419 E31.82788
G1 X236.777 Y116.188 E31.86645
G1 X237.227 Y116.998 E31.90498
G1 X237.606 Y117.845 E31.94355
G1 X237.91 Y118.72 E31.98207
G1 X238.138 Y119.619 E32.02063
G1 X238.288 Y120.534 E32.05917
G1 X238.36 Y121.504 E32.09961
G1 X238.369 Y121.82 E32.11276
G1 X238.373 Y122.115 E32.12502
G1 X238.373 Y123.217 E32.17084
G1 X238.363 Y123.939 E32.20086
G1 X238.31 Y124.865 E32.23942
G1 X238.178 Y125.782 E32.27794
G1 X237.967 Y126.685 E32.31649
G1 X237.679 Y127.566 E32.35503
G1 X237.316 Y128.419 E32.39357
G1 X236.881 Y129.238 E32.43212
G1 X236.377 Y130.017 E32.4707
G1 X235.808 Y130.748 E32.50921
G1 X235.178 Y131.429 E32.54778
G1 X234.492 Y132.052 E32.58631
G1 X233.754 Y132.614 E32.62487
G1 X232.971 Y133.11 E32.66341
G1 X232.148 Y133.537 E32.70196
G1 X231.291 Y133.891 E32.74051
G1 X230.407 Y134.171 E32.77906
G1 X229.502 Y134.373 E32.81761
G1 X228.583 Y134.496 E32.85616
G1 X227.938 Y134.535 E32.88302
G1 X226.461 Y134.579 E32.94446
G1 X226.039 Y134.588 E32.962
G1 X223.477 Y134.711 E33.06864
G1 X220.952 Y134.903 E33.17392
G1 X218.477 Y135.163 E33.27739
G1 X215.939 Y135.501 E33.38384
G1 X213.451 Y135.905 E33.48863
G1 X210.995 Y136.376 E33.5926
G1 X208.54 Y136.918 E33.69713
G1 X206.063 Y137.538 E33.80328
G1 X203.635 Y138.221 E33.90815
G1 X201.225 Y138.972 E34.01309
G1 X198.854 Y139.786 E34.11732
G1 X196.475 Y140.678 E34.22295
G1 X194.13 Y141.634 E34.32823
G1 X191.813 Y142.656 E34.43352
G1 X190.22 Y143.411 E34.50681
G1 X189.837 Y143.586 E34.52431
G1 X188.977 Y143.931 E34.56284
G1 X188.089 Y144.201 E34.60143
G1 X187.182 Y144.393 E34.63997
G1 X186.262 Y144.506 E34.67851
G1 X185.677 Y144.537 E34.70286
G1 X185.274 Y144.547 E34.71962
G1 X185.007 Y144.55 E34.73072
G1 X128.72 Y144.549 E37.07087
G1 X128.018 Y144.539 E37.10005
G1 X127.092 Y144.486 E37.13862
G1 X126.175 Y144.353 E37.17714
G1 X125.272 Y144.142 E37.21569
G1 X124.391 Y143.853 E37.25424
G1 X123.61 Y143.525 E37.28946
G1 X122.55 Y143.029 E37.33811
G1 X120.155 Y141.947 E37.44738
G1 X117.82 Y140.968 E37.55264
G1 X115.495 Y140.074 E37.6562
G1 X113.131 Y139.24 E37.76042
G1 X110.701 Y138.458 E37.86655
G1 X108.3 Y137.761 E37.9705
G1 X105.823 Y137.115 E38.07692
G1 X103.367 Y136.548 E38.18172
G1 X100.934 Y136.061 E38.28488
G1 X98.388 Y135.625 E38.39227
G1 X95.922 Y135.274 E38.49583
G1 X93.425 Y134.99 E38.60031
G1 X90.919 Y134.777 E38.70487
G1 X88.372 Y134.632 E38.81094
G1 X85.817 Y134.559 E38.9172
G1 X84.508 Y134.55 E38.97163
G1 X26.084 Y134.55 E41.40061
G1 X25.217 Y134.538 E41.43666
G1 X24.291 Y134.483 E41.47523
G1 X23.374 Y134.349 E41.51376
G1 X22.471 Y134.136 E41.55233
G1 X21.591 Y133.847 E41.59084
G1 X20.738 Y133.482 E41.62941
G1 X19.92 Y133.046 E41.66795
G1 X19.143 Y132.54 E41.7065
G1 X18.412 Y131.97 E41.74504
G1 X17.733 Y131.338 E41.78361
G1 X17.111 Y130.651 E41.82214
G1 X16.55 Y129.912 E41.86071
G1 X16.056 Y129.128 E41.89924
G1 X15.63 Y128.304 E41.9378
G1 X15.278 Y127.447 E41.97632
G1 X15 Y126.562 E42.01489
G1 X14.8 Y125.657 E42.05342
G1 X14.678 Y124.738 E42.09196
G1 X14.64 Y124.081 E42.11932
G1 X14.631 Y123.75 E42.13309
G1 X14.627 Y123.469 E42.14477
G1 X14.627 Y122.305 E42.19317
G1 X14.637 Y121.646 E42.22057
G1 X14.691 Y120.72 E42.25913
G1 X14.825 Y119.803 E42.29766
G1 X15.037 Y118.9 E42.33622
G1 X15.326 Y118.019 E42.37477
G1 X15.69 Y117.167 E42.41329
G1 X16.126 Y116.348 E42.45187
G1 X16.631 Y115.571 E42.49039
G1 X17.201 Y114.84 E42.52893
G1 X17.832 Y114.16 E42.5675
G1 X18.519 Y113.538 E42.60603
