; generated by PrusaSlicer 2.3.0-rc2 on 2021-05-08 at 15:53:55 UTC

; 

; external perimeters extrusion width = 0.45mm
; perimeters extrusion width = 0.45mm
; infill extrusion width = 0.38mm
; solid infill extrusion width = 0.45mm
; top infill extrusion width = 0.40mm
; support material extrusion width = 0.40mm

M201 X9000 Y9000 Z500 E10000 ; sets maximum accelerations, mm/sec^2
M203 X500 Y500 Z12 E120 ; sets maximum feedrates, mm/sec
M204 P1500 R1500 T1500 ; sets acceleration (P, T) and retract acceleration (R), mm/sec^2
M205 X10.00 Y10.00 Z0.20 E2.50 ; sets the jerk limits, mm/sec
M205 S0 T0 ; sets the minimum extruding and travel feed rate, mm/sec
M107
M190 S65 ; set bed temperature and wait for it to be reached
M104 S213 ; set temperature
;TYPE:Custom
M220 S100 ;Reset Feedrate
M221 S100 ;Reset Flowrate
G28 ;Home
;Fix X0 Y0 being outside the bed after homing
G1 Z2.0 F3000 ;Move Z Axis up
G1 X1.3 Y4.8 ;Place the nozzle over the bed
;Code for nozzle cleaning and flow normalization
G92 E0 ;Reset Extruder
G1 Z2.0 F3000 ;Move Z Axis up
G1 X10.4 Y20 Z0.28 F5000.0
G1 X10.4 Y170.0 Z0.28 F1500.0 E15
G1 X10.1 Y170.0 Z0.28 F5000.0
G1 X10.1 Y40 Z0.28 F1500.0 E30
G92 E0 ;Reset Extruder
G1 Z2.0 F3000 ;Move Z Axis up
M109 S213 ; set temperature and wait for it to be reached
G21 ; set units to millimeters
G90 ; use absolute coordinates
M82 ; use absolute distances for extrusion
G92 E0
; Filament gcode
;LAYER_CHANGE
;Z:0.266
;HEIGHT:0.266
G1 Z0.266 F4800.000
G1 E-6.50000 F2400.000
G92 E0
G1 X49.361 Y28.102 F4800.000
G1 E6.50000 F2400.000
;TYPE:Skirt
;WIDTH:0.45
G1 F2700.000
G1 X50.789 Y26.926 E6.58039
G1 X52.337 Y25.890 E6.66133
G1 X53.951 Y25.026 E6.74088
G1 X55.666 Y24.314 E6.82154
G1 X57.436 Y23.777 E6.90193
G1 X59.251 Y23.416 E6.98232
G1 X61.111 Y23.235 E7.06354
G1 X188.006 Y23.214 E12.57747
G1 X189.836 Y23.304 E12.65705
G1 X191.640 Y23.570 E12.73632
G1 X193.423 Y24.014 E12.81614
G1 X195.040 Y24.585 E12.89066
G1 X196.177 Y25.089 E12.94470
G1 X197.774 Y25.958 E13.02369
G1 X199.212 Y26.927 E13.09905
G1 X200.626 Y28.090 E13.17859
G1 X201.916 Y29.380 E13.25786
G1 X203.074 Y30.789 E13.33713
G1 X204.097 Y32.315 E13.41696
G1 X204.915 Y33.830 E13.49176
G1 X205.418 Y34.966 E13.54573
G1 X206.019 Y36.690 E13.62506
G1 X206.431 Y38.367 E13.70014
G1 X206.701 Y40.224 E13.78164
G1 X206.786 Y41.994 E13.85867
G1 X206.768 Y168.813 E19.36928
G1 X206.604 Y170.598 E19.44715
G1 X206.396 Y171.804 E19.50035
G1 X205.973 Y173.466 E19.57487
G1 X205.373 Y175.148 E19.65246
G1 X204.636 Y176.725 E19.72810
G1 X204.042 Y177.774 E19.78046
G1 X203.088 Y179.191 E19.85470
G1 X202.004 Y180.520 E19.92921
G1 X200.634 Y181.903 E20.01379
G1 X199.190 Y183.089 E20.09501
G1 X197.635 Y184.127 E20.17624
G1 X195.914 Y185.036 E20.26081
G1 X194.176 Y185.740 E20.34231
G1 X191.815 Y186.393 E20.44874
G1 X189.879 Y186.692 E20.53387
G1 X188.064 Y186.786 E20.61286
G1 X61.180 Y186.767 E26.12626
G1 X59.402 Y186.604 E26.20385
G1 X58.196 Y186.396 E26.25705
G1 X56.534 Y185.973 E26.33157
G1 X54.852 Y185.373 E26.40916
G1 X53.275 Y184.636 E26.48480
G1 X52.226 Y184.042 E26.53716
G1 X50.809 Y183.088 E26.61140
G1 X49.480 Y182.004 E26.68592
G1 X48.097 Y180.634 E26.77049
G1 X46.911 Y179.190 E26.85171
G1 X45.873 Y177.635 E26.93294
G1 X44.964 Y175.914 E27.01751
G1 X44.260 Y174.176 E27.09901
G1 X43.607 Y171.815 E27.20544
G1 X43.309 Y169.885 E27.29029
G1 X43.214 Y168.064 E27.36956
G1 X43.233 Y41.180 E32.88296
G1 X43.396 Y39.402 E32.96055
G1 X43.604 Y38.196 E33.01375
G1 X44.027 Y36.534 E33.08827
G1 X44.627 Y34.852 E33.16586
G1 X45.364 Y33.275 E33.24150
G1 X45.958 Y32.226 E33.29386
G1 X46.912 Y30.809 E33.36810
G1 X47.996 Y29.480 E33.44262
G1 X49.319 Y28.144 E33.52430
G1 X49.598 Y28.421 F4800.000
G1 F2700.000
G1 X51.028 Y27.238 E33.60494
G1 X52.538 Y26.227 E33.68392
G1 X54.124 Y25.379 E33.76208
G1 X55.803 Y24.683 E33.84105
G1 X57.536 Y24.157 E33.91975
G1 X59.307 Y23.805 E33.99819
G1 X61.134 Y23.628 E34.07797
G1 X188.006 Y23.607 E39.59089
G1 X189.802 Y23.696 E39.66901
G1 X191.563 Y23.956 E39.74636
G1 X193.309 Y24.390 E39.82452
G1 X194.893 Y24.949 E39.89753
G1 X195.998 Y25.438 E39.95005
G1 X197.567 Y26.292 E40.02766
G1 X198.976 Y27.241 E40.10148
G1 X200.361 Y28.380 E40.17937
G1 X201.628 Y29.648 E40.25726
G1 X202.758 Y31.023 E40.33461
G1 X203.763 Y32.522 E40.41304
G1 X204.564 Y34.006 E40.48632
G1 X205.051 Y35.107 E40.53863
G1 X205.641 Y36.798 E40.61645
G1 X206.047 Y38.448 E40.69027
G1 X206.311 Y40.265 E40.77006
G1 X206.393 Y42.000 E40.84554
G1 X206.375 Y168.802 E46.35540
G1 X206.214 Y170.550 E46.43166
G1 X206.013 Y171.716 E46.48310
G1 X205.598 Y173.350 E46.55638
G1 X205.007 Y175.003 E46.63264
G1 X204.285 Y176.548 E46.70673
G1 X203.708 Y177.567 E46.75762
G1 X202.770 Y178.961 E46.83063
G1 X201.704 Y180.267 E46.90391
G1 X200.366 Y181.615 E46.98640
G1 X198.952 Y182.777 E47.06592
G1 X197.435 Y183.789 E47.14517
G1 X195.751 Y184.679 E47.22793
G1 X194.048 Y185.369 E47.30778
G1 X191.730 Y186.010 E47.41230
G1 X189.841 Y186.300 E47.49534
G1 X188.063 Y186.393 E47.57268
G1 X61.192 Y186.375 E53.08557
G1 X59.450 Y186.214 E53.16156
G1 X58.278 Y186.011 E53.21326
G1 X56.644 Y185.596 E53.28654
G1 X54.997 Y185.007 E53.36253
G1 X53.452 Y184.285 E53.43663
G1 X52.433 Y183.708 E53.48752
G1 X51.039 Y182.770 E53.56053
G1 X49.733 Y181.704 E53.63380
G1 X48.385 Y180.366 E53.71630
G1 X47.227 Y178.957 E53.79554
G1 X46.211 Y177.435 E53.87506
G1 X45.321 Y175.751 E53.95783
G1 X44.631 Y174.048 E54.03767
G1 X43.990 Y171.730 E54.14220
G1 X43.700 Y169.841 E54.22523
G1 X43.607 Y168.063 E54.30258
G1 X43.625 Y41.192 E59.81546
G1 X43.786 Y39.450 E59.89145
G1 X43.987 Y38.284 E59.94289
G1 X44.402 Y36.650 E60.01616
G1 X44.993 Y34.997 E60.09243
G1 X45.715 Y33.452 E60.16652
G1 X46.292 Y32.433 E60.21741
G1 X47.230 Y31.039 E60.29042
G1 X48.296 Y29.733 E60.36370
G1 X49.555 Y28.463 E60.44137
G1 E53.94137 F2400.000
G92 E0
G1 X110.350 Y90.657 F4800.000
G1 E6.50000 F2400.000
;TYPE:Perimeter
G1 F675.000
G1 X110.966 Y90.111 E6.53576
G1 X111.694 Y89.729 E6.57153
G1 X112.493 Y89.532 E6.60729
G1 X113.317 Y89.532 E6.64305
G1 X114.116 Y89.729 E6.67882
G1 X114.844 Y90.111 E6.71458
G1 X115.460 Y90.657 E6.75034
G1 X115.928 Y91.335 E6.78610
G1 X116.220 Y92.104 E6.82187
G1 X116.316 Y92.900 E6.85670
G1 X116.222 Y93.733 E6.89314
G1 X115.928 Y94.508 E6.92914
G1 X115.460 Y95.185 E6.96490
G1 X114.844 Y95.731 E7.00066
G1 X114.116 Y96.113 E7.03643
G1 X113.317 Y96.310 E7.07219
G1 X112.493 Y96.310 E7.10795
G1 X111.694 Y96.113 E7.14372
G1 X110.966 Y95.731 E7.17948
G1 X110.350 Y95.185 E7.21524
G1 X109.894 Y94.525 E7.25007
G1 X109.591 Y93.744 E7.28651
G1 X109.491 Y92.921 E7.32251
G1 X109.591 Y92.099 E7.35851
G1 X109.894 Y91.317 E7.39495
G1 X110.315 Y90.707 E7.42718
G1 X110.639 Y90.930 F4800.000
G1 F675.000
G1 X111.190 Y90.437 E7.45931
G1 X111.835 Y90.099 E7.49093
G1 X112.541 Y89.925 E7.52255
G1 X113.269 Y89.925 E7.55416
G1 X113.975 Y90.099 E7.58578
G1 X114.620 Y90.437 E7.61740
G1 X115.164 Y90.920 E7.64901
G1 X115.578 Y91.518 E7.68063
G1 X115.836 Y92.199 E7.71225
G1 X115.921 Y92.901 E7.74300
G1 X115.837 Y93.640 E7.77529
G1 X115.578 Y94.324 E7.80708
G1 X115.164 Y94.923 E7.83870
G1 X114.620 Y95.405 E7.87031
G1 X113.975 Y95.743 E7.90193
G1 X113.269 Y95.917 E7.93355
G1 X112.541 Y95.917 E7.96516
G1 X111.835 Y95.743 E7.99678
G1 X111.190 Y95.405 E8.02840
G1 X110.646 Y94.923 E8.06001
G1 X110.244 Y94.340 E8.09076
G1 X109.975 Y93.647 E8.12306
G1 X109.887 Y92.921 E8.15485
G1 X109.975 Y92.195 E8.18664
G1 X110.244 Y91.502 E8.21893
G1 X110.605 Y90.979 E8.24654
G1 X110.928 Y91.202 F4800.000
G1 F675.000
G1 X111.415 Y90.763 E8.27505
G1 X111.975 Y90.469 E8.30252
G1 X112.589 Y90.318 E8.32999
G1 X113.221 Y90.318 E8.35746
G1 X113.835 Y90.469 E8.38493
G1 X114.395 Y90.763 E8.41240
G1 X114.868 Y91.182 E8.43987
G1 X115.227 Y91.702 E8.46734
G1 X115.451 Y92.294 E8.49481
G1 X115.525 Y92.903 E8.52148
G1 X115.452 Y93.546 E8.54963
G1 X115.227 Y94.140 E8.57721
G1 X114.868 Y94.660 E8.60468
G1 X114.395 Y95.079 E8.63215
G1 X113.835 Y95.373 E8.65962
G1 X113.221 Y95.524 E8.68709
G1 X112.589 Y95.524 E8.71456
G1 X111.975 Y95.373 E8.74203
G1 X111.415 Y95.079 E8.76950
G1 X110.942 Y94.660 E8.79697
G1 X110.593 Y94.155 E8.82364
G1 X110.359 Y93.551 E8.85179
G1 X110.283 Y92.921 E8.87937
G1 X110.359 Y92.291 E8.90694
G1 X110.593 Y91.687 E8.93509
G1 X110.894 Y91.252 E8.95808
G1 X111.238 Y91.445 F4800.000
;TYPE:External perimeter
G1 F675.000
G1 X111.640 Y91.089 E8.98141
G1 X112.115 Y90.839 E9.00473
G1 X112.637 Y90.711 E9.02806
G1 X113.173 Y90.711 E9.05138
G1 X113.695 Y90.839 E9.07471
G1 X114.170 Y91.089 E9.09803
G1 X114.572 Y91.445 E9.12136
G1 X114.877 Y91.886 E9.14468
G1 X115.067 Y92.388 E9.16801
G1 X115.130 Y92.904 E9.19060
G1 X115.067 Y93.453 E9.21460
G1 X114.877 Y93.956 E9.23796
G1 X114.572 Y94.398 E9.26129
G1 X114.170 Y94.754 E9.28461
G1 X113.695 Y95.003 E9.30794
G1 X113.173 Y95.132 E9.33126
G1 X112.637 Y95.132 E9.35459
G1 X112.115 Y95.003 E9.37791
G1 X111.640 Y94.754 E9.40123
G1 X111.238 Y94.398 E9.42456
G1 X110.943 Y93.970 E9.44715
G1 X110.743 Y93.455 E9.47115
G1 X110.678 Y92.921 E9.49451
G1 X110.743 Y92.387 E9.51788
G1 X110.943 Y91.872 E9.54188
G1 X111.204 Y91.494 E9.56186
G1 X111.112 Y91.065 F4800.000
G1 E3.06186 F2400.000
G92 E0
G1 X105.267 Y87.115 F4800.000
G1 E6.50000 F2400.000
;TYPE:Perimeter
G1 F1350.000
G1 X105.940 Y86.323 E6.54514
G1 X106.694 Y85.609 E6.59028
G1 X107.521 Y84.980 E6.63542
G1 X108.411 Y84.445 E6.68056
G1 X109.354 Y84.008 E6.72570
G1 X110.338 Y83.677 E6.77084
G1 X111.353 Y83.453 E6.81598
G1 X112.386 Y83.341 E6.86112
G1 X113.424 Y83.341 E6.90626
G1 X114.433 Y83.451 E6.95033
G1 X115.473 Y83.677 E6.99661
G1 X116.456 Y84.008 E7.04168
G1 X117.399 Y84.445 E7.08682
G1 X118.289 Y84.980 E7.13196
G1 X119.116 Y85.609 E7.17710
G1 X119.870 Y86.323 E7.22224
G1 X120.543 Y87.115 E7.26738
G1 X121.126 Y87.975 E7.31252
G1 X121.612 Y88.893 E7.35766
G1 X121.997 Y89.858 E7.40280
G1 X122.275 Y90.859 E7.44794
G1 X122.443 Y91.884 E7.49308
G1 X122.499 Y92.921 E7.53822
G1 X122.443 Y93.957 E7.58329
G1 X122.268 Y95.007 E7.62957
G1 X121.997 Y95.985 E7.67363
G1 X121.612 Y96.950 E7.71877
G1 X121.126 Y97.867 E7.76391
G1 X120.543 Y98.727 E7.80905
G1 X119.870 Y99.519 E7.85419
G1 X119.116 Y100.233 E7.89933
G1 X118.289 Y100.862 E7.94447
G1 X117.399 Y101.398 E7.98961
G1 X116.456 Y101.834 E8.03475
G1 X115.472 Y102.166 E8.07989
G1 X114.457 Y102.389 E8.12503
G1 X113.424 Y102.501 E8.17017
G1 X112.386 Y102.501 E8.21531
G1 X111.353 Y102.389 E8.26045
G1 X110.338 Y102.166 E8.30559
G1 X109.354 Y101.834 E8.35073
G1 X108.411 Y101.398 E8.39587
G1 X107.521 Y100.862 E8.44101
G1 X106.694 Y100.233 E8.48615
G1 X105.940 Y99.519 E8.53129
G1 X105.267 Y98.727 E8.57643
G1 X104.684 Y97.867 E8.62158
G1 X104.198 Y96.950 E8.66672
G1 X103.813 Y95.985 E8.71186
G1 X103.535 Y94.984 E8.75700
G1 X103.367 Y93.958 E8.80214
G1 X103.311 Y92.921 E8.84728
G1 X103.367 Y91.884 E8.89242
G1 X103.535 Y90.859 E8.93756
G1 X103.813 Y89.858 E8.98270
G1 X104.198 Y88.893 E9.02784
G1 X104.684 Y87.975 E9.07298
G1 X105.233 Y87.165 E9.11551
G1 X104.908 Y86.944 F4800.000
G1 F1350.000
G1 X105.654 Y86.053 E9.16602
G1 X106.439 Y85.309 E9.21301
G1 X107.300 Y84.654 E9.26000
G1 X108.227 Y84.097 E9.30699
G1 X109.208 Y83.643 E9.35398
G1 X110.233 Y83.297 E9.40097
G1 X111.289 Y83.065 E9.44796
G1 X112.364 Y82.948 E9.49496
G1 X113.446 Y82.948 E9.54195
G1 X114.496 Y83.062 E9.58784
G1 X115.578 Y83.298 E9.63598
G1 X116.602 Y83.643 E9.68292
G1 X117.583 Y84.097 E9.72991
G1 X118.510 Y84.654 E9.77690
G1 X119.371 Y85.309 E9.82389
G1 X120.156 Y86.053 E9.87088
G1 X120.856 Y86.877 E9.91787
G1 X121.463 Y87.772 E9.96486
G1 X121.970 Y88.727 E10.01186
G1 X122.370 Y89.732 E10.05885
G1 X122.659 Y90.774 E10.10584
G1 X122.834 Y91.841 E10.15283
G1 X122.893 Y92.921 E10.19982
G1 X122.834 Y94.000 E10.24676
G1 X122.652 Y95.092 E10.29489
G1 X122.370 Y96.110 E10.34079
G1 X121.970 Y97.115 E10.38778
G1 X121.463 Y98.070 E10.43477
G1 X120.856 Y98.965 E10.48176
G1 X120.156 Y99.790 E10.52876
G1 X119.371 Y100.533 E10.57575
G1 X118.510 Y101.188 E10.62274
G1 X117.583 Y101.745 E10.66973
G1 X116.602 Y102.199 E10.71672
G1 X115.577 Y102.545 E10.76371
G1 X114.521 Y102.777 E10.81071
G1 X113.446 Y102.894 E10.85770
G1 X112.364 Y102.894 E10.90469
G1 X111.289 Y102.777 E10.95168
G1 X110.233 Y102.545 E10.99867
G1 X109.208 Y102.199 E11.04566
G1 X108.227 Y101.745 E11.09265
G1 X107.300 Y101.188 E11.13965
G1 X106.439 Y100.533 E11.18664
G1 X105.654 Y99.790 E11.23363
G1 X104.954 Y98.965 E11.28062
G1 X104.347 Y98.070 E11.32761
G1 X103.840 Y97.115 E11.37460
G1 X103.440 Y96.110 E11.42160
G1 X103.151 Y95.068 E11.46859
G1 X102.976 Y94.001 E11.51558
G1 X102.917 Y92.921 E11.56257
G1 X102.976 Y91.841 E11.60956
G1 X103.151 Y90.774 E11.65655
G1 X103.440 Y89.732 E11.70354
G1 X103.840 Y88.727 E11.75054
G1 X104.347 Y87.772 E11.79753
G1 X104.875 Y86.994 E11.83838
G1 X104.549 Y86.773 F4800.000
G1 F1350.000
G1 X104.641 Y86.639 E11.84545
G1 X105.368 Y85.782 E11.89429
G1 X106.184 Y85.009 E11.94313
G1 X107.079 Y84.329 E11.99197
G1 X108.042 Y83.749 E12.04082
G1 X109.063 Y83.277 E12.08966
G1 X110.128 Y82.918 E12.13850
G1 X111.226 Y82.677 E12.18735
G1 X112.343 Y82.555 E12.23619
G1 X113.467 Y82.555 E12.28503
G1 X114.559 Y82.674 E12.33276
G1 X115.683 Y82.919 E12.38274
G1 X116.747 Y83.277 E12.43155
G1 X117.768 Y83.749 E12.48040
G1 X118.731 Y84.329 E12.52924
G1 X119.626 Y85.009 E12.57808
G1 X120.442 Y85.782 E12.62692
G1 X121.169 Y86.639 E12.67577
G1 X121.800 Y87.569 E12.72461
G1 X122.327 Y88.562 E12.77345
G1 X122.743 Y89.606 E12.82230
G1 X123.043 Y90.689 E12.87114
G1 X123.225 Y91.799 E12.91998
G1 X123.286 Y92.921 E12.96883
G1 X123.225 Y94.043 E13.01764
G1 X123.037 Y95.178 E13.06762
G1 X122.743 Y96.236 E13.11535
G1 X122.327 Y97.280 E13.16419
G1 X121.800 Y98.273 E13.21303
G1 X121.169 Y99.204 E13.26188
G1 X120.442 Y100.060 E13.31072
G1 X119.626 Y100.833 E13.35956
G1 X118.731 Y101.514 E13.40840
G1 X117.768 Y102.093 E13.45725
G1 X116.747 Y102.565 E13.50609
G1 X115.682 Y102.924 E13.55493
G1 X114.584 Y103.166 E13.60378
G1 X113.467 Y103.287 E13.65262
G1 X112.343 Y103.287 E13.70146
G1 X111.226 Y103.166 E13.75030
G1 X110.128 Y102.924 E13.79915
G1 X109.063 Y102.565 E13.84799
G1 X108.042 Y102.093 E13.89683
G1 X107.079 Y101.514 E13.94568
G1 X106.184 Y100.833 E13.99452
G1 X105.368 Y100.060 E14.04336
G1 X104.641 Y99.204 E14.09221
G1 X104.010 Y98.273 E14.14105
G1 X103.483 Y97.280 E14.18989
G1 X103.067 Y96.236 E14.23873
G1 X102.767 Y95.153 E14.28758
G1 X102.585 Y94.044 E14.33642
G1 X102.524 Y92.921 E14.38526
G1 X102.585 Y91.799 E14.43411
G1 X102.767 Y90.689 E14.48295
G1 X103.067 Y89.606 E14.53179
G1 X103.483 Y88.562 E14.58063
G1 X104.010 Y87.569 E14.62948
G1 X104.516 Y86.823 E14.66865
G1 X104.327 Y86.401 F4800.000
;TYPE:External perimeter
G1 F945.000
G1 X105.083 Y85.511 E14.71934
G1 X105.930 Y84.709 E14.77004
G1 X106.858 Y84.003 E14.82073
G1 X107.858 Y83.402 E14.87142
G1 X108.917 Y82.912 E14.92212
G1 X110.022 Y82.539 E14.97281
G1 X111.162 Y82.288 E15.02351
G1 X112.322 Y82.162 E15.07420
G1 X113.488 Y82.162 E15.12490
G1 X114.622 Y82.286 E15.17445
G1 X115.788 Y82.539 E15.22629
G1 X116.893 Y82.912 E15.27697
G1 X117.952 Y83.402 E15.32767
G1 X118.952 Y84.003 E15.37836
G1 X119.880 Y84.709 E15.42905
G1 X120.727 Y85.511 E15.47975
G1 X121.483 Y86.401 E15.53044
G1 X122.137 Y87.366 E15.58114
G1 X122.684 Y88.397 E15.63183
G1 X123.116 Y89.481 E15.68253
G1 X123.428 Y90.605 E15.73322
G1 X123.617 Y91.756 E15.78391
G1 X123.680 Y92.921 E15.83461
G1 X123.617 Y94.086 E15.88529
G1 X123.421 Y95.263 E15.93713
G1 X123.116 Y96.362 E15.98668
G1 X122.684 Y97.445 E16.03738
G1 X122.137 Y98.476 E16.08807
G1 X121.483 Y99.442 E16.13877
G1 X120.727 Y100.331 E16.18946
G1 X119.880 Y101.133 E16.24016
G1 X118.952 Y101.839 E16.29085
G1 X117.952 Y102.441 E16.34154
G1 X116.893 Y102.931 E16.39224
G1 X115.788 Y103.303 E16.44293
G1 X114.648 Y103.554 E16.49363
G1 X113.488 Y103.680 E16.54432
G1 X112.322 Y103.680 E16.59502
G1 X111.162 Y103.554 E16.64571
G1 X110.022 Y103.303 E16.69640
G1 X108.917 Y102.931 E16.74710
G1 X107.858 Y102.441 E16.79779
G1 X106.858 Y101.839 E16.84849
G1 X105.930 Y101.133 E16.89918
G1 X105.083 Y100.331 E16.94988
G1 X104.327 Y99.442 E17.00057
G1 X103.673 Y98.476 E17.05126
