; generated by PrusaSlicer 2.3.0+win64 on 2021-02-07 at 16:49:43 UTC

; 

; external perimeters extrusion width = 0.45mm
; perimeters extrusion width = 0.45mm
; infill extrusion width = 0.38mm
; solid infill extrusion width = 0.45mm
; top infill extrusion width = 0.40mm
; support material extrusion width = 0.40mm

M201 X9000 Y9000 Z500 E10000 ; sets maximum accelerations, mm/sec^2
M203 X500 Y500 Z12 E120 ; sets maximum feedrates, mm/sec
M204 P1500 R1500 T1500 ; sets acceleration (P, T) and retract acceleration (R), mm/sec^2
M205 X10.00 Y10.00 Z0.20 E2.50 ; sets the jerk limits, mm/sec
M205 S0 T0 ; sets the minimum extruding and travel feed rate, mm/sec
M107
;TYPE:Custom
M117 Preheating... 
M104 S205  ; pre heat nozzle to ...
M140 S60; start warming the bed to ...
;----------------------------------------
M117 Homing;
G28; Home all 3 axis
;----------------------------------------
M117 Auto leveling ;If you dont have a Sensor it will automatically skip this step
G29; run auto level
;----------------------------------------
M117 Parking Nozzle
G1 X250 Y15 F3000
G1 Z0 F300; Close Nozzle
;----------------------------------------
M117 Continuing Heating
M190 S60; set bed temp and wait for it to come up
M109 S205 ; set hot end temp to first layer temp
;----------------------------------------
M117 Priming;
G92 E0 
G1 F300 E-0.5
G0 X220 Y15 Z0.2 F5000
G1 F400 E8
G1 X80 E25 F800
G4 P500 ; Pause 
;----------------------------------------
M117 Printing...
G21 ; set units to millimeters
G90 ; use absolute coordinates
M82 ; use absolute distances for extrusion
G92 E0
; Filament gcode
;LAYER_CHANGE
;Z:0.2128
;HEIGHT:0.2128
G1 Z0.213 F4800.000
G1 E-7.00000 F2100.000
G92 E0
G1 Z0.513 F4800.000
G1 X33.142 Y37.907
G1 Z0.213
G1 E7.00000 F1800.000
;TYPE:Skirt
;WIDTH:0.45
G1 X33.857 Y37.379 E7.03180
G1 X34.635 Y36.949 E7.06360
G1 X35.462 Y36.623 E7.09540
G1 X36.318 Y36.409 E7.12697
G1 X37.201 Y36.308 E7.15877
G1 X103.944 Y33.194 E9.54889
G1 X106.061 Y33.187 E9.62462
G1 X176.295 Y36.404 E12.13968
G1 X177.869 Y36.732 E12.19720
G1 X179.323 Y37.419 E12.25472
G1 X180.575 Y38.427 E12.31223
G1 X181.556 Y39.702 E12.36975
G1 X182.083 Y40.798 E12.41328
G1 X182.669 Y42.674 E12.48357
G1 X183.032 Y44.483 E12.54958
G1 X183.213 Y46.410 E12.61880
G1 X183.196 Y48.229 E12.68388
G1 X182.988 Y50.088 E12.75081
G1 X182.590 Y51.916 E12.81773
G1 X182.018 Y53.664 E12.88350
G1 X157.271 Y109.089 E15.05484
G1 X156.771 Y109.968 E15.09101
G1 X155.463 Y111.782 E15.17101
G1 X154.670 Y112.574 E15.21109
G1 X153.759 Y113.225 E15.25117
G1 X152.333 Y113.867 E15.30709
G1 X150.799 Y114.166 E15.36300
G1 X141.374 Y114.185 E15.70017
G1 X140.152 Y114.046 E15.74415
G1 X134.654 Y112.794 E15.94585
G1 X55.251 Y89.838 E18.90259
G1 X54.321 Y89.493 E18.93807
G1 X53.549 Y89.079 E18.96941
G1 X52.837 Y88.569 E19.00075
G1 X52.192 Y87.967 E19.03232
G1 X51.633 Y87.291 E19.06366
G1 X31.808 Y58.964 E20.30051
G1 X31.305 Y58.102 E20.33622
G1 X30.935 Y57.182 E20.37170
G1 X30.694 Y56.167 E20.40902
G1 X30.611 Y55.127 E20.44634
G1 X30.728 Y42.972 E20.88117
G1 X30.887 Y41.642 E20.92905
G1 X31.134 Y40.789 E20.96085
G1 X31.491 Y39.974 E20.99266
G1 X31.947 Y39.219 E21.02423
G1 X32.502 Y38.524 E21.05603
G1 X33.099 Y37.949 E21.08568
G1 E14.08568 F2100.000
G92 E0
G1 Z0.513 F4800.000
G1 X31.274 Y41.762
G1 Z0.213
G1 E7.00000 F1800.000
G1 X31.505 Y40.951 E7.03017
G1 X31.841 Y40.178 E7.06034
G1 X32.276 Y39.455 E7.09051
G1 X32.806 Y38.791 E7.12091
G1 X33.414 Y38.206 E7.15108
G1 X34.094 Y37.707 E7.18125
G1 X34.834 Y37.302 E7.21142
G1 X35.620 Y36.997 E7.24159
G1 X36.415 Y36.803 E7.27087
G1 X37.228 Y36.711 E7.30015
G1 X103.962 Y33.598 E9.68996
G1 X106.061 Y33.591 E9.76502
G1 X176.243 Y36.806 E12.27824
G1 X177.722 Y37.109 E12.33224
G1 X179.094 Y37.753 E12.38646
G1 X180.272 Y38.696 E12.44045
G1 X181.200 Y39.895 E12.49467
G1 X181.706 Y40.947 E12.53644
G1 X182.278 Y42.777 E12.60502
G1 X182.632 Y44.546 E12.66957
G1 X182.809 Y46.430 E12.73724
G1 X182.792 Y48.209 E12.80089
G1 X182.588 Y50.027 E12.86632
G1 X182.199 Y51.814 E12.93176
G1 X181.639 Y53.523 E12.99608
G1 X156.909 Y108.909 E15.16588
G1 X156.437 Y109.740 E15.20006
G1 X155.163 Y111.511 E15.27810
G1 X154.418 Y112.258 E15.31585
G1 X153.560 Y112.873 E15.35361
G1 X152.206 Y113.483 E15.40672
G1 X150.743 Y113.765 E15.46005
G1 X141.366 Y113.780 E15.79547
G1 X140.219 Y113.647 E15.83679
G1 X134.740 Y112.399 E16.03778
G1 X55.364 Y89.450 E18.99354
G1 X54.491 Y89.126 E19.02684
G1 X53.764 Y88.736 E19.05634
G1 X53.089 Y88.252 E19.08606
G1 X52.482 Y87.685 E19.11579
G1 X51.957 Y87.049 E19.14529
G1 X32.144 Y58.739 E20.38137
G1 X31.663 Y57.913 E20.41556
G1 X31.309 Y57.025 E20.44975
G1 X31.091 Y56.088 E20.48416
G1 X31.016 Y55.123 E20.51879
G1 X31.132 Y42.984 E20.95305
G1 X31.267 Y41.822 E20.99490
G1 E13.99490 F2100.000
G92 E0
G1 Z0.513 F4800.000
G1 X62.815 Y70.602
G1 Z0.213
G1 E7.00000 F1800.000
;TYPE:Support material
;WIDTH:0.4
G1 X62.815 Y65.755 E7.15193
G1 X63.524 Y65.762 E7.17415
G1 X63.524 Y70.602 E7.32586
G1 E0.32586 F2100.000
G92 E0
G1 Z0.513 F4800.000
G1 X60.689 Y73.831
G1 Z0.213
G1 E7.00000 F1800.000
G1 X60.689 Y79.931 E7.19122
G1 X61.398 Y79.938 E7.21344
G1 X61.398 Y73.991 E7.39987
G1 X62.107 Y73.991 E7.42209
G1 X62.107 Y79.945 E7.60873
G1 X62.815 Y79.952 E7.63095
G1 X62.815 Y73.991 E7.81781
G1 X63.524 Y73.991 E7.84003
G1 X63.524 Y79.959 E8.02711
G1 X64.233 Y79.965 E8.04932
G1 X64.233 Y65.769 E8.49436
G1 X64.941 Y65.776 E8.51657
G1 X64.941 Y79.972 E8.96161
G1 X65.650 Y79.979 E8.98383
G1 X65.650 Y65.763 E9.42947
G1 X65.982 Y65.745 E9.43988
G1 X66.359 Y65.680 E9.45187
G1 X66.359 Y79.986 E9.90035
G1 X67.067 Y79.993 E9.92257
G1 X67.067 Y65.499 E10.37693
G1 X67.249 Y65.443 E10.38287
G1 X67.776 Y65.211 E10.40093
G1 X67.776 Y80.000 E10.86452
G1 X68.485 Y80.006 E10.88673
G1 X68.485 Y64.786 E11.36388
G1 X68.904 Y64.463 E11.38046
G1 X69.193 Y64.182 E11.39312
G1 X69.193 Y80.013 E11.88940
G1 X69.902 Y80.020 E11.91162
G1 X69.902 Y63.303 E12.43567
G1 X70.135 Y62.923 E12.44963
G1 X70.398 Y62.353 E12.46932
G1 X70.611 Y61.683 E12.49135
G1 X70.611 Y80.027 E13.06640
G1 X71.319 Y80.034 E13.08861
G1 X71.319 Y60.334 E13.70616
G1 X72.028 Y60.334 E13.72838
G1 X72.028 Y80.041 E14.34614
G1 X72.737 Y80.047 E14.36836
G1 X72.737 Y60.334 E14.98634
G1 X73.445 Y60.334 E15.00855
G1 X73.445 Y80.214 E15.63174
G1 E8.63174 F2100.000
G92 E0
G1 Z0.513 F4800.000
G1 X58.898 Y63.877
G1 Z0.213
G1 E7.00000 F1800.000
;TYPE:Perimeter
;WIDTH:0.45
G1 X58.726 Y81.752 E7.63946
G1 X83.925 Y81.996 E8.54092
G1 X83.923 Y82.120 E8.54536
G1 X58.601 Y81.875 E9.45125
G1 X58.871 Y53.877 E10.45287
G1 X38.872 Y53.684 E11.16831
G1 X38.960 Y44.560 E11.49469
G1 X65.477 Y44.816 E12.44332
G1 X65.949 Y44.849 E12.46025
G1 X66.371 Y44.931 E12.47563
G1 X66.763 Y45.057 E12.49034
G1 X67.173 Y45.244 E12.50648
G1 X67.536 Y45.468 E12.52175
G1 X67.858 Y45.725 E12.53647
G1 X68.175 Y46.046 E12.55260
G1 X68.435 Y46.385 E12.56787
G1 X68.644 Y46.739 E12.58259
G1 X68.827 Y47.151 E12.59872
G1 X68.950 Y47.560 E12.61399
G1 X69.023 Y47.983 E12.62937
G1 X69.047 Y48.456 E12.64630
G1 X68.933 Y60.368 E13.07246
G1 X68.899 Y60.841 E13.08939
G1 X68.818 Y61.263 E13.10476
G1 X68.686 Y61.672 E13.12014
G1 X68.506 Y62.062 E13.13552
G1 X68.280 Y62.428 E13.15089
G1 X68.012 Y62.763 E13.16627
G1 X67.705 Y63.064 E13.18164
G1 X67.364 Y63.326 E13.19702
G1 X66.994 Y63.545 E13.21239
G1 X66.600 Y63.718 E13.22777
G1 X66.189 Y63.842 E13.24314
G1 X65.765 Y63.915 E13.25852
G1 X65.293 Y63.939 E13.27545
G1 X58.958 Y63.878 E13.50205
G1 X59.299 Y64.286 F4800.000
G1 F1800.000
G1 X59.134 Y81.352 E14.11259
G1 X84.333 Y81.595 E15.01404
G1 X84.324 Y82.528 E15.04741
G1 X58.192 Y82.276 E15.98223
G1 X58.463 Y54.277 E16.98385
G1 X38.463 Y54.084 E17.69929
G1 X38.559 Y44.152 E18.05460
G1 X65.493 Y44.412 E19.01813
G1 X66.002 Y44.447 E19.03637
G1 X66.472 Y44.538 E19.05350
G1 X66.909 Y44.679 E19.06993
G1 X67.364 Y44.887 E19.08782
G1 X67.769 Y45.137 E19.10487
G1 X68.128 Y45.424 E19.12130
G1 X68.480 Y45.780 E19.13919
G1 X68.770 Y46.158 E19.15624
G1 X69.004 Y46.553 E19.17268
G1 X69.207 Y47.010 E19.19056
G1 X69.344 Y47.467 E19.20761
G1 X69.426 Y47.938 E19.22474
G1 X69.452 Y48.448 E19.24298
G1 X69.337 Y60.385 E19.67001
G1 X69.301 Y60.893 E19.68826
G1 X69.210 Y61.363 E19.70538
G1 X69.063 Y61.819 E19.72251
G1 X68.863 Y62.254 E19.73963
G1 X68.611 Y62.661 E19.75676
G1 X68.312 Y63.035 E19.77388
G1 X67.970 Y63.370 E19.79101
G1 X67.591 Y63.662 E19.80813
G1 X67.179 Y63.906 E19.82526
G1 X66.740 Y64.098 E19.84238
G1 X66.282 Y64.236 E19.85951
G1 X65.810 Y64.318 E19.87663
G1 X65.301 Y64.343 E19.89488
G1 X59.359 Y64.286 E20.10745
G1 X59.699 Y64.694 F4800.000
G1 F1800.000
G1 X59.542 Y80.952 E20.68906
G1 X84.741 Y81.195 E21.59052
G1 X84.724 Y82.936 E21.65281
G1 X57.784 Y82.676 E22.61656
G1 X58.054 Y54.677 E23.61818
G1 X38.055 Y54.485 E24.33362
G1 X38.159 Y43.744 E24.71786
G1 X65.509 Y44.007 E25.69628
G1 X66.055 Y44.046 E25.71584
G1 X66.573 Y44.146 E25.73472
G1 X67.056 Y44.302 E25.75287
G1 X67.555 Y44.530 E25.77251
G1 X68.003 Y44.806 E25.79134
G1 X68.399 Y45.123 E25.80949
G1 X68.785 Y45.513 E25.82913
G1 X69.106 Y45.931 E25.84796
G1 X69.364 Y46.368 E25.86611
G1 X69.587 Y46.869 E25.88575
G1 X69.738 Y47.373 E25.90458
G1 X69.829 Y47.893 E25.92345
G1 X69.856 Y48.439 E25.94301
G1 X69.741 Y60.401 E26.37091
G1 X69.703 Y60.946 E26.39047
G1 X69.603 Y61.464 E26.40934
G1 X69.441 Y61.966 E26.42822
G1 X69.220 Y62.445 E26.44709
G1 X68.942 Y62.894 E26.46597
G1 X68.613 Y63.307 E26.48485
G1 X68.236 Y63.676 E26.50372
G1 X67.818 Y63.997 E26.52260
G1 X67.364 Y64.266 E26.54147
G1 X66.880 Y64.478 E26.56035
G1 X66.375 Y64.630 E26.57922
G1 X65.855 Y64.720 E26.59810
G1 X65.309 Y64.748 E26.61765
G1 X59.759 Y64.694 E26.81620
G1 X60.100 Y65.102 F4800.000
;TYPE:External perimeter
G1 F1800.000
G1 X59.950 Y80.551 E27.36888
G1 X85.149 Y80.794 E28.27034
G1 X85.125 Y83.344 E28.36155
G1 X57.376 Y83.077 E29.35423
G1 X57.646 Y55.078 E30.35585
G1 X37.647 Y54.885 E31.07129
G1 X37.758 Y43.335 E31.48446
G1 X65.525 Y43.603 E32.47779
G1 X66.107 Y43.644 E32.49866
G1 X66.673 Y43.754 E32.51928
G1 X67.202 Y43.924 E32.53916
G1 X67.746 Y44.172 E32.56054
G1 X68.236 Y44.475 E32.58115
G1 X68.670 Y44.822 E32.60103
G1 X69.091 Y45.247 E32.62241
G1 X69.441 Y45.704 E32.64302
G1 X69.724 Y46.182 E32.66289
G1 X69.967 Y46.729 E32.68428
G1 X70.133 Y47.280 E32.70489
G1 X70.231 Y47.848 E32.72551
G1 X70.261 Y48.431 E32.74638
G1 X70.145 Y60.417 E33.17516
G1 X70.104 Y60.999 E33.19603
G1 X69.995 Y61.565 E33.21665
G1 X69.818 Y62.114 E33.23728
G1 X69.576 Y62.637 E33.25790
G1 X69.273 Y63.128 E33.27853
G1 X68.913 Y63.578 E33.29915
G1 X68.502 Y63.982 E33.31978
G1 X68.045 Y64.333 E33.34040
G1 X67.548 Y64.626 E33.36103
G1 X67.020 Y64.858 E33.38165
G1 X66.468 Y65.024 E33.40228
G1 X65.900 Y65.123 E33.42290
G1 X65.317 Y65.152 E33.44377
G1 X60.160 Y65.103 E33.62829
G1 X59.700 Y65.099 F4800.000
G1 E26.62829 F2100.000
G92 E0
G1 Z0.513 F4800.000
G1 X58.884 Y62.935
G1 Z0.213
G1 E7.00000 F1800.000
;TYPE:Solid infill
;WIDTH:0.450797
G1 X59.550 Y63.601 E7.03372
G1 X60.128 Y63.606 E7.05445
G1 X59.070 Y62.548 E7.10808
G1 X59.076 Y61.981 E7.12842
G1 X60.707 Y63.612 E7.21110
G1 X61.285 Y63.617 E7.23184
G1 X59.081 Y61.413 E7.34356
G1 X59.087 Y60.846 E7.36390
G1 X61.864 Y63.623 E7.50467
G1 X62.442 Y63.628 E7.52541
G1 X59.092 Y60.278 E7.69523
G1 X59.097 Y59.711 E7.71557
G1 X63.021 Y63.634 E7.91443
G1 X63.599 Y63.640 E7.93517
G1 X59.103 Y59.143 E8.16308
G1 X59.108 Y58.576 E8.18342
G1 X64.178 Y63.645 E8.44038
G1 X64.756 Y63.651 E8.46112
G1 X59.114 Y58.008 E8.74713
G1 X59.119 Y57.441 E8.76747
G1 X65.332 Y63.654 E9.08238
G1 X65.862 Y63.611 E9.10145
G1 X59.125 Y56.873 E9.44296
G1 X59.130 Y56.306 E9.46330
G1 X66.328 Y63.504 E9.82816
G1 X66.502 Y63.452 E9.83468
G1 X66.743 Y63.346 E9.84411
G1 X59.136 Y55.739 E10.22972
G1 X59.141 Y55.171 E10.25006
G1 X67.115 Y63.145 E10.65424
G1 X67.448 Y62.905 E10.66895
G1 X59.147 Y54.604 E11.08973
G1 X59.152 Y54.036 E11.11007
G1 X67.873 Y62.757 E11.55215
G1 E4.55215 F2100.000
G92 E0
G1 Z0.513 F4800.000
G1 X68.584 Y46.853
G1 Z0.213
G1 E7.00000 F1800.000
G1 X67.665 Y45.934 E7.04659
G1 X67.373 Y45.700 E7.06000
G1 X67.039 Y45.494 E7.07405
G1 X66.660 Y45.321 E7.08899
G1 X66.394 Y45.235 E7.09903
G1 X68.627 Y47.469 E7.21225
G1 X68.674 Y47.625 E7.21810
G1 X68.742 Y48.015 E7.23228
G1 X68.749 Y48.164 E7.23763
G1 X65.701 Y45.115 E7.39216
G1 X65.108 Y45.095 E7.41342
G1 X68.762 Y48.749 E7.59862
G1 X68.756 Y49.317 E7.61896
G1 X64.529 Y45.090 E7.83322
G1 X63.951 Y45.084 E7.85395
G1 X68.751 Y49.884 E8.09725
G1 X68.745 Y50.451 E8.11759
G1 X63.372 Y45.079 E8.38994
G1 X62.794 Y45.073 E8.41068
G1 X68.740 Y51.019 E8.71207
G1 X68.734 Y51.586 E8.73241
G1 X62.215 Y45.067 E9.06285
G1 X61.637 Y45.062 E9.08359
G1 X68.729 Y52.154 E9.44308
G1 X68.723 Y52.721 E9.46342
G1 X61.058 Y45.056 E9.85196
G1 X60.480 Y45.051 E9.87269
G1 X68.718 Y53.289 E10.29028
G1 X68.712 Y53.856 E10.31062
G1 X59.901 Y45.045 E10.75725
G1 X59.323 Y45.040 E10.77798
G1 X68.707 Y54.424 E11.25366
G1 X68.701 Y54.991 E11.27400
G1 X58.744 Y45.034 E11.77873
G1 X58.166 Y45.028 E11.79946
G1 X68.696 Y55.559 E12.33324
G1 X68.690 Y56.126 E12.35358
G1 X57.587 Y45.023 E12.91640
G1 X57.009 Y45.017 E12.93713
G1 X68.685 Y56.694 E13.52900
G1 X68.680 Y57.261 E13.54934
G1 X56.430 Y45.012 E14.17026
G1 X55.852 Y45.006 E14.19099
G1 X68.674 Y57.829 E14.84095
G1 X68.669 Y58.396 E14.86129
G1 X55.273 Y45.000 E15.54030
G1 X54.695 Y44.995 E15.56104
G1 X68.663 Y58.963 E16.26910
G1 X68.658 Y59.531 E16.28944
G1 X54.116 Y44.989 E17.02654
G1 X53.537 Y44.984 E17.04728
G1 X68.652 Y60.098 E17.81343
G1 X68.629 Y60.648 E17.83316
G1 X52.959 Y44.978 E18.62747
G1 X52.380 Y44.973 E18.64821
G1 X68.552 Y61.145 E19.46795
G1 X68.416 Y61.581 E19.48435
G1 X51.802 Y44.967 E20.32651
G1 X51.223 Y44.961 E20.34725
G1 X68.231 Y61.969 E21.20934
G1 X68.006 Y62.317 E21.22419
G1 X50.645 Y44.956 E22.10422
G1 X50.066 Y44.950 E22.12496
G1 X58.708 Y53.592 E22.56300
G1 X58.130 Y53.586 E22.58373
G1 X49.488 Y44.945 E23.02177
G1 X48.909 Y44.939 E23.04251
G1 X57.551 Y53.581 E23.48055
G1 X56.972 Y53.575 E23.50129
G1 X48.331 Y44.934 E23.93933
G1 X47.752 Y44.928 E23.96007
G1 X56.394 Y53.570 E24.39811
G1 X55.815 Y53.564 E24.41885
G1 X47.174 Y44.922 E24.85689
G1 X46.595 Y44.917 E24.87762
G1 X55.237 Y53.558 E25.31566
G1 X54.658 Y53.553 E25.33640
G1 X46.017 Y44.911 E25.77444
G1 X45.438 Y44.906 E25.79518
G1 X54.080 Y53.547 E26.23322
G1 X53.501 Y53.542 E26.25396
G1 X44.860 Y44.900 E26.69200
G1 X44.281 Y44.894 E26.71274
G1 X52.923 Y53.536 E27.15078
G1 X52.344 Y53.531 E27.17151
G1 X43.703 Y44.889 E27.60955
G1 X43.124 Y44.883 E27.63029
G1 X51.766 Y53.525 E28.06833
G1 X51.187 Y53.519 E28.08907
G1 X42.546 Y44.878 E28.52711
G1 X41.967 Y44.872 E28.54785
G1 X50.609 Y53.514 E28.98589
G1 X50.030 Y53.508 E29.00663
G1 X41.389 Y44.867 E29.44467
G1 X40.810 Y44.861 E29.46540
G1 X49.452 Y53.503 E29.90344
G1 X48.873 Y53.497 E29.92418
G1 X40.231 Y44.855 E30.36222
G1 X39.653 Y44.850 E30.38296
G1 X48.295 Y53.492 E30.82100
G1 X47.716 Y53.486 E30.84174
G1 X39.238 Y45.008 E31.27147
G1 X39.233 Y45.576 E31.29181
G1 X47.138 Y53.480 E31.69250
G1 X46.559 Y53.475 E31.71323
G1 X39.227 Y46.143 E32.08487
G1 X39.222 Y46.711 E32.10521
G1 X45.981 Y53.469 E32.44780
G1 X45.402 Y53.464 E32.46854
G1 X39.216 Y47.278 E32.78208
G1 X39.211 Y47.845 E32.80242
G1 X44.824 Y53.458 E33.08692
G1 X44.245 Y53.452 E33.10766
G1 X39.206 Y48.413 E33.36310
G1 X39.200 Y48.980 E33.38344
G1 X43.667 Y53.447 E33.60985
G1 X43.088 Y53.441 E33.63058
G1 X39.195 Y49.548 E33.82794
G1 X39.189 Y50.115 E33.84828
G1 X42.509 Y53.436 E34.01659
G1 X41.931 Y53.430 E34.03732
G1 X39.184 Y50.683 E34.17658
G1 X39.178 Y51.250 E34.19692
G1 X41.352 Y53.425 E34.30714
G1 X40.774 Y53.419 E34.32787
G1 X39.173 Y51.818 E34.40904
G1 X39.167 Y52.385 E34.42938
G1 X40.195 Y53.413 E34.48150
G1 X39.617 Y53.408 E34.50223
G1 X38.982 Y52.772 E34.53444
G1 E27.53444 F2100.000
G92 E0
G1 Z0.513 F4800.000
G1 X131.985 Y61.091
G1 Z0.213
G1 E7.00000 F1800.000
;TYPE:Support material
;WIDTH:0.4
G1 X131.985 Y60.589 E7.01574
G1 X132.693 Y61.297 E7.04716
G1 X132.693 Y61.799 E7.06290
G1 E0.06290 F2100.000
G92 E0
G1 Z0.513 F4800.000
G1 X134.819 Y59.683
G1 Z0.213
G1 E7.00000 F1800.000
