; generated by PrusaSlicer 2.3.0+win64 on 2021-03-24 at 15:06:03 UTC

; 

; external perimeters extrusion width = 0.45mm
; perimeters extrusion width = 0.45mm
; infill extrusion width = 0.38mm
; solid infill extrusion width = 0.45mm
; top infill extrusion width = 0.40mm
; support material extrusion width = 0.40mm

M201 X9000 Y9000 Z500 E10000 ; sets maximum accelerations, mm/sec^2
M203 X500 Y500 Z12 E120 ; sets maximum feedrates, mm/sec
M204 P1500 R1500 T1500 ; sets acceleration (P, T) and retract acceleration (R), mm/sec^2
M205 X10.00 Y10.00 Z0.20 E2.50 ; sets the jerk limits, mm/sec
M205 S0 T0 ; sets the minimum extruding and travel feed rate, mm/sec
M107
;TYPE:Custom
M117 Preheating... 
M104 S205  ; pre heat nozzle to ...
M140 S60; start warming the bed to ...
;----------------------------------------
M117 Homing;
G28; Home all 3 axis
;----------------------------------------
M117 Auto leveling ;If you dont have a Sensor it will automatically skip this step
G29; run auto level
;----------------------------------------
M117 Parking Nozzle
G1 X250 Y15 F3000
G1 Z0 F300; Close Nozzle
;----------------------------------------
M117 Continuing Heating
M190 S60; set bed temp and wait for it to come up
M109 S205 ; set hot end temp to first layer temp
;----------------------------------------
M117 Priming;
G92 E0 
G1 F300 E-0.5
G0 X220 Y15 Z0.2 F5000
G1 F400 E8
G1 X80 E25 F800
G4 P500 ; Pause 
;----------------------------------------
M117 Printing...
G21 ; set units to millimeters
G90 ; use absolute coordinates
M82 ; use absolute distances for extrusion
G92 E0
; Filament gcode
;LAYER_CHANGE
;Z:0.2128
;HEIGHT:0.2128
G1 Z0.213 F4800.000
G1 E-7.00000 F2100.000
G92 E0
G1 Z0.513 F4800.000
G1 X58.475 Y31.415
G1 Z0.213
G1 E7.00000 F1800.000
;TYPE:Skirt
;WIDTH:0.45
G1 X59.128 Y30.313 E7.04582
G1 X59.976 Y29.353 E7.09164
G1 X60.989 Y28.569 E7.13747
G1 X62.131 Y27.988 E7.18329
G1 X63.361 Y27.631 E7.22911
G1 X64.636 Y27.512 E7.27493
G1 X80.149 Y27.672 E7.82990
G1 X147.035 Y28.714 E10.22283
G1 X147.870 Y28.780 E10.25279
G1 X148.684 Y28.946 E10.28252
G1 X149.779 Y29.344 E10.32420
G1 X152.818 Y30.862 E10.44572
G1 X153.576 Y31.326 E10.47752
G1 X154.272 Y31.890 E10.50955
G1 X165.410 Y43.021 E11.07282
G1 X180.292 Y58.059 E11.82966
G1 X180.880 Y58.743 E11.86192
G1 X181.423 Y59.588 E11.89786
G1 X183.055 Y62.749 E12.02510
G1 X183.414 Y63.735 E12.06265
G1 X183.617 Y64.765 E12.10020
G1 X183.632 Y81.966 E12.71551
G1 X172.770 Y163.284 E15.65028
G1 X172.444 Y164.549 E15.69702
G1 X171.882 Y165.729 E15.74376
G1 X171.104 Y166.779 E15.79050
G1 X170.141 Y167.662 E15.83724
G1 X169.216 Y168.248 E15.87640
G1 X168.210 Y168.678 E15.91556
G1 X167.141 Y168.943 E15.95495
G1 X166.050 Y169.032 E15.99411
G1 X129.110 Y169.031 E17.31551
G1 X61.068 Y167.761 E19.74997
G1 X59.544 Y167.553 E19.80497
G1 X58.112 Y167.012 E19.85974
G1 X56.832 Y166.160 E19.91473
G1 X55.780 Y165.048 E19.96950
G1 X55.209 Y164.152 E20.00751
G1 X54.785 Y163.178 E20.04552
G1 X54.519 Y162.156 E20.08330
G1 X54.413 Y161.098 E20.12131
G1 X54.413 Y100.048 E22.30523
G1 X57.838 Y33.884 E24.67520
G1 X58.039 Y32.619 E24.72102
G1 X58.454 Y31.471 E24.76469
G1 X58.833 Y31.608 F4800.000
G1 F1800.000
G1 X59.453 Y30.554 E24.80843
G1 X60.250 Y29.650 E24.85153
G1 X61.202 Y28.912 E24.89463
G1 X62.281 Y28.363 E24.93795
G1 X63.439 Y28.028 E24.98105
G1 X64.638 Y27.916 E25.02415
G1 X80.138 Y28.076 E25.57863
G1 X147.022 Y29.118 E27.97151
G1 X148.572 Y29.335 E28.02750
G1 X149.617 Y29.714 E28.06726
G1 X152.628 Y31.219 E28.18768
G1 X153.347 Y31.660 E28.21785
G1 X154.002 Y32.191 E28.24802
G1 X165.119 Y43.302 E28.81025
G1 X180.004 Y58.343 E29.56725
G1 X180.551 Y58.977 E29.59720
G1 X181.068 Y59.781 E29.63138
G1 X182.683 Y62.908 E29.75730
G1 X183.025 Y63.847 E29.79305
G1 X183.217 Y64.822 E29.82857
G1 X183.230 Y81.920 E30.44023
G1 X172.373 Y163.207 E33.37385
G1 X172.068 Y164.399 E33.41784
G1 X171.541 Y165.510 E33.46183
G1 X170.812 Y166.500 E33.50583
G1 X169.907 Y167.332 E33.54982
G1 X169.032 Y167.888 E33.58690
G1 X168.078 Y168.296 E33.62399
G1 X167.072 Y168.545 E33.66107
G1 X166.045 Y168.627 E33.69794
G1 X129.119 Y168.627 E35.01884
G1 X61.076 Y167.357 E37.45332
G1 X59.648 Y167.163 E37.50487
G1 X58.300 Y166.654 E37.55643
G1 X57.099 Y165.856 E37.60798
G1 X56.111 Y164.816 E37.65931
G1 X55.570 Y163.968 E37.69528
G1 X55.168 Y163.047 E37.73125
G1 X54.916 Y162.080 E37.76700
G1 X54.817 Y161.079 E37.80297
G1 X54.817 Y100.051 E39.98607
G1 X58.240 Y33.920 E42.35487
G1 X58.430 Y32.724 E42.39820
G1 X58.812 Y31.664 E42.43851
G1 E35.43851 F2100.000
G92 E0
G1 Z0.513 F4800.000
G1 X141.242 Y102.586
G1 Z0.213
G1 E7.00000 F1800.000
;TYPE:Support material
;WIDTH:0.4
G1 X141.242 Y98.695 E7.12200
G1 X141.950 Y98.695 E7.14422
G1 X141.950 Y102.427 E7.26122
G1 X142.659 Y102.427 E7.28344
G1 X142.659 Y98.695 E7.40044
G1 X143.368 Y98.695 E7.42266
G1 X143.368 Y102.427 E7.53966
G1 X144.076 Y102.427 E7.56188
G1 X144.076 Y98.695 E7.67888
G1 X144.785 Y98.695 E7.70110
G1 X144.785 Y102.427 E7.81810
G1 X145.494 Y102.427 E7.84032
G1 X145.494 Y98.695 E7.95732
G1 X146.202 Y98.695 E7.97954
G1 X146.202 Y102.427 E8.09654
G1 X146.911 Y102.427 E8.11876
G1 X146.911 Y98.695 E8.23576
G1 X147.620 Y98.695 E8.25798
G1 X147.620 Y102.427 E8.37498
G1 X148.328 Y102.427 E8.39719
G1 X148.328 Y98.695 E8.51420
G1 X149.037 Y98.695 E8.53641
G1 X149.037 Y102.427 E8.65342
G1 X149.746 Y102.427 E8.67563
G1 X149.746 Y98.695 E8.79264
G1 X150.454 Y98.695 E8.81485
G1 X150.454 Y102.427 E8.93186
G1 X151.163 Y102.427 E8.95407
G1 X151.163 Y98.695 E9.07108
G1 X151.872 Y98.695 E9.09329
G1 X151.872 Y102.427 E9.21030
G1 X152.580 Y102.427 E9.23251
G1 X152.580 Y98.695 E9.34952
G1 X153.289 Y98.695 E9.37173
G1 X153.289 Y102.427 E9.48874
G1 X153.998 Y102.427 E9.51095
G1 X153.998 Y98.695 E9.62796
G1 X154.706 Y98.695 E9.65017
G1 X154.706 Y102.427 E9.76718
G1 X155.415 Y102.427 E9.78939
G1 X155.415 Y98.695 E9.90640
G1 X156.124 Y98.695 E9.92861
G1 X156.124 Y102.427 E10.04561
G1 X156.832 Y102.427 E10.06783
G1 X156.832 Y98.695 E10.18483
G1 X157.541 Y98.695 E10.20705
G1 X157.541 Y102.427 E10.32405
G1 X158.250 Y102.427 E10.34627
G1 X158.250 Y98.695 E10.46327
G1 X158.958 Y98.695 E10.48549
G1 X158.958 Y102.427 E10.60249
G1 X159.667 Y102.427 E10.62471
G1 X159.667 Y98.695 E10.74171
G1 X160.375 Y98.695 E10.76393
G1 X160.375 Y102.427 E10.88093
G1 X161.084 Y102.427 E10.90315
G1 X161.084 Y98.695 E11.02015
G1 X161.793 Y98.695 E11.04237
G1 X161.793 Y102.427 E11.15937
G1 X162.501 Y102.427 E11.18159
G1 X162.501 Y98.695 E11.29859
G1 X163.210 Y98.695 E11.32081
G1 X163.210 Y162.064 E13.30733
G1 X163.919 Y162.064 E13.32955
G1 X163.919 Y98.695 E15.31607
G1 X164.627 Y98.695 E15.33829
G1 X164.627 Y162.064 E17.32481
G1 X165.336 Y162.064 E17.34703
G1 X165.336 Y98.695 E19.33355
G1 X166.045 Y98.695 E19.35577
G1 X166.045 Y162.223 E21.34729
G1 X162.501 Y162.223 F4800.000
G1 F1800.000
G1 X162.501 Y158.231 E21.47243
G1 X161.793 Y158.231 E21.49464
G1 X161.793 Y162.064 E21.61478
G1 X161.084 Y162.064 E21.63700
G1 X161.084 Y158.231 E21.75713
G1 X160.375 Y158.231 E21.77935
G1 X160.375 Y162.064 E21.89949
G1 X159.667 Y162.064 E21.92170
G1 X159.667 Y158.231 E22.04184
G1 X158.958 Y158.231 E22.06406
G1 X158.958 Y162.064 E22.18419
G1 X158.249 Y162.064 E22.20641
G1 X158.249 Y158.231 E22.32655
G1 X157.541 Y158.231 E22.34876
G1 X157.541 Y162.064 E22.46890
G1 X156.832 Y162.064 E22.49112
G1 X156.832 Y158.231 E22.61126
G1 X156.124 Y158.231 E22.63347
G1 X156.124 Y162.064 E22.75361
G1 X155.415 Y162.064 E22.77582
G1 X155.415 Y158.231 E22.89596
G1 X154.706 Y158.231 E22.91818
G1 X154.706 Y162.064 E23.03832
G1 X153.998 Y162.064 E23.06053
G1 X153.998 Y158.231 E23.18067
G1 X153.289 Y158.231 E23.20288
G1 X153.289 Y162.064 E23.32302
G1 X152.580 Y162.064 E23.34524
G1 X152.580 Y158.231 E23.46538
G1 X151.872 Y158.231 E23.48759
G1 X151.872 Y162.064 E23.60773
G1 X151.163 Y162.064 E23.62994
G1 X151.163 Y158.231 E23.75008
G1 X150.454 Y158.231 E23.77230
G1 X150.454 Y162.064 E23.89244
G1 X149.746 Y162.064 E23.91465
G1 X149.746 Y158.231 E24.03479
G1 X149.037 Y158.231 E24.05701
G1 X149.037 Y162.064 E24.17714
G1 X148.328 Y162.064 E24.19936
G1 X148.328 Y158.231 E24.31950
G1 X147.620 Y158.231 E24.34171
G1 X147.620 Y162.064 E24.46185
G1 X146.911 Y162.064 E24.48407
G1 X146.911 Y158.231 E24.60420
G1 X146.202 Y158.231 E24.62642
G1 X146.202 Y162.064 E24.74656
G1 X145.494 Y162.064 E24.76877
G1 X145.494 Y158.231 E24.88891
G1 X144.785 Y158.231 E24.91113
G1 X144.785 Y162.064 E25.03126
G1 X144.076 Y162.064 E25.05348
G1 X144.076 Y158.231 E25.17362
G1 X143.368 Y158.231 E25.19583
G1 X143.368 Y162.064 E25.31597
G1 X142.659 Y162.064 E25.33819
G1 X142.659 Y158.231 E25.45832
G1 X141.950 Y158.231 E25.48054
G1 X141.950 Y162.064 E25.60068
G1 X141.242 Y162.064 E25.62289
G1 X141.242 Y158.072 E25.74803
G1 E18.74803 F2100.000
G92 E0
G1 Z0.513 F4800.000
G1 X138.407 Y162.223
G1 Z0.213
G1 E7.00000 F1800.000
G1 X138.407 Y158.231 E7.12514
G1 X137.744 Y158.231 E7.14591
G1 X137.698 Y158.185 E7.14795
G1 X137.698 Y162.064 E7.26953
G1 X136.990 Y162.064 E7.29175
G1 X136.990 Y101.426 E9.19265
G1 X136.281 Y101.426 E9.21486
G1 X136.281 Y162.064 E11.11577
G1 X135.572 Y162.064 E11.13798
G1 X135.572 Y101.426 E13.03888
G1 X134.864 Y101.426 E13.06110
G1 X134.864 Y162.064 E14.96200
G1 X134.155 Y162.064 E14.98422
G1 X134.155 Y101.426 E16.88512
G1 X133.446 Y101.426 E16.90733
G1 X133.446 Y162.064 E18.80824
G1 X132.738 Y162.064 E18.83045
G1 X132.738 Y101.426 E20.73135
G1 X132.029 Y101.426 E20.75357
G1 X132.029 Y162.064 E22.65447
G1 X131.320 Y162.064 E22.67669
G1 X131.320 Y101.426 E24.57759
G1 X130.612 Y101.426 E24.59980
G1 X130.612 Y162.064 E26.50070
G1 X129.903 Y162.064 E26.52292
G1 X129.903 Y101.426 E28.42382
G1 X129.194 Y101.426 E28.44604
G1 X129.194 Y162.223 E30.35194
G1 E23.35194 F2100.000
G92 E0
G1 Z0.513 F4800.000
G1 X149.746 Y144.608
G1 Z0.213
G1 E7.00000 F1800.000
G1 X149.746 Y145.795 E7.03721
G1 X149.835 Y145.917 E7.04196
G1 X150.001 Y146.055 E7.04871
G1 X150.195 Y146.146 E7.05546
G1 X150.407 Y146.187 E7.06221
G1 X150.454 Y146.184 E7.06370
G1 X150.454 Y144.475 E7.11727
G1 X150.622 Y144.485 E7.12254
G1 X150.827 Y144.552 E7.12929
G1 X151.008 Y144.667 E7.13604
G1 X151.163 Y144.837 E7.14323
G1 X151.163 Y146.060 E7.18156
G1 E0.18156 F2100.000
G92 E0
G1 Z0.513 F4800.000
G1 X151.163 Y116.297
G1 Z0.213
G1 E7.00000 F1800.000
G1 X151.163 Y114.598 E7.05326
G1 X151.001 Y114.503 E7.05915
G1 X150.799 Y114.432 E7.06586
G1 X150.605 Y114.404 E7.07202
G1 X150.454 Y114.409 E7.07674
G1 X150.454 Y116.325 E7.13677
G1 X150.146 Y116.273 E7.14657
G1 X149.993 Y116.207 E7.15179
G1 X149.859 Y116.115 E7.15688
G1 X149.746 Y116.000 E7.16195
G1 X149.746 Y114.561 E7.20705
G1 E0.20705 F2100.000
G92 E0
G1 Z0.513 F4800.000
G1 X150.265 Y142.625
G1 Z0.213
G1 E7.00000 F1800.000
;TYPE:Perimeter
;WIDTH:0.45
G1 X150.961 Y142.660 E7.02492
G1 X151.616 Y142.874 E7.04959
G1 X152.191 Y143.238 E7.07392
G1 X152.656 Y143.734 E7.09826
G1 X152.984 Y144.330 E7.12259
G1 X153.153 Y144.989 E7.14693
G1 X153.153 Y145.669 E7.17126
G1 X152.984 Y146.328 E7.19560
G1 X152.656 Y146.924 E7.21993
G1 X152.191 Y147.420 E7.24427
G1 X151.616 Y147.785 E7.26860
G1 X150.969 Y147.995 E7.29294
G1 X150.290 Y148.038 E7.31728
G1 X149.622 Y147.910 E7.34161
G1 X149.007 Y147.621 E7.36595
G1 X148.482 Y147.187 E7.39028
G1 X148.098 Y146.658 E7.41369
G1 X147.833 Y146.013 E7.43861
G1 X147.747 Y145.329 E7.46327
G1 X147.829 Y144.680 E7.48667
G1 X148.077 Y144.029 E7.51160
G1 X148.482 Y143.471 E7.53626
G1 X149.007 Y143.038 E7.56060
G1 X149.622 Y142.748 E7.58493
G1 X150.206 Y142.637 E7.60619
G1 X150.282 Y143.034 F4800.000
G1 F1800.000
G1 X150.887 Y143.062 E7.62785
G1 X151.443 Y143.242 E7.64877
G1 X151.931 Y143.552 E7.66945
G1 X152.327 Y143.974 E7.69013
G1 X152.605 Y144.480 E7.71082
G1 X152.749 Y145.040 E7.73150
G1 X152.749 Y145.618 E7.75218
G1 X152.605 Y146.178 E7.77286
G1 X152.327 Y146.685 E7.79354
G1 X151.931 Y147.106 E7.81422
G1 X151.443 Y147.416 E7.83490
G1 X150.893 Y147.595 E7.85558
G1 X150.316 Y147.631 E7.87626
G1 X149.748 Y147.523 E7.89694
G1 X149.225 Y147.276 E7.91763
G1 X148.780 Y146.908 E7.93831
G1 X148.454 Y146.459 E7.95815
G1 X148.228 Y145.909 E7.97941
G1 X148.154 Y145.329 E8.00033
G1 X148.224 Y144.779 E8.02017
G1 X148.436 Y144.223 E8.04144
G1 X148.780 Y143.750 E8.06236
G1 X149.225 Y143.382 E8.08304
G1 X149.748 Y143.136 E8.10372
G1 X150.223 Y143.045 E8.12100
G1 X150.299 Y143.442 F4800.000
G1 F1800.000
G1 X150.813 Y143.463 E8.13942
G1 X151.269 Y143.611 E8.15659
G1 X151.671 Y143.866 E8.17361
G1 X151.997 Y144.213 E8.19064
G1 X152.226 Y144.630 E8.20767
G1 X152.345 Y145.091 E8.22469
G1 X152.345 Y145.567 E8.24172
G1 X152.226 Y146.028 E8.25875
G1 X151.997 Y146.445 E8.27577
G1 X151.671 Y146.792 E8.29280
G1 X151.269 Y147.047 E8.30983
G1 X150.817 Y147.194 E8.32685
G1 X150.342 Y147.224 E8.34388
G1 X149.874 Y147.135 E8.36091
G1 X149.443 Y146.932 E8.37793
G1 X149.077 Y146.629 E8.39496
G1 X148.809 Y146.261 E8.41124
G1 X148.622 Y145.805 E8.42885
G1 X148.562 Y145.329 E8.44602
G1 X148.619 Y144.878 E8.46230
G1 X148.795 Y144.418 E8.47991
G1 X149.077 Y144.029 E8.49708
G1 X149.443 Y143.726 E8.51411
G1 X149.874 Y143.523 E8.53114
G1 X150.240 Y143.454 E8.54445
G1 X150.739 Y143.864 F4800.000
;TYPE:External perimeter
G1 F1800.000
G1 X151.096 Y143.980 E8.55787
G1 X151.411 Y144.180 E8.57124
G1 X151.667 Y144.453 E8.58462
G1 X151.847 Y144.780 E8.59799
G1 X151.940 Y145.142 E8.61136
G1 X151.940 Y145.516 E8.62473
G1 X151.847 Y145.878 E8.63810
G1 X151.667 Y146.206 E8.65148
G1 X151.411 Y146.478 E8.66485
G1 X151.096 Y146.679 E8.67822
G1 X150.740 Y146.794 E8.69159
G1 X150.367 Y146.817 E8.70496
G1 X150.000 Y146.747 E8.71834
G1 X149.662 Y146.588 E8.73171
G1 X149.374 Y146.350 E8.74508
G1 X149.165 Y146.062 E8.75780
G1 X149.017 Y145.701 E8.77176
G1 X148.970 Y145.329 E8.78518
G1 X149.014 Y144.976 E8.79790
G1 X149.153 Y144.612 E8.81186
G1 X149.374 Y144.308 E8.82528
G1 X149.662 Y144.070 E8.83865
G1 X150.000 Y143.911 E8.85202
G1 X150.349 Y143.844 E8.86474
G1 X150.679 Y143.861 E8.87655
G1 X150.984 Y143.580 F4800.000
G1 E1.87655 F2100.000
G92 E0
G1 Z0.513 F4800.000
G1 X150.414 Y118.180
G1 Z0.213
G1 E7.00000 F1800.000
;TYPE:Perimeter
G1 X149.634 Y118.052 E7.02827
G1 X149.113 Y117.832 E7.04850
G1 X148.682 Y117.540 E7.06714
G1 X148.318 Y117.173 E7.08562
G1 X148.029 Y116.745 E7.10410
G1 X147.828 Y116.269 E7.12258
G1 X147.720 Y115.764 E7.14106
G1 X147.710 Y115.263 E7.15899
G1 X147.776 Y114.825 E7.17483
G1 X147.897 Y114.369 E7.19172
G1 X148.143 Y113.874 E7.21148
G1 X148.439 Y113.484 E7.22899
G1 X148.775 Y113.173 E7.24539
G1 X149.196 Y112.894 E7.26344
G1 X149.681 Y112.690 E7.28226
G1 X150.201 Y112.577 E7.30129
G1 X150.739 Y112.562 E7.32054
G1 X151.271 Y112.647 E7.33980
G1 X151.779 Y112.825 E7.35907
G1 X152.325 Y113.154 E7.38187
G1 X152.728 Y113.572 E7.40266
G1 X153.026 Y114.011 E7.42164
G1 X153.261 Y114.561 E7.44303
G1 X153.350 Y115.161 E7.46473
G1 X153.323 Y115.747 E7.48572
G1 X153.194 Y116.268 E7.50489
G1 X152.986 Y116.730 E7.52303
G1 X152.692 Y117.161 E7.54169
G1 X152.322 Y117.532 E7.56043
G1 X151.896 Y117.826 E7.57895
G1 X151.428 Y118.034 E7.59726
G1 X150.936 Y118.152 E7.61536
G1 X150.474 Y118.176 E7.63192
G1 X150.453 Y117.773 F4800.000
G1 F1800.000
G1 X149.747 Y117.661 E7.65749
G1 X149.307 Y117.476 E7.67456
G1 X148.941 Y117.227 E7.69038
G1 X148.632 Y116.916 E7.70609
G1 X148.387 Y116.551 E7.72180
G1 X148.215 Y116.147 E7.73751
G1 X148.123 Y115.718 E7.75322
G1 X148.115 Y115.290 E7.76853
G1 X148.173 Y114.907 E7.78236
G1 X148.278 Y114.512 E7.79701
G1 X148.488 Y114.088 E7.81393
G1 X148.739 Y113.757 E7.82880
G1 X149.026 Y113.492 E7.84275
G1 X149.388 Y113.252 E7.85828
G1 X149.803 Y113.077 E7.87442
G1 X150.250 Y112.980 E7.89076
G1 X150.712 Y112.968 E7.90731
G1 X151.171 Y113.041 E7.92393
G1 X151.606 Y113.193 E7.94041
G1 X152.071 Y113.473 E7.95982
G1 X152.413 Y113.828 E7.97747
G1 X152.670 Y114.206 E7.99381
G1 X152.869 Y114.672 E8.01193
G1 X152.944 Y115.182 E8.03037
G1 X152.921 Y115.689 E8.04854
G1 X152.810 Y116.135 E8.06497
G1 X152.632 Y116.532 E8.08053
G1 X152.379 Y116.902 E8.09658
G1 X152.062 Y117.221 E8.11264
G1 X151.697 Y117.472 E8.12849
G1 X151.298 Y117.650 E8.14413
G1 X150.878 Y117.750 E8.15957
