; generated by PrusaSlicer 2.3.0+win64 on 2021-03-24 at 15:09:18 UTC

; 

; external perimeters extrusion width = 0.45mm
; perimeters extrusion width = 0.45mm
; infill extrusion width = 0.38mm
; solid infill extrusion width = 0.45mm
; top infill extrusion width = 0.40mm

M201 X9000 Y9000 Z500 E10000 ; sets maximum accelerations, mm/sec^2
M203 X500 Y500 Z12 E120 ; sets maximum feedrates, mm/sec
M204 P1500 R1500 T1500 ; sets acceleration (P, T) and retract acceleration (R), mm/sec^2
M205 X10.00 Y10.00 Z0.20 E2.50 ; sets the jerk limits, mm/sec
M205 S0 T0 ; sets the minimum extruding and travel feed rate, mm/sec
M107
;TYPE:Custom
M117 Preheating... 
M104 S205  ; pre heat nozzle to ...
M140 S60; start warming the bed to ...
;----------------------------------------
M117 Homing;
G28; Home all 3 axis
;----------------------------------------
M117 Auto leveling ;If you dont have a Sensor it will automatically skip this step
G29; run auto level
;----------------------------------------
M117 Parking Nozzle
G1 X250 Y15 F3000
G1 Z0 F300; Close Nozzle
;----------------------------------------
M117 Continuing Heating
M190 S60; set bed temp and wait for it to come up
M109 S205 ; set hot end temp to first layer temp
;----------------------------------------
M117 Priming;
G92 E0 
G1 F300 E-0.5
G0 X220 Y15 Z0.2 F5000
G1 F400 E8
G1 X80 E25 F800
G4 P500 ; Pause 
;----------------------------------------
M117 Printing...
G21 ; set units to millimeters
G90 ; use absolute coordinates
M82 ; use absolute distances for extrusion
G92 E0
; Filament gcode
;LAYER_CHANGE
;Z:0.2128
;HEIGHT:0.2128
G1 Z0.213 F4800.000
G1 E-7.00000 F2100.000
G92 E0
G1 Z0.513 F4800.000
G1 X63.590 Y86.770
G1 Z0.213
G1 E7.00000 F1800.000
;TYPE:Skirt
;WIDTH:0.45
G1 X64.735 Y86.000 E7.04935
G1 X66.684 Y84.951 E7.12854
G1 X68.691 Y84.162 E7.20565
G1 X116.402 Y69.020 E8.99626
G1 X117.302 Y68.827 E9.02921
G1 X118.214 Y68.757 E9.06193
G1 X170.964 Y68.310 E10.94897
G1 X190.460 Y68.309 E11.64639
G1 X191.767 Y68.437 E11.69336
G1 X193.019 Y68.811 E11.74010
G1 X194.182 Y69.421 E11.78707
G1 X195.202 Y70.238 E11.83381
G1 X196.050 Y71.240 E11.88078
G1 X196.691 Y72.386 E11.92775
G1 X197.097 Y73.628 E11.97449
G1 X197.260 Y74.931 E12.02146
G1 X197.241 Y130.657 E14.01490
G1 X197.081 Y131.681 E14.05200
G1 X196.769 Y132.664 E14.08886
G1 X196.312 Y133.587 E14.12572
G1 X195.722 Y134.432 E14.16258
G1 X195.011 Y135.177 E14.19944
G1 X194.195 Y135.807 E14.23630
G1 X193.294 Y136.306 E14.27316
G1 X192.327 Y136.664 E14.31002
G1 X191.439 Y136.855 E14.34252
G1 X190.540 Y136.926 E14.37478
G1 X137.773 Y137.374 E16.26245
G1 X118.225 Y137.374 E16.96171
G1 X116.799 Y137.212 E17.01304
G1 X115.867 Y136.934 E17.04783
G1 X67.965 Y118.718 E18.88110
G1 X66.058 Y117.880 E18.95563
G1 X64.306 Y116.860 E19.02814
G1 X63.015 Y115.929 E19.08509
G1 X61.498 Y114.585 E19.15760
G1 X60.364 Y113.356 E19.21743
G1 X59.147 Y111.738 E19.28982
G1 X58.111 Y109.981 E19.36279
G1 X57.417 Y108.477 E19.42205
G1 X56.757 Y106.560 E19.49456
G1 X56.416 Y105.144 E19.54668
G1 X56.190 Y103.724 E19.59810
G1 X56.077 Y102.285 E19.64976
G1 X56.078 Y100.834 E19.70164
G1 X56.191 Y99.407 E19.75284
G1 X56.419 Y97.975 E19.80472
G1 X56.758 Y96.571 E19.85638
G1 X57.234 Y95.126 E19.91080
G1 X57.764 Y93.860 E19.95992
G1 X58.464 Y92.505 E20.01445
G1 X59.482 Y90.915 E20.08201
G1 X60.368 Y89.774 E20.13367
G1 X61.404 Y88.643 E20.18855
G1 X62.453 Y87.670 E20.23974
G1 X63.543 Y86.807 E20.28948
G1 X63.794 Y87.124 F4800.000
G1 F1800.000
G1 X64.973 Y86.328 E20.34037
G1 X66.864 Y85.313 E20.41712
G1 X68.820 Y84.545 E20.49231
G1 X116.530 Y69.404 E22.28289
G1 X117.368 Y69.226 E22.31351
G1 X118.215 Y69.162 E22.34390
G1 X170.967 Y68.714 E24.23104
G1 X190.460 Y68.714 E24.92834
G1 X191.684 Y68.833 E24.97233
G1 X192.869 Y69.186 E25.01654
G1 X193.963 Y69.761 E25.06076
G1 X194.927 Y70.535 E25.10497
G1 X195.724 Y71.479 E25.14919
G1 X196.325 Y72.559 E25.19340
G1 X196.707 Y73.735 E25.23762
G1 X196.856 Y74.955 E25.28161
G1 X196.840 Y130.603 E27.27225
G1 X196.692 Y131.566 E27.30710
G1 X196.400 Y132.496 E27.34196
G1 X195.971 Y133.371 E27.37682
G1 X195.414 Y134.170 E27.41167
G1 X194.742 Y134.875 E27.44653
G1 X193.965 Y135.474 E27.48161
G1 X193.112 Y135.945 E27.51646
G1 X192.197 Y136.281 E27.55132
G1 X191.372 Y136.456 E27.58149
G1 X190.538 Y136.522 E27.61144
G1 X137.769 Y136.970 E29.49914
G1 X118.226 Y136.970 E30.19823
G1 X116.893 Y136.819 E30.24622
G1 X116.007 Y136.555 E30.27930
G1 X68.109 Y118.341 E32.11242
G1 X66.249 Y117.524 E32.18508
G1 X64.530 Y116.523 E32.25625
G1 X63.268 Y115.613 E32.31190
G1 X61.778 Y114.294 E32.38307
G1 X60.676 Y113.099 E32.44123
G1 X59.481 Y111.510 E32.51234
G1 X58.468 Y109.791 E32.58373
G1 X57.790 Y108.321 E32.64162
G1 X57.141 Y106.434 E32.71301
G1 X56.811 Y105.061 E32.76352
G1 X56.591 Y103.673 E32.81381
G1 X56.481 Y102.265 E32.86433
G1 X56.482 Y100.847 E32.91506
G1 X56.592 Y99.458 E32.96491
G1 X56.816 Y98.051 E33.01587
G1 X57.146 Y96.684 E33.06616
G1 X57.616 Y95.260 E33.11980
G1 X58.166 Y93.958 E33.17036
G1 X59.041 Y92.320 E33.23678
G1 X59.861 Y91.080 E33.28998
G1 X60.684 Y90.026 E33.33781
G1 X61.693 Y88.925 E33.39123
G1 X62.719 Y87.974 E33.44129
G1 X63.747 Y87.161 E33.48816
G1 E26.48816 F2100.000
G92 E0
G1 Z0.513 F4800.000
G1 X72.581 Y99.103
G1 Z0.213
G1 E7.00000 F1800.000
;TYPE:Perimeter
G1 X73.133 Y98.785 E7.02278
G1 X73.738 Y98.588 E7.04553
G1 X74.325 Y98.526 E7.06665
G1 X74.724 Y98.546 E7.08097
G1 X75.313 Y98.671 E7.10248
G1 X75.894 Y98.930 E7.12526
G1 X76.410 Y99.304 E7.14804
G1 X76.836 Y99.777 E7.17082
G1 X77.154 Y100.329 E7.19360
G1 X77.351 Y100.934 E7.21638
G1 X77.417 Y101.567 E7.23916
G1 X77.351 Y102.201 E7.26194
G1 X77.154 Y102.806 E7.28471
G1 X76.836 Y103.358 E7.30749
G1 X76.435 Y103.803 E7.32891
G1 X76.129 Y104.051 E7.34300
G1 X75.610 Y104.350 E7.36442
G1 X75.005 Y104.547 E7.38720
G1 X74.371 Y104.613 E7.40998
G1 X73.738 Y104.547 E7.43276
G1 X73.133 Y104.350 E7.45551
G1 X72.622 Y104.056 E7.47663
G1 X72.310 Y103.805 E7.49095
G1 X71.907 Y103.358 E7.51246
G1 X71.589 Y102.806 E7.53524
G1 X71.392 Y102.201 E7.55802
G1 X71.326 Y101.567 E7.58080
G1 X71.392 Y100.934 E7.60358
G1 X71.577 Y100.365 E7.62500
G1 X71.756 Y100.014 E7.63909
G1 X72.108 Y99.529 E7.66051
G1 X72.537 Y99.143 E7.68114
G1 X72.807 Y99.444 F4800.000
G1 F1800.000
G1 X73.298 Y99.156 E7.70149
G1 X73.822 Y98.986 E7.72121
G1 X74.336 Y98.931 E7.73969
G1 X74.672 Y98.948 E7.75173
G1 X75.187 Y99.057 E7.77056
G1 X75.691 Y99.282 E7.79030
G1 X76.138 Y99.606 E7.81004
G1 X76.507 Y100.016 E7.82978
G1 X76.783 Y100.494 E7.84951
G1 X76.953 Y101.019 E7.86925
G1 X77.011 Y101.567 E7.88899
G1 X76.953 Y102.116 E7.90873
G1 X76.783 Y102.641 E7.92847
G1 X76.507 Y103.119 E7.94821
G1 X76.156 Y103.509 E7.96697
G1 X75.899 Y103.716 E7.97878
G1 X75.445 Y103.979 E7.99754
G1 X74.920 Y104.149 E8.01728
G1 X74.371 Y104.207 E8.03702
G1 X73.823 Y104.149 E8.05675
G1 X73.298 Y103.979 E8.07648
G1 X72.851 Y103.721 E8.09496
G1 X72.588 Y103.510 E8.10700
G1 X72.236 Y103.119 E8.12583
G1 X71.960 Y102.641 E8.14557
G1 X71.790 Y102.116 E8.16530
G1 X71.732 Y101.567 E8.18504
G1 X71.790 Y101.019 E8.20478
G1 X71.952 Y100.520 E8.22354
G1 X72.102 Y100.226 E8.23535
G1 X72.410 Y99.801 E8.25412
G1 X72.762 Y99.484 E8.27108
G1 X73.033 Y99.785 F4800.000
G1 F1800.000
G1 X73.463 Y99.528 E8.28901
G1 X73.907 Y99.384 E8.30569
G1 X74.348 Y99.337 E8.32154
G1 X74.620 Y99.350 E8.33130
G1 X75.061 Y99.444 E8.34744
G1 X75.488 Y99.634 E8.36414
G1 X75.865 Y99.908 E8.38084
G1 X76.178 Y100.255 E8.39754
G1 X76.411 Y100.659 E8.41423
G1 X76.555 Y101.103 E8.43093
G1 X76.604 Y101.567 E8.44763
G1 X76.555 Y102.032 E8.46433
G1 X76.411 Y102.476 E8.48103
G1 X76.178 Y102.880 E8.49772
G1 X75.877 Y103.214 E8.51383
G1 X75.669 Y103.382 E8.52336
G1 X75.280 Y103.607 E8.53946
G1 X74.836 Y103.751 E8.55616
G1 X74.371 Y103.800 E8.57286
G1 X73.907 Y103.751 E8.58956
G1 X73.464 Y103.607 E8.60625
G1 X73.080 Y103.386 E8.62210
G1 X72.867 Y103.215 E8.63185
G1 X72.565 Y102.880 E8.64800
G1 X72.332 Y102.476 E8.66469
G1 X72.187 Y102.032 E8.68139
G1 X72.139 Y101.567 E8.69809
G1 X72.187 Y101.103 E8.71479
G1 X72.327 Y100.675 E8.73089
G1 X72.448 Y100.438 E8.74043
G1 X72.712 Y100.073 E8.75653
G1 X72.988 Y99.825 E8.76983
G1 X73.298 Y100.090 F4800.000
;TYPE:External perimeter
G1 F1800.000
G1 X73.629 Y99.899 E8.78349
G1 X73.992 Y99.781 E8.79714
G1 X74.359 Y99.742 E8.81036
G1 X74.568 Y99.752 E8.81783
G1 X74.936 Y99.831 E8.83129
G1 X75.285 Y99.986 E8.84495
G1 X75.593 Y100.210 E8.85860
G1 X75.849 Y100.494 E8.87226
G1 X76.040 Y100.825 E8.88592
G1 X76.158 Y101.188 E8.89958
G1 X76.198 Y101.567 E8.91323
G1 X76.158 Y101.947 E8.92689
G1 X76.040 Y102.310 E8.94055
G1 X75.849 Y102.641 E8.95421
G1 X75.597 Y102.920 E8.96765
G1 X75.440 Y103.048 E8.97491
G1 X75.114 Y103.236 E8.98835
G1 X74.751 Y103.354 E9.00201
G1 X74.371 Y103.394 E9.01567
G1 X73.992 Y103.354 E9.02933
G1 X73.629 Y103.236 E9.04298
G1 X73.309 Y103.051 E9.05620
G1 X73.146 Y102.921 E9.06367
G1 X72.894 Y102.641 E9.07713
G1 X72.703 Y102.310 E9.09079
G1 X72.585 Y101.947 E9.10444
G1 X72.545 Y101.567 E9.11810
G1 X72.585 Y101.188 E9.13176
G1 X72.701 Y100.830 E9.14520
G1 X72.793 Y100.650 E9.15246
G1 X73.014 Y100.345 E9.16591
G1 X73.253 Y100.130 E9.17742
G1 X73.258 Y99.710 F4800.000
G1 E2.17742 F2100.000
G92 E0
G1 Z0.513 F4800.000
G1 X68.414 Y93.469
G1 Z0.213
G1 E7.00000 F1800.000
;TYPE:Perimeter
G1 X68.781 Y93.203 E7.01624
G1 X69.469 Y92.782 E7.04506
G1 X70.172 Y92.424 E7.07328
G1 X70.508 Y92.277 E7.08641
G1 X71.262 Y91.999 E7.11517
G1 X72.036 Y91.781 E7.14394
G1 X72.395 Y91.702 E7.15706
G1 X73.203 Y91.574 E7.18633
G1 X73.567 Y91.538 E7.19943
G1 X74.386 Y91.507 E7.22876
G1 X75.175 Y91.538 E7.25698
G1 X75.540 Y91.574 E7.27011
G1 X76.348 Y91.702 E7.29938
G1 X76.707 Y91.781 E7.31250
G1 X77.480 Y91.999 E7.34127
G1 X78.235 Y92.277 E7.37003
G1 X78.571 Y92.424 E7.38315
G1 X79.287 Y92.789 E7.41192
G1 X79.960 Y93.202 E7.44015
G1 X80.612 Y93.676 E7.46897
G1 X81.211 Y94.189 E7.49719
G1 X81.485 Y94.452 E7.51079
G1 X81.760 Y94.738 E7.52499
G1 X82.272 Y95.339 E7.55321
G1 X82.736 Y95.977 E7.58145
G1 X83.157 Y96.665 E7.61028
G1 X83.515 Y97.368 E7.63849
G1 X83.662 Y97.704 E7.65163
G1 X83.940 Y98.458 E7.68039
G1 X84.158 Y99.232 E7.70916
G1 X84.237 Y99.590 E7.72225
G1 X84.364 Y100.400 E7.75158
G1 X84.426 Y101.186 E7.77980
G1 X84.433 Y101.553 E7.79293
G1 X84.401 Y102.370 E7.82217
G1 X84.363 Y102.751 E7.83585
G1 X84.237 Y103.544 E7.86458
G1 X84.158 Y103.903 E7.87772
G1 X83.940 Y104.676 E7.90648
G1 X83.662 Y105.430 E7.93521
G1 X83.508 Y105.780 E7.94890
G1 X83.150 Y106.483 E7.97712
G1 X82.730 Y107.168 E8.00586
G1 X82.511 Y107.482 E8.01955
G1 X82.022 Y108.101 E8.04778
G1 X81.486 Y108.682 E8.07604
G1 X80.895 Y109.227 E8.10481
G1 X80.612 Y109.460 E8.11793
G1 X79.962 Y109.932 E8.14667
G1 X79.274 Y110.353 E8.17549
G1 X78.571 Y110.711 E8.20371
G1 X78.222 Y110.863 E8.21735
G1 X77.867 Y111.002 E8.23098
G1 X77.102 Y111.251 E8.25974
G1 X76.335 Y111.435 E8.28797
G1 X75.539 Y111.560 E8.31680
G1 X74.753 Y111.622 E8.34501
G1 X74.386 Y111.629 E8.35815
G1 X73.569 Y111.597 E8.38738
G1 X73.188 Y111.559 E8.40107
G1 X72.410 Y111.435 E8.42927
G1 X71.626 Y111.246 E8.45810
G1 X70.876 Y111.002 E8.48632
G1 X70.522 Y110.864 E8.49992
G1 X70.159 Y110.704 E8.51411
G1 X69.456 Y110.346 E8.54234
G1 X68.783 Y109.933 E8.57058
G1 X68.131 Y109.459 E8.59940
G1 X67.532 Y108.946 E8.62762
G1 X67.267 Y108.692 E8.64075
G1 X66.712 Y108.091 E8.67002
G1 X66.479 Y107.808 E8.68315
G1 X66.007 Y107.158 E8.71188
G1 X65.586 Y106.470 E8.74071
G1 X65.228 Y105.767 E8.76892
G1 X65.081 Y105.431 E8.78206
G1 X64.803 Y104.676 E8.81082
G1 X64.585 Y103.903 E8.83959
G1 X64.506 Y103.545 E8.85268
G1 X64.379 Y102.735 E8.88201
G1 X64.317 Y101.949 E8.91023
G1 X64.310 Y101.567 E8.92387
G1 X64.317 Y101.187 E8.93749
G1 X64.380 Y100.385 E8.96626
G1 X64.506 Y99.591 E8.99502
G1 X64.585 Y99.232 E9.00815
G1 X64.803 Y98.458 E9.03691
G1 X65.076 Y97.717 E9.06517
G1 X65.413 Y96.987 E9.09394
G1 X65.586 Y96.664 E9.10706
G1 X66.006 Y95.978 E9.13582
G1 X66.470 Y95.339 E9.16408
G1 X66.993 Y94.727 E9.19285
G1 X67.542 Y94.179 E9.22063
G1 X68.143 Y93.667 E9.24885
G1 X68.366 Y93.505 E9.25871
G1 X68.128 Y93.178 F4800.000
G1 F1800.000
G1 X68.557 Y92.866 E9.27767
G1 X69.271 Y92.429 E9.30763
G1 X69.999 Y92.059 E9.33684
G1 X70.357 Y91.902 E9.35082
G1 X71.137 Y91.614 E9.38058
G1 X71.938 Y91.388 E9.41034
G1 X72.320 Y91.305 E9.42431
G1 X73.151 Y91.173 E9.45443
G1 X73.540 Y91.135 E9.46839
G1 X74.387 Y91.102 E9.49872
G1 X75.203 Y91.135 E9.52792
G1 X75.592 Y91.173 E9.54190
G1 X76.423 Y91.305 E9.57202
G1 X76.805 Y91.388 E9.58600
G1 X77.605 Y91.614 E9.61576
G1 X78.386 Y91.902 E9.64552
G1 X78.744 Y92.059 E9.65949
G1 X79.485 Y92.436 E9.68925
G1 X80.185 Y92.865 E9.71863
G1 X80.862 Y93.358 E9.74859
G1 X81.483 Y93.889 E9.77780
G1 X81.772 Y94.166 E9.79212
G1 X82.060 Y94.467 E9.80702
G1 X82.590 Y95.088 E9.83623
G1 X83.073 Y95.753 E9.86561
G1 X83.510 Y96.467 E9.89558
G1 X83.880 Y97.195 E9.92478
G1 X84.037 Y97.553 E9.93876
G1 X84.325 Y98.333 E9.96852
G1 X84.551 Y99.134 E9.99828
G1 X84.634 Y99.515 E10.01224
G1 X84.766 Y100.353 E10.04256
G1 X84.830 Y101.167 E10.07177
G1 X84.837 Y101.557 E10.08575
G1 X84.804 Y102.398 E10.11585
G1 X84.764 Y102.803 E10.13039
G1 X84.634 Y103.619 E10.15996
G1 X84.551 Y104.001 E10.17394
G1 X84.325 Y104.802 E10.20370
G1 X84.037 Y105.581 E10.23344
G1 X83.874 Y105.954 E10.24798
G1 X83.503 Y106.681 E10.27719
G1 X83.068 Y107.390 E10.30693
G1 X82.835 Y107.723 E10.32147
G1 X82.330 Y108.364 E10.35068
G1 X81.772 Y108.968 E10.38008
G1 X81.161 Y109.532 E10.40984
G1 X80.859 Y109.780 E10.42382
G1 X80.186 Y110.269 E10.45356
G1 X79.472 Y110.706 E10.48352
G1 X78.744 Y111.076 E10.51273
G1 X78.377 Y111.237 E10.52707
G1 X78.003 Y111.383 E10.54141
G1 X77.212 Y111.640 E10.57117
G1 X76.414 Y111.832 E10.60055
G1 X75.586 Y111.962 E10.63051
G1 X74.772 Y112.026 E10.65971
G1 X74.382 Y112.033 E10.67369
G1 X73.541 Y112.000 E10.70379
G1 X73.136 Y111.960 E10.71833
G1 X72.330 Y111.832 E10.74752
G1 X71.516 Y111.636 E10.77749
G1 X70.740 Y111.383 E10.80670
G1 X70.367 Y111.237 E10.82102
G1 X69.985 Y111.070 E10.83592
G1 X69.258 Y110.699 E10.86513
G1 X68.558 Y110.270 E10.89452
G1 X67.880 Y109.777 E10.92448
G1 X67.260 Y109.246 E10.95368
G1 X66.978 Y108.975 E10.96766
G1 X66.407 Y108.357 E10.99779
G1 X66.159 Y108.055 E11.01176
G1 X65.670 Y107.382 E11.04150
G1 X65.233 Y106.668 E11.07146
G1 X64.863 Y105.940 E11.10067
G1 X64.706 Y105.582 E11.11465
G1 X64.418 Y104.802 E11.14441
G1 X64.192 Y104.001 E11.17417
G1 X64.109 Y103.620 E11.18812
G1 X63.977 Y102.782 E11.21845
G1 X63.913 Y101.968 E11.24765
G1 X63.905 Y101.567 E11.26200
G1 X63.913 Y101.167 E11.27634
G1 X63.978 Y100.337 E11.30610
G1 X64.109 Y99.516 E11.33586
G1 X64.192 Y99.134 E11.34983
G1 X64.418 Y98.333 E11.37959
G1 X64.703 Y97.562 E11.40899
G1 X65.051 Y96.807 E11.43875
G1 X65.235 Y96.462 E11.45272
G1 X65.670 Y95.753 E11.48248
G1 X66.153 Y95.088 E11.51188
G1 X66.693 Y94.456 E11.54163
G1 X67.271 Y93.879 E11.57085
G1 X67.892 Y93.349 E11.60006
G1 X68.079 Y93.213 E11.60833
G1 X67.842 Y92.886 F4800.000
G1 F1800.000
G1 X68.332 Y92.529 E11.63002
G1 X69.074 Y92.076 E11.66112
G1 X69.826 Y91.693 E11.69131
G1 X70.206 Y91.527 E11.70614
G1 X71.012 Y91.229 E11.73689
G1 X71.840 Y90.996 E11.76765
G1 X72.245 Y90.907 E11.78247
G1 X73.100 Y90.772 E11.81345
G1 X73.512 Y90.731 E11.82827
G1 X74.387 Y90.698 E11.85959
G1 X75.230 Y90.731 E11.88978
G1 X75.643 Y90.772 E11.90461
G1 X76.498 Y90.907 E11.93559
G1 X76.903 Y90.996 E11.95041
G1 X77.731 Y91.229 E11.98117
G1 X78.537 Y91.527 E12.01192
G1 X78.917 Y91.693 E12.02675
G1 X79.683 Y92.083 E12.05750
G1 X80.410 Y92.529 E12.08802
G1 X81.113 Y93.041 E12.11912
G1 X81.755 Y93.589 E12.14931
G1 X82.058 Y93.881 E12.16435
G1 X82.360 Y94.196 E12.17997
G1 X82.908 Y94.838 E12.21016
G1 X83.410 Y95.528 E12.24069
G1 X83.863 Y96.270 E12.27179
G1 X84.246 Y97.022 E12.30198
G1 X84.412 Y97.402 E12.31681
G1 X84.710 Y98.208 E12.34757
G1 X84.943 Y99.036 E12.37832
G1 X85.032 Y99.440 E12.39314
G1 X85.168 Y100.305 E12.42446
G1 X85.234 Y101.147 E12.45465
G1 X85.242 Y101.561 E12.46948
G1 X85.208 Y102.426 E12.50044
G1 X85.165 Y102.854 E12.51584
G1 X85.032 Y103.694 E12.54625
G1 X84.943 Y104.099 E12.56109
G1 X84.710 Y104.927 E12.59184
