; generated by PrusaSlicer 2.3.0+win64 on 2021-03-24 at 20:18:51 UTC

; 

; external perimeters extrusion width = 0.45mm
; perimeters extrusion width = 0.45mm
; infill extrusion width = 0.38mm
; solid infill extrusion width = 0.45mm
; top infill extrusion width = 0.40mm
; support material extrusion width = 0.40mm

M201 X9000 Y9000 Z500 E10000 ; sets maximum accelerations, mm/sec^2
M203 X500 Y500 Z12 E120 ; sets maximum feedrates, mm/sec
M204 P1500 R1500 T1500 ; sets acceleration (P, T) and retract acceleration (R), mm/sec^2
M205 X10.00 Y10.00 Z0.20 E2.50 ; sets the jerk limits, mm/sec
M205 S0 T0 ; sets the minimum extruding and travel feed rate, mm/sec
M107
;TYPE:Custom
M117 Preheating... 
M104 S205  ; pre heat nozzle to ...
M140 S60; start warming the bed to ...
;----------------------------------------
M117 Homing;
G28; Home all 3 axis
;----------------------------------------
M117 Auto leveling ;If you dont have a Sensor it will automatically skip this step
G29; run auto level
;----------------------------------------
M117 Parking Nozzle
G1 X250 Y15 F3000
G1 Z0 F300; Close Nozzle
;----------------------------------------
M117 Continuing Heating
M190 S60; set bed temp and wait for it to come up
M109 S205 ; set hot end temp to first layer temp
;----------------------------------------
M117 Priming;
G92 E0 
G1 F300 E-0.5
G0 X220 Y15 Z0.2 F5000
G1 F400 E8
G1 X80 E25 F800
G4 P500 ; Pause 
;----------------------------------------
M117 Printing...
G21 ; set units to millimeters
G90 ; use absolute coordinates
M82 ; use absolute distances for extrusion
G92 E0
; Filament gcode
;LAYER_CHANGE
;Z:0.266
;HEIGHT:0.266
G1 Z0.266 F4800.000
G1 E-7.00000 F2100.000
G92 E0
G1 Z0.566 F4800.000
G1 X33.868 Y64.082
G1 Z0.266
G1 E7.00000 F1800.000
;TYPE:Skirt
;WIDTH:0.45
G1 X34.855 Y63.730 E7.04554
G1 X38.932 Y62.961 E7.22579
G1 X136.649 Y56.372 E11.48150
G1 X214.964 Y56.365 E14.88450
G1 X216.244 Y56.488 E14.94034
G1 X217.483 Y56.852 E14.99647
G1 X218.625 Y57.441 E15.05231
G1 X219.636 Y58.235 E15.10816
G1 X220.483 Y59.211 E15.16428
G1 X221.126 Y60.323 E15.22012
G1 X221.549 Y61.537 E15.27597
G1 X221.735 Y62.808 E15.33182
G1 X221.742 Y71.247 E15.69851
G1 X219.787 Y142.878 E18.81220
G1 X219.716 Y143.989 E18.86056
G1 X219.457 Y145.462 E18.92556
G1 X219.019 Y146.880 E18.99005
G1 X218.283 Y148.457 E19.06566
G1 X217.545 Y149.609 E19.12513
G1 X216.490 Y150.869 E19.19655
G1 X189.239 Y178.125 E20.87129
G1 X188.439 Y178.850 E20.91820
G1 X187.490 Y179.555 E20.96957
G1 X186.099 Y180.355 E21.03932
G1 X184.891 Y180.865 E21.09628
G1 X183.238 Y181.320 E21.17077
G1 X181.921 Y181.508 E21.22857
G1 X81.034 Y189.643 E25.62658
G1 X66.349 Y189.486 E26.26475
G1 X64.933 Y189.228 E26.32727
G1 X60.409 Y187.736 E26.53429
G1 X59.359 Y187.248 E26.58456
G1 X58.413 Y186.594 E26.63456
G1 X53.729 Y181.995 E26.91978
G1 X42.021 Y169.729 E27.65660
G1 X41.264 Y168.763 E27.70994
G1 X33.100 Y152.175 E28.51330
G1 X32.427 Y150.291 E28.60023
G1 X32.078 Y148.260 E28.68978
G1 X29.849 Y83.427 E31.50862
G1 X29.846 Y70.209 E32.08297
G1 X29.907 Y69.375 E32.11930
G1 X30.069 Y68.555 E32.15564
G1 X30.331 Y67.761 E32.19197
G1 X30.688 Y67.005 E32.22830
G1 X31.136 Y66.299 E32.26463
G1 X31.667 Y65.653 E32.30096
G1 X32.274 Y65.078 E32.33729
G1 X32.947 Y64.581 E32.37362
G1 X33.815 Y64.111 E32.41655
G1 E25.41655 F2100.000
G92 E0
G1 Z0.566 F4800.000
G1 X31.960 Y65.915
G1 Z0.266
G1 E7.00000 F1800.000
G1 X33.170 Y64.905 E7.06850
G1 X34.043 Y64.434 E7.11161
G1 X34.979 Y64.104 E7.15472
G1 X38.966 Y63.353 E7.33101
G1 X136.671 Y56.764 E11.58619
G1 X214.964 Y56.758 E14.98822
G1 X216.175 Y56.875 E15.04107
G1 X217.341 Y57.219 E15.09392
G1 X218.422 Y57.778 E15.14677
G1 X219.377 Y58.531 E15.19962
G1 X220.168 Y59.446 E15.25219
G1 X220.775 Y60.500 E15.30504
G1 X221.172 Y61.650 E15.35789
G1 X221.344 Y62.854 E15.41074
G1 X221.349 Y71.236 E15.77497
G1 X219.394 Y142.867 E18.88868
G1 X219.325 Y143.942 E18.93550
G1 X219.069 Y145.395 E18.99959
G1 X218.649 Y146.749 E19.06120
G1 X217.933 Y148.277 E19.13450
G1 X217.225 Y149.381 E19.19151
G1 X216.197 Y150.607 E19.26102
G1 X188.966 Y177.842 E20.93452
G1 X188.192 Y178.544 E20.97997
G1 X187.263 Y179.233 E21.03020
G1 X185.920 Y180.006 E21.09754
G1 X184.756 Y180.495 E21.15238
G1 X183.154 Y180.936 E21.22460
G1 X181.886 Y181.117 E21.28025
G1 X81.005 Y189.251 E25.67800
G1 X66.378 Y189.094 E26.31362
G1 X65.035 Y188.849 E26.37295
G1 X60.549 Y187.369 E26.57819
G1 X59.553 Y186.907 E26.62590
G1 X58.656 Y186.285 E26.67335
G1 X54.014 Y181.724 E26.95614
G1 X42.306 Y169.459 E27.69290
G1 X41.587 Y168.540 E27.74359
G1 X33.458 Y152.014 E28.54387
G1 X32.808 Y150.195 E28.62782
G1 X32.470 Y148.238 E28.71412
G1 X30.241 Y83.414 E31.53252
G1 X30.239 Y70.223 E32.10570
G1 X30.447 Y68.661 E32.17420
G1 X31.034 Y67.191 E32.24297
G1 X31.925 Y65.964 E32.30886
G1 E25.30886 F2100.000
G92 E0
G1 Z0.566 F4800.000
G1 X188.989 Y76.097
G1 Z0.266
G1 E7.00000 F1800.000
;TYPE:Support material
;WIDTH:0.4
G1 X188.989 Y74.445 E7.06266
G1 X189.193 Y74.223 E7.07409
G1 X189.343 Y74.117 E7.08107
G1 X189.508 Y74.036 E7.08805
G1 X189.675 Y73.983 E7.09466
G1 X189.675 Y76.316 E7.18312
G1 X189.958 Y76.353 E7.19396
G1 X190.141 Y76.339 E7.20094
G1 X190.360 Y76.281 E7.20953
G1 X190.360 Y74.021 E7.29525
G1 X190.572 Y74.117 E7.30409
G1 X190.723 Y74.223 E7.31107
G1 X190.856 Y74.351 E7.31805
G1 X190.967 Y74.497 E7.32503
G1 X191.046 Y74.643 E7.33130
G1 X191.046 Y75.960 E7.38125
G1 E0.38125 F2100.000
G92 E0
G1 Z0.566 F4800.000
G1 X199.276 Y97.169
G1 Z0.266
G1 E7.00000 F1800.000
G1 X199.276 Y89.393 E7.29487
G1 X198.590 Y90.079 E7.33165
G1 X198.590 Y97.015 E7.59466
G1 X197.905 Y97.015 E7.62067
G1 X197.905 Y90.765 E7.85767
G1 X197.219 Y91.451 E7.89446
G1 X197.219 Y97.015 E8.10545
G1 X196.607 Y97.015 E8.12865
G1 X196.607 Y98.372 E8.18011
G1 X196.533 Y98.372 E8.18292
G1 X196.533 Y92.137 E8.41937
G1 X195.847 Y92.822 E8.45615
G1 X195.847 Y98.372 E8.66659
G1 X195.250 Y98.372 E8.68924
G1 X195.250 Y99.729 E8.74070
G1 X195.161 Y99.729 E8.74407
G1 X195.161 Y93.508 E8.97996
G1 X194.475 Y94.194 E9.01674
G1 X194.475 Y99.729 E9.22663
G1 X193.893 Y99.729 E9.24872
G1 X193.893 Y102.443 E9.35165
G1 X193.790 Y102.443 E9.35557
G1 X193.790 Y94.880 E9.64238
G1 X193.104 Y95.566 E9.67916
G1 X193.104 Y102.443 E9.93996
G1 X192.418 Y102.443 E9.96596
G1 X192.418 Y96.252 E10.20075
G1 X191.732 Y96.937 E10.23754
G1 X191.732 Y102.443 E10.44632
G1 X191.046 Y102.443 E10.47233
G1 X191.046 Y97.623 E10.65510
G1 X190.360 Y98.309 E10.69188
G1 X190.360 Y102.443 E10.84864
G1 X189.675 Y102.443 E10.87465
G1 X189.675 Y98.995 E11.00541
G1 X188.989 Y99.681 E11.04219
G1 X188.989 Y102.443 E11.14693
G1 X188.303 Y102.443 E11.17294
G1 X188.303 Y100.367 E11.25168
G1 X187.617 Y101.052 E11.28846
G1 X187.617 Y102.443 E11.34119
G1 X186.931 Y102.443 E11.36720
G1 X186.931 Y101.520 E11.40219
G1 E4.40219 F2100.000
G92 E0
G1 Z0.566 F4800.000
G1 X189.499 Y90.124
G1 Z0.266
G1 E7.00000 F1800.000
;TYPE:Perimeter
;WIDTH:0.45
G1 X189.050 Y90.019 E7.02001
G1 X188.623 Y89.846 E7.04002
G1 X188.227 Y89.611 E7.06003
G1 X187.872 Y89.318 E7.08004
G1 X187.566 Y88.974 E7.10005
G1 X187.315 Y88.588 E7.12006
G1 X187.127 Y88.168 E7.14007
G1 X187.005 Y87.724 E7.16008
G1 X186.952 Y87.266 E7.18009
G1 X186.969 Y86.829 E7.19910
G1 X187.055 Y86.360 E7.21981
G1 X187.213 Y85.920 E7.24011
G1 X187.433 Y85.516 E7.26012
G1 X187.712 Y85.150 E7.28013
G1 X188.044 Y84.830 E7.30014
G1 X188.421 Y84.565 E7.32015
G1 X188.834 Y84.361 E7.34016
G1 X189.273 Y84.222 E7.36017
G1 X189.728 Y84.152 E7.38018
G1 X190.188 Y84.152 E7.40019
G1 X190.643 Y84.222 E7.42020
G1 X191.082 Y84.361 E7.44021
G1 X191.474 Y84.555 E7.45922
G1 X191.867 Y84.826 E7.47993
G1 X192.203 Y85.150 E7.50023
G1 X192.483 Y85.516 E7.52024
G1 X192.692 Y85.900 E7.53925
G1 X192.857 Y86.347 E7.55996
G1 X192.946 Y86.806 E7.58027
G1 X192.964 Y87.266 E7.60028
G1 X192.911 Y87.724 E7.62029
G1 X192.789 Y88.168 E7.64030
G1 X192.610 Y88.567 E7.65931
G1 X192.355 Y88.969 E7.68002
G1 X192.044 Y89.318 E7.70032
G1 X191.688 Y89.611 E7.72033
G1 X191.293 Y89.846 E7.74034
G1 X190.865 Y90.019 E7.76035
G1 X190.417 Y90.124 E7.78036
G1 X189.958 Y90.159 E7.80037
G1 X189.559 Y90.128 E7.81777
G1 X189.589 Y89.736 F4800.000
G1 F1800.000
G1 X189.169 Y89.643 E7.83644
G1 X188.798 Y89.493 E7.85383
G1 X188.454 Y89.289 E7.87122
G1 X188.145 Y89.034 E7.88861
G1 X187.879 Y88.735 E7.90600
G1 X187.662 Y88.400 E7.92338
G1 X187.498 Y88.034 E7.94077
G1 X187.392 Y87.649 E7.95816
G1 X187.346 Y87.251 E7.97555
G1 X187.361 Y86.872 E7.99202
G1 X187.436 Y86.463 E8.01011
G1 X187.573 Y86.082 E8.02771
G1 X187.764 Y85.730 E8.04510
G1 X188.007 Y85.412 E8.06248
G1 X188.295 Y85.134 E8.07987
G1 X188.622 Y84.904 E8.09726
G1 X188.981 Y84.727 E8.11465
G1 X189.362 Y84.606 E8.13204
G1 X189.758 Y84.545 E8.14943
G1 X190.158 Y84.545 E8.16681
G1 X190.553 Y84.606 E8.18420
G1 X190.935 Y84.727 E8.20159
G1 X191.275 Y84.895 E8.21806
G1 X191.617 Y85.131 E8.23615
G1 X191.909 Y85.412 E8.25375
G1 X192.152 Y85.730 E8.27114
G1 X192.333 Y86.063 E8.28761
G1 X192.477 Y86.454 E8.30570
G1 X192.554 Y86.851 E8.32329
G1 X192.570 Y87.251 E8.34068
G1 X192.524 Y87.649 E8.35807
G1 X192.418 Y88.034 E8.37546
G1 X192.263 Y88.380 E8.39193
G1 X192.040 Y88.732 E8.41002
G1 X191.770 Y89.034 E8.42762
G1 X191.462 Y89.289 E8.44501
G1 X191.118 Y89.493 E8.46239
G1 X190.747 Y89.643 E8.47978
G1 X190.357 Y89.734 E8.49717
G1 X189.958 Y89.765 E8.51456
G1 X189.648 Y89.741 E8.52804
G1 X189.679 Y89.349 F4800.000
G1 F1800.000
G1 X189.288 Y89.267 E8.54538
G1 X188.973 Y89.140 E8.56014
G1 X188.681 Y88.967 E8.57491
G1 X188.419 Y88.750 E8.58968
G1 X188.193 Y88.497 E8.60445
G1 X188.008 Y88.211 E8.61921
G1 X187.869 Y87.901 E8.63398
G1 X187.779 Y87.574 E8.64875
G1 X187.740 Y87.236 E8.66351
G1 X187.752 Y86.916 E8.67744
G1 X187.817 Y86.566 E8.69291
G1 X187.932 Y86.243 E8.70781
G1 X188.095 Y85.944 E8.72257
G1 X188.301 Y85.674 E8.73734
G1 X188.546 Y85.438 E8.75211
G1 X188.824 Y85.243 E8.76687
G1 X189.128 Y85.092 E8.78164
G1 X189.452 Y84.990 E8.79641
G1 X189.788 Y84.938 E8.81117
G1 X190.128 Y84.938 E8.82594
G1 X190.464 Y84.990 E8.84071
G1 X190.788 Y85.092 E8.85547
G1 X191.075 Y85.234 E8.86940
G1 X191.368 Y85.436 E8.88487
G1 X191.615 Y85.674 E8.89977
G1 X191.821 Y85.944 E8.91453
G1 X191.974 Y86.226 E8.92846
G1 X192.098 Y86.560 E8.94393
G1 X192.163 Y86.896 E8.95883
G1 X192.176 Y87.236 E8.97359
G1 X192.137 Y87.574 E8.98836
G1 X192.047 Y87.901 E9.00313
G1 X191.916 Y88.194 E9.01706
G1 X191.725 Y88.494 E9.03252
G1 X191.497 Y88.750 E9.04742
G1 X191.235 Y88.967 E9.06219
G1 X190.943 Y89.140 E9.07695
G1 X190.628 Y89.267 E9.09172
G1 X190.297 Y89.345 E9.10649
G1 X189.958 Y89.371 E9.12125
G1 X189.738 Y89.354 E9.13082
G1 X189.768 Y88.962 F4800.000
;TYPE:External perimeter
G1 F1800.000
G1 X189.407 Y88.891 E9.14682
G1 X189.148 Y88.787 E9.15897
G1 X188.908 Y88.644 E9.17111
G1 X188.692 Y88.466 E9.18326
G1 X188.506 Y88.258 E9.19540
G1 X188.354 Y88.023 E9.20755
G1 X188.240 Y87.768 E9.21969
G1 X188.166 Y87.499 E9.23184
G1 X188.134 Y87.221 E9.24398
G1 X188.144 Y86.959 E9.25537
G1 X188.197 Y86.668 E9.26822
G1 X188.292 Y86.404 E9.28041
G1 X188.426 Y86.159 E9.29256
G1 X188.595 Y85.936 E9.30470
G1 X188.796 Y85.742 E9.31685
G1 X189.025 Y85.582 E9.32899
G1 X189.275 Y85.458 E9.34114
G1 X189.542 Y85.373 E9.35328
G1 X189.818 Y85.331 E9.36543
G1 X190.098 Y85.331 E9.37757
G1 X190.374 Y85.373 E9.38972
G1 X190.640 Y85.458 E9.40186
G1 X190.875 Y85.574 E9.41325
G1 X191.119 Y85.742 E9.42610
G1 X191.321 Y85.936 E9.43829
G1 X191.490 Y86.159 E9.45044
G1 X191.616 Y86.389 E9.46183
G1 X191.718 Y86.666 E9.47467
G1 X191.772 Y86.942 E9.48686
G1 X191.782 Y87.221 E9.49901
G1 X191.750 Y87.499 E9.51115
G1 X191.676 Y87.768 E9.52330
G1 X191.569 Y88.007 E9.53469
G1 X191.411 Y88.257 E9.54754
G1 X191.224 Y88.466 E9.55973
G1 X191.008 Y88.644 E9.57187
G1 X190.768 Y88.787 E9.58402
G1 X190.509 Y88.891 E9.59616
G1 X190.237 Y88.955 E9.60831
G1 X189.958 Y88.977 E9.62045
G1 X189.828 Y88.967 E9.62610
G1 X189.546 Y89.256 F4800.000
G1 E2.62610 F2100.000
G92 E0
G1 Z0.566 F4800.000
G1 X189.958 Y78.159
G1 Z0.266
G1 E7.00000 F1800.000
;TYPE:Perimeter
G1 X189.499 Y78.124 E7.02001
G1 X189.050 Y78.019 E7.04002
G1 X188.623 Y77.846 E7.06003
G1 X188.227 Y77.611 E7.08004
G1 X187.872 Y77.318 E7.10005
G1 X187.566 Y76.974 E7.12006
G1 X187.315 Y76.588 E7.14007
G1 X187.127 Y76.168 E7.16008
G1 X187.011 Y75.746 E7.17909
G1 X186.952 Y75.273 E7.19980
G1 X186.970 Y74.806 E7.22010
G1 X187.058 Y74.354 E7.24011
G1 X187.213 Y73.920 E7.26012
G1 X187.433 Y73.516 E7.28013
G1 X187.712 Y73.150 E7.30014
G1 X188.044 Y72.830 E7.32015
G1 X188.421 Y72.565 E7.34016
G1 X188.834 Y72.361 E7.36017
G1 X189.273 Y72.222 E7.38018
G1 X189.728 Y72.152 E7.40019
G1 X190.188 Y72.152 E7.42020
G1 X190.643 Y72.222 E7.44021
G1 X191.082 Y72.361 E7.46022
G1 X191.495 Y72.565 E7.48023
G1 X191.872 Y72.830 E7.50024
G1 X192.203 Y73.150 E7.52025
G1 X192.483 Y73.516 E7.54026
G1 X192.692 Y73.900 E7.55927
G1 X192.857 Y74.347 E7.57998
G1 X192.946 Y74.806 E7.60028
G1 X192.964 Y75.266 E7.62029
G1 X192.911 Y75.724 E7.64030
G1 X192.789 Y76.168 E7.66031
G1 X192.600 Y76.588 E7.68032
G1 X192.350 Y76.974 E7.70033
G1 X192.044 Y77.318 E7.72034
G1 X191.688 Y77.611 E7.74035
G1 X191.293 Y77.846 E7.76036
G1 X190.865 Y78.019 E7.78037
G1 X190.417 Y78.124 E7.80038
G1 X190.018 Y78.154 E7.81779
G1 X189.988 Y77.762 F4800.000
G1 F1800.000
G1 X189.559 Y77.734 E7.83646
G1 X189.169 Y77.643 E7.85385
G1 X188.798 Y77.493 E7.87123
G1 X188.454 Y77.289 E7.88862
G1 X188.145 Y77.034 E7.90601
G1 X187.879 Y76.735 E7.92340
G1 X187.662 Y76.400 E7.94079
G1 X187.498 Y76.034 E7.95818
G1 X187.398 Y75.669 E7.97465
G1 X187.346 Y75.256 E7.99273
G1 X187.361 Y74.851 E8.01033
G1 X187.438 Y74.458 E8.02772
G1 X187.573 Y74.082 E8.04511
G1 X187.764 Y73.730 E8.06250
G1 X188.007 Y73.412 E8.07989
G1 X188.295 Y73.134 E8.09728
G1 X188.622 Y72.904 E8.11466
G1 X188.981 Y72.727 E8.13205
G1 X189.362 Y72.606 E8.14944
G1 X189.758 Y72.545 E8.16683
G1 X190.158 Y72.545 E8.18422
G1 X190.553 Y72.606 E8.20161
G1 X190.935 Y72.727 E8.21899
G1 X191.294 Y72.904 E8.23638
G1 X191.621 Y73.134 E8.25377
G1 X191.909 Y73.412 E8.27116
G1 X192.152 Y73.730 E8.28855
G1 X192.333 Y74.063 E8.30502
G1 X192.477 Y74.454 E8.32311
G1 X192.554 Y74.851 E8.34071
G1 X192.570 Y75.251 E8.35809
G1 X192.524 Y75.649 E8.37548
G1 X192.418 Y76.034 E8.39287
G1 X192.254 Y76.400 E8.41026
G1 X192.037 Y76.735 E8.42765
G1 X191.770 Y77.034 E8.44504
G1 X191.462 Y77.289 E8.46242
G1 X191.118 Y77.493 E8.47981
G1 X190.747 Y77.643 E8.49720
G1 X190.357 Y77.734 E8.51459
G1 X190.047 Y77.758 E8.52807
G1 X190.017 Y77.366 F4800.000
G1 F1800.000
G1 X189.619 Y77.345 E8.54541
G1 X189.288 Y77.267 E8.56017
G1 X188.973 Y77.140 E8.57494
G1 X188.681 Y76.967 E8.58971
G1 X188.419 Y76.750 E8.60447
G1 X188.193 Y76.497 E8.61924
G1 X188.008 Y76.211 E8.63401
G1 X187.869 Y75.901 E8.64878
G1 X187.784 Y75.592 E8.66271
G1 X187.740 Y75.239 E8.67817
G1 X187.753 Y74.896 E8.69307
G1 X187.818 Y74.563 E8.70784
G1 X187.932 Y74.243 E8.72260
G1 X188.095 Y73.944 E8.73737
G1 X188.301 Y73.674 E8.75214
G1 X188.546 Y73.438 E8.76690
G1 X188.824 Y73.243 E8.78167
G1 X189.128 Y73.092 E8.79644
G1 X189.452 Y72.990 E8.81120
G1 X189.788 Y72.938 E8.82597
G1 X190.128 Y72.938 E8.84074
G1 X190.464 Y72.990 E8.85550
G1 X190.788 Y73.092 E8.87027
G1 X191.092 Y73.243 E8.88504
G1 X191.370 Y73.438 E8.89980
G1 X191.615 Y73.674 E8.91457
G1 X191.821 Y73.944 E8.92934
G1 X191.974 Y74.226 E8.94327
G1 X192.098 Y74.560 E8.95874
G1 X192.163 Y74.896 E8.97363
G1 X192.176 Y75.236 E8.98840
G1 X192.137 Y75.574 E9.00316
G1 X192.047 Y75.901 E9.01793
G1 X191.908 Y76.211 E9.03270
G1 X191.723 Y76.497 E9.04746
G1 X191.497 Y76.750 E9.06223
G1 X191.235 Y76.967 E9.07700
G1 X190.943 Y77.140 E9.09176
G1 X190.628 Y77.267 E9.10653
G1 X190.297 Y77.345 E9.12130
G1 X190.077 Y77.361 E9.13087
G1 X190.047 Y76.970 F4800.000
;TYPE:External perimeter
G1 F1800.000
G1 X189.679 Y76.955 E9.14687
G1 X189.407 Y76.891 E9.15901
G1 X189.148 Y76.787 E9.17116
G1 X188.908 Y76.644 E9.18330
G1 X188.692 Y76.466 E9.19545
G1 X188.506 Y76.258 E9.20759
G1 X188.354 Y76.023 E9.21974
G1 X188.240 Y75.768 E9.23188
G1 X188.170 Y75.515 E9.24327
G1 X188.134 Y75.222 E9.25612
G1 X188.144 Y74.942 E9.26831
G1 X188.198 Y74.667 E9.28046
