; generated by PrusaSlicer 2.3.0+win64 on 2021-02-22 at 12:41:52 UTC

; 

; external perimeters extrusion width = 0.45mm
; perimeters extrusion width = 0.45mm
; infill extrusion width = 0.38mm
; solid infill extrusion width = 0.45mm
; top infill extrusion width = 0.40mm
; support material extrusion width = 0.40mm

M201 X9000 Y9000 Z500 E10000 ; sets maximum accelerations, mm/sec^2
M203 X500 Y500 Z12 E120 ; sets maximum feedrates, mm/sec
M204 P1500 R1500 T1500 ; sets acceleration (P, T) and retract acceleration (R), mm/sec^2
M205 X10.00 Y10.00 Z0.20 E2.50 ; sets the jerk limits, mm/sec
M205 S0 T0 ; sets the minimum extruding and travel feed rate, mm/sec
M107
;TYPE:Custom
M117 Preheating... 
M104 S205  ; pre heat nozzle to ...
M140 S60; start warming the bed to ...
;----------------------------------------
M117 Homing;
G28; Home all 3 axis
;----------------------------------------
M117 Auto leveling ;If you dont have a Sensor it will automatically skip this step
G29; run auto level
;----------------------------------------
M117 Parking Nozzle
G1 X250 Y15 F3000
G1 Z0 F300; Close Nozzle
;----------------------------------------
M117 Continuing Heating
M190 S60; set bed temp and wait for it to come up
M109 S205 ; set hot end temp to first layer temp
;----------------------------------------
M117 Priming;
G92 E0 
G1 F300 E-0.5
G0 X220 Y15 Z0.2 F5000
G1 F400 E8
G1 X80 E25 F800
G4 P500 ; Pause 
;----------------------------------------
M117 Printing...
G21 ; set units to millimeters
G90 ; use absolute coordinates
M82 ; use absolute distances for extrusion
G92 E0
; Filament gcode
;LAYER_CHANGE
;Z:0.2128
;HEIGHT:0.2128
G1 Z0.213 F4800.000
G1 E-7.00000 F2100.000
G92 E0
G1 Z0.513 F4800.000
G1 X46.944 Y16.719
G1 Z0.213
G1 E7.00000 F1800.000
;TYPE:Skirt
;WIDTH:0.45
G1 X47.374 Y15.818 E7.03571
G1 X47.849 Y15.097 E7.06659
G1 X48.407 Y14.446 E7.09724
G1 X49.041 Y13.871 E7.12789
G1 X49.744 Y13.380 E7.15854
G1 X50.502 Y12.981 E7.18919
G1 X51.310 Y12.678 E7.22007
G1 X52.144 Y12.481 E7.25072
G1 X53.003 Y12.391 E7.28160
G1 X91.056 Y11.568 E8.64316
G1 X151.759 Y11.434 E10.81465
G1 X192.585 Y12.611 E12.27571
G1 X193.569 Y12.817 E12.31165
G1 X194.511 Y13.166 E12.34759
G1 X195.392 Y13.650 E12.38353
G1 X196.191 Y14.258 E12.41947
G1 X196.893 Y14.977 E12.45541
G1 X197.481 Y15.792 E12.49135
G1 X197.943 Y16.684 E12.52730
G1 X198.270 Y17.641 E12.56347
G1 X198.435 Y18.488 E12.59435
G1 X198.491 Y19.350 E12.62523
G1 X198.491 Y183.973 E18.51414
G1 X198.431 Y184.847 E18.54548
G1 X198.260 Y185.706 E18.57682
G1 X197.979 Y186.536 E18.60816
G1 X197.595 Y187.323 E18.63950
G1 X197.108 Y188.060 E18.67107
G1 X196.535 Y188.722 E18.70241
G1 X195.877 Y189.310 E18.73398
G1 X195.148 Y189.808 E18.76555
G1 X194.361 Y190.207 E18.79713
G1 X193.535 Y190.499 E18.82847
G1 X192.672 Y190.683 E18.86004
G1 X191.792 Y190.755 E18.89161
G1 X53.233 Y190.589 E23.84816
G1 X52.365 Y190.527 E23.87927
G1 X51.513 Y190.354 E23.91038
G1 X50.690 Y190.075 E23.94150
G1 X49.909 Y189.692 E23.97261
G1 X49.010 Y189.078 E24.01154
G1 X48.220 Y188.329 E24.05047
G1 X47.564 Y187.469 E24.08917
G1 X47.050 Y186.510 E24.12810
G1 X46.602 Y185.073 E24.18195
G1 X45.970 Y181.460 E24.31313
G1 X45.889 Y180.504 E24.34747
G1 X45.888 Y22.343 E30.00523
G1 X45.977 Y21.310 E30.04232
G1 X46.649 Y17.679 E30.17441
G1 X46.927 Y16.776 E30.20821
G1 X47.312 Y16.894 F4800.000
G1 F1800.000
G1 X47.731 Y16.009 E30.24323
G1 X48.175 Y15.336 E30.27207
G1 X48.700 Y14.724 E30.30090
G1 X49.302 Y14.180 E30.32995
G1 X49.964 Y13.719 E30.35879
G1 X50.677 Y13.345 E30.38762
G1 X51.439 Y13.062 E30.41667
G1 X52.224 Y12.878 E30.44550
G1 X53.031 Y12.794 E30.47456
G1 X91.056 Y11.973 E31.83509
G1 X151.759 Y11.838 E34.00657
G1 X192.497 Y13.007 E35.46445
G1 X193.433 Y13.199 E35.49864
G1 X194.325 Y13.526 E35.53260
G1 X195.158 Y13.980 E35.56657
G1 X195.915 Y14.553 E35.60053
G1 X196.579 Y15.232 E35.63450
G1 X197.139 Y16.007 E35.66868
G1 X197.574 Y16.850 E35.70265
G1 X197.881 Y17.749 E35.73661
G1 X198.035 Y18.547 E35.76567
G1 X198.086 Y19.351 E35.79450
G1 X198.086 Y183.972 E41.68335
G1 X198.029 Y184.801 E41.71307
G1 X197.867 Y185.610 E41.74257
G1 X197.602 Y186.391 E41.77207
G1 X197.239 Y187.131 E41.80158
G1 X196.784 Y187.819 E41.83108
G1 X196.239 Y188.447 E41.86080
G1 X195.618 Y188.999 E41.89053
G1 X194.937 Y189.463 E41.92003
G1 X194.195 Y189.838 E41.94975
G1 X193.411 Y190.114 E41.97948
G1 X192.604 Y190.285 E42.00898
G1 X191.776 Y190.351 E42.03870
G1 X53.241 Y190.185 E46.99440
G1 X52.418 Y190.126 E47.02390
G1 X51.616 Y189.963 E47.05318
G1 X50.841 Y189.700 E47.08246
G1 X50.107 Y189.340 E47.11174
G1 X49.256 Y188.757 E47.14860
G1 X48.510 Y188.047 E47.18546
G1 X47.888 Y187.225 E47.22232
G1 X47.405 Y186.315 E47.25919
G1 X46.997 Y184.984 E47.30896
G1 X46.370 Y181.401 E47.43911
G1 X46.293 Y180.498 E47.47152
G1 X46.293 Y22.351 E53.12877
G1 X46.376 Y21.374 E53.16384
G1 X47.041 Y17.779 E53.29463
G1 X47.294 Y16.951 E53.32560
G1 E46.32560 F2100.000
G92 E0
G1 Z0.513 F4800.000
G1 X53.287 Y22.165
G1 Z0.213
G1 E7.00000 F1800.000
;TYPE:Support material
;WIDTH:0.4
G1 X53.287 Y19.193 E7.09315
G1 X53.996 Y19.193 E7.11536
G1 X53.996 Y22.005 E7.20351
G1 X54.705 Y22.005 E7.22573
G1 X54.705 Y19.193 E7.31388
G1 X55.413 Y19.193 E7.33609
G1 X55.413 Y22.005 E7.42424
G1 X56.122 Y22.005 E7.44646
G1 X56.122 Y19.193 E7.53460
G1 X56.831 Y19.193 E7.55682
G1 X56.831 Y22.005 E7.64497
G1 X57.539 Y22.005 E7.66718
G1 X57.539 Y19.193 E7.75533
G1 X58.248 Y19.193 E7.77755
G1 X58.248 Y22.005 E7.86570
G1 X58.957 Y22.005 E7.88791
G1 X58.957 Y19.193 E7.97606
G1 X59.665 Y19.193 E7.99828
G1 X59.665 Y22.005 E8.08643
G1 X60.374 Y22.005 E8.10864
G1 X60.374 Y19.193 E8.19679
G1 X61.083 Y19.193 E8.21901
G1 X61.083 Y22.005 E8.30715
G1 X61.791 Y22.005 E8.32937
G1 X61.791 Y19.193 E8.41752
G1 X62.500 Y19.193 E8.43973
G1 X62.500 Y22.005 E8.52788
G1 X63.209 Y22.005 E8.55010
G1 X63.209 Y19.193 E8.63825
G1 X63.917 Y19.193 E8.66046
G1 X63.917 Y22.005 E8.74861
G1 X64.626 Y22.005 E8.77083
G1 X64.626 Y19.193 E8.85898
G1 X65.335 Y19.193 E8.88119
G1 X65.335 Y22.182 E8.97489
G1 E1.97489 F2100.000
G92 E0
G1 Z0.513 F4800.000
G1 X68.169 Y183.781
G1 Z0.213
G1 E7.00000 F1800.000
G1 X68.169 Y19.193 E12.15957
G1 X67.460 Y19.193 E12.18179
G1 X67.460 Y183.621 E17.33637
G1 X66.752 Y183.621 E17.35858
G1 X66.752 Y19.193 E22.51316
G1 X66.043 Y19.193 E22.53537
G1 X66.043 Y183.621 E27.68995
G1 X65.334 Y183.621 E27.71216
G1 X65.334 Y180.810 E27.80031
G1 X64.626 Y180.810 E27.82253
G1 X64.626 Y183.621 E27.91068
G1 X63.917 Y183.621 E27.93289
G1 X63.917 Y180.810 E28.02104
G1 X63.208 Y180.810 E28.04325
G1 X63.208 Y183.621 E28.13140
G1 X62.500 Y183.621 E28.15362
G1 X62.500 Y180.810 E28.24177
G1 X61.791 Y180.810 E28.26398
G1 X61.791 Y183.621 E28.35213
G1 X61.082 Y183.621 E28.37434
G1 X61.082 Y180.810 E28.46249
G1 X60.374 Y180.810 E28.48471
G1 X60.374 Y183.621 E28.57285
G1 X59.665 Y183.621 E28.59507
G1 X59.665 Y180.810 E28.68322
G1 X58.957 Y180.810 E28.70543
G1 X58.957 Y183.621 E28.79358
G1 X58.248 Y183.621 E28.81580
G1 X58.248 Y180.810 E28.90394
G1 X57.539 Y180.810 E28.92616
G1 X57.539 Y183.621 E29.01431
G1 X56.831 Y183.621 E29.03652
G1 X56.831 Y180.810 E29.12467
G1 X56.122 Y180.810 E29.14689
G1 X56.122 Y183.621 E29.23503
G1 X55.413 Y183.621 E29.25725
G1 X55.413 Y180.810 E29.34540
G1 X54.705 Y180.810 E29.36761
G1 X54.705 Y183.621 E29.45576
G1 X53.996 Y183.621 E29.47798
G1 X53.996 Y180.810 E29.56612
G1 X53.287 Y180.810 E29.58834
G1 X53.287 Y183.781 E29.68149
G1 E22.68149 F2100.000
G92 E0
G1 Z0.513 F4800.000
G1 X54.135 Y178.969
G1 Z0.213
G1 E7.00000 F1800.000
;TYPE:Perimeter
;WIDTH:0.45
G1 X54.135 Y23.845 E12.54911
G1 X63.778 Y23.845 E12.89409
G1 X63.778 Y178.969 E18.44320
G1 X54.195 Y178.969 E18.78602
G1 X53.730 Y179.374 F4800.000
G1 F1800.000
G1 X53.730 Y23.441 E24.36406
G1 X64.183 Y23.441 E24.73796
G1 X64.183 Y179.374 E30.31601
G1 X53.790 Y179.374 E30.68776
G1 X53.326 Y179.778 F4800.000
G1 F1800.000
G1 X53.326 Y23.037 E36.29473
G1 X64.587 Y23.037 E36.69755
G1 X64.587 Y179.778 E42.30452
G1 X53.386 Y179.778 E42.70520
G1 X52.922 Y180.182 F4800.000
;TYPE:External perimeter
G1 F1800.000
G1 X52.922 Y22.632 E48.34110
G1 X64.991 Y22.632 E48.77285
G1 X64.991 Y180.182 E54.40875
G1 X52.982 Y180.182 E54.83836
G1 X52.932 Y179.783 F4800.000
G1 E47.83836 F2100.000
G92 E0
G1 Z0.513 F4800.000
G1 X63.677 Y24.766
G1 Z0.213
G1 E7.00000 F1800.000
;TYPE:Solid infill
;WIDTH:0.450822
G1 X63.040 Y24.128 E7.03230
G1 X62.467 Y24.128 E7.05284
G1 X63.495 Y25.157 E7.10496
G1 X63.495 Y25.730 E7.12550
G1 X61.894 Y24.128 E7.20666
G1 X61.321 Y24.128 E7.22720
G1 X63.495 Y26.303 E7.33741
G1 X63.495 Y26.876 E7.35795
G1 X60.748 Y24.128 E7.49721
G1 X60.175 Y24.128 E7.51774
G1 X63.495 Y27.448 E7.68605
G1 X63.495 Y28.021 E7.70659
G1 X59.602 Y24.128 E7.90393
G1 X59.029 Y24.128 E7.92447
G1 X63.495 Y28.594 E8.15086
G1 X63.495 Y29.167 E8.17140
G1 X58.456 Y24.128 E8.42684
G1 X57.883 Y24.128 E8.44738
G1 X63.495 Y29.740 E8.73186
G1 X63.495 Y30.313 E8.75240
G1 X57.310 Y24.128 E9.06593
G1 X56.737 Y24.128 E9.08647
G1 X63.495 Y30.886 E9.42905
G1 X63.495 Y31.459 E9.44958
G1 X56.164 Y24.128 E9.82120
G1 X55.591 Y24.128 E9.84174
G1 X63.495 Y32.032 E10.24241
G1 X63.495 Y32.605 E10.26295
G1 X55.018 Y24.128 E10.69266
G1 X54.445 Y24.128 E10.71320
G1 X63.495 Y33.178 E11.17195
G1 X63.495 Y33.751 E11.19249
G1 X54.418 Y24.674 E11.65265
G1 X54.418 Y25.247 E11.67319
G1 X63.495 Y34.324 E12.13335
G1 X63.495 Y34.897 E12.15389
G1 X54.418 Y25.820 E12.61405
G1 X54.418 Y26.393 E12.63459
G1 X63.495 Y35.470 E13.09475
G1 X63.495 Y36.043 E13.11529
G1 X54.418 Y26.966 E13.57545
G1 X54.418 Y27.539 E13.59599
G1 X63.495 Y36.616 E14.05616
G1 X63.495 Y37.189 E14.07669
G1 X54.418 Y28.112 E14.53686
G1 X54.418 Y28.685 E14.55739
G1 X63.495 Y37.762 E15.01756
G1 X63.495 Y38.335 E15.03809
G1 X54.418 Y29.257 E15.49826
G1 X54.418 Y29.830 E15.51879
G1 X63.495 Y38.908 E15.97896
G1 X63.495 Y39.481 E15.99949
G1 X54.418 Y30.403 E16.45966
G1 X54.418 Y30.976 E16.48020
G1 X63.495 Y40.054 E16.94036
G1 X63.495 Y40.627 E16.96090
G1 X54.418 Y31.549 E17.42106
G1 X54.418 Y32.122 E17.44160
G1 X63.495 Y41.200 E17.90176
G1 X63.495 Y41.773 E17.92230
G1 X54.418 Y32.695 E18.38246
G1 X54.418 Y33.268 E18.40300
G1 X63.495 Y42.346 E18.86316
G1 X63.495 Y42.919 E18.88370
G1 X54.418 Y33.841 E19.34386
G1 X54.418 Y34.414 E19.36440
G1 X63.495 Y43.492 E19.82456
G1 X63.495 Y44.065 E19.84510
G1 X54.418 Y34.987 E20.30526
G1 X54.418 Y35.560 E20.32580
G1 X63.495 Y44.638 E20.78596
G1 X63.495 Y45.211 E20.80650
G1 X54.418 Y36.133 E21.26666
G1 X54.418 Y36.706 E21.28720
G1 X63.495 Y45.784 E21.74736
G1 X63.495 Y46.357 E21.76790
G1 X54.418 Y37.279 E22.22806
G1 X54.418 Y37.852 E22.24860
G1 X63.495 Y46.930 E22.70876
G1 X63.495 Y47.503 E22.72930
G1 X54.418 Y38.425 E23.18946
G1 X54.418 Y38.998 E23.21000
G1 X63.495 Y48.076 E23.67016
G1 X63.495 Y48.649 E23.69070
G1 X54.418 Y39.571 E24.15086
G1 X54.418 Y40.144 E24.17140
G1 X63.495 Y49.222 E24.63156
G1 X63.495 Y49.795 E24.65210
G1 X54.418 Y40.717 E25.11226
G1 X54.418 Y41.290 E25.13280
G1 X63.495 Y50.368 E25.59296
G1 X63.495 Y50.941 E25.61350
G1 X54.418 Y41.863 E26.07366
G1 X54.418 Y42.436 E26.09420
G1 X63.495 Y51.513 E26.55436
G1 X63.495 Y52.086 E26.57490
G1 X54.418 Y43.009 E27.03506
G1 X54.418 Y43.582 E27.05560
G1 X63.495 Y52.659 E27.51576
G1 X63.495 Y53.232 E27.53630
G1 X54.418 Y44.155 E27.99647
G1 X54.418 Y44.728 E28.01700
G1 X63.495 Y53.805 E28.47717
G1 X63.495 Y54.378 E28.49770
G1 X54.418 Y45.301 E28.95787
G1 X54.418 Y45.874 E28.97840
G1 X63.495 Y54.951 E29.43857
G1 X63.495 Y55.524 E29.45910
G1 X54.418 Y46.447 E29.91927
G1 X54.418 Y47.020 E29.93980
G1 X63.495 Y56.097 E30.39997
G1 X63.495 Y56.670 E30.42051
G1 X54.418 Y47.593 E30.88067
G1 X54.418 Y48.166 E30.90121
G1 X63.495 Y57.243 E31.36137
G1 X63.495 Y57.816 E31.38191
G1 X54.418 Y48.739 E31.84207
G1 X54.418 Y49.312 E31.86261
G1 X63.495 Y58.389 E32.32277
G1 X63.495 Y58.962 E32.34331
G1 X54.418 Y49.885 E32.80347
G1 X54.418 Y50.458 E32.82401
G1 X63.495 Y59.535 E33.28417
G1 X63.495 Y60.108 E33.30471
G1 X54.418 Y51.031 E33.76487
G1 X54.418 Y51.604 E33.78541
G1 X63.495 Y60.681 E34.24557
G1 X63.495 Y61.254 E34.26611
G1 X54.418 Y52.177 E34.72627
G1 X54.418 Y52.749 E34.74681
G1 X63.495 Y61.827 E35.20697
G1 X63.495 Y62.400 E35.22751
G1 X54.418 Y53.322 E35.68767
G1 X54.418 Y53.895 E35.70821
G1 X63.495 Y62.973 E36.16837
G1 X63.495 Y63.546 E36.18891
G1 X54.418 Y54.468 E36.64907
G1 X54.418 Y55.041 E36.66961
G1 X63.495 Y64.119 E37.12977
G1 X63.495 Y64.692 E37.15031
G1 X54.418 Y55.614 E37.61047
G1 X54.418 Y56.187 E37.63101
G1 X63.495 Y65.265 E38.09117
G1 X63.495 Y65.838 E38.11171
G1 X54.418 Y56.760 E38.57187
G1 X54.418 Y57.333 E38.59241
G1 X63.495 Y66.411 E39.05257
G1 X63.495 Y66.984 E39.07311
G1 X54.418 Y57.906 E39.53327
G1 X54.418 Y58.479 E39.55381
G1 X63.495 Y67.557 E40.01397
G1 X63.495 Y68.130 E40.03451
G1 X54.418 Y59.052 E40.49467
G1 X54.418 Y59.625 E40.51521
G1 X63.495 Y68.703 E40.97537
G1 X63.495 Y69.276 E40.99591
G1 X54.418 Y60.198 E41.45607
G1 X54.418 Y60.771 E41.47661
G1 X63.495 Y69.849 E41.93678
G1 X63.495 Y70.422 E41.95731
G1 X54.418 Y61.344 E42.41748
G1 X54.418 Y61.917 E42.43801
G1 X63.495 Y70.995 E42.89818
G1 X63.495 Y71.568 E42.91871
G1 X54.418 Y62.490 E43.37888
G1 X54.418 Y63.063 E43.39941
G1 X63.495 Y72.141 E43.85958
G1 X63.495 Y72.714 E43.88011
G1 X54.418 Y63.636 E44.34028
G1 X54.418 Y64.209 E44.36082
G1 X63.495 Y73.287 E44.82098
G1 X63.495 Y73.860 E44.84152
G1 X54.418 Y64.782 E45.30168
G1 X54.418 Y65.355 E45.32222
G1 X63.495 Y74.433 E45.78238
G1 X63.495 Y75.005 E45.80292
G1 X54.418 Y65.928 E46.26308
G1 X54.418 Y66.501 E46.28362
G1 X63.495 Y75.578 E46.74378
G1 X63.495 Y76.151 E46.76432
G1 X54.418 Y67.074 E47.22448
G1 X54.418 Y67.647 E47.24502
G1 X63.495 Y76.724 E47.70518
G1 X63.495 Y77.297 E47.72572
G1 X54.418 Y68.220 E48.18588
G1 X54.418 Y68.793 E48.20642
G1 X63.495 Y77.870 E48.66658
G1 X63.495 Y78.443 E48.68712
G1 X54.418 Y69.366 E49.14728
G1 X54.418 Y69.939 E49.16782
G1 X63.495 Y79.016 E49.62798
G1 X63.495 Y79.589 E49.64852
G1 X54.418 Y70.512 E50.10868
G1 X54.418 Y71.085 E50.12922
G1 X63.495 Y80.162 E50.58938
G1 X63.495 Y80.735 E50.60992
G1 X54.418 Y71.658 E51.07008
G1 X54.418 Y72.231 E51.09062
G1 X63.495 Y81.308 E51.55078
G1 X63.495 Y81.881 E51.57132
G1 X54.418 Y72.804 E52.03148
G1 X54.418 Y73.377 E52.05202
G1 X63.495 Y82.454 E52.51218
G1 X63.495 Y83.027 E52.53272
G1 X54.418 Y73.950 E52.99288
G1 X54.418 Y74.523 E53.01342
G1 X63.495 Y83.600 E53.47358
G1 X63.495 Y84.173 E53.49412
G1 X54.418 Y75.096 E53.95428
G1 X54.418 Y75.669 E53.97482
G1 X63.495 Y84.746 E54.43498
G1 X63.495 Y85.319 E54.45552
G1 X54.418 Y76.241 E54.91568
G1 X54.418 Y76.814 E54.93622
G1 X63.495 Y85.892 E55.39638
G1 X63.495 Y86.465 E55.41692
G1 X54.418 Y77.387 E55.87709
G1 X54.418 Y77.960 E55.89762
G1 X63.495 Y87.038 E56.35779
G1 X63.495 Y87.611 E56.37832
G1 X54.418 Y78.533 E56.83849
G1 X54.418 Y79.106 E56.85902
G1 X63.495 Y88.184 E57.31919
G1 X63.495 Y88.757 E57.33972
G1 X54.418 Y79.679 E57.79989
G1 X54.418 Y80.252 E57.82042
G1 X63.495 Y89.330 E58.28059
G1 X63.495 Y89.903 E58.30112
G1 X54.418 Y80.825 E58.76129
G1 X54.418 Y81.398 E58.78183
G1 X63.495 Y90.476 E59.24199
G1 X63.495 Y91.049 E59.26253
G1 X54.418 Y81.971 E59.72269
G1 X54.418 Y82.544 E59.74323
G1 X63.495 Y91.622 E60.20339
G1 X63.495 Y92.195 E60.22393
G1 X54.418 Y83.117 E60.68409
G1 X54.418 Y83.690 E60.70463
G1 X63.495 Y92.768 E61.16479
G1 X63.495 Y93.341 E61.18533
G1 X54.418 Y84.263 E61.64549
G1 X54.418 Y84.836 E61.66603
G1 X63.495 Y93.914 E62.12619
G1 X63.495 Y94.487 E62.14673
G1 X54.418 Y85.409 E62.60689
G1 X54.418 Y85.982 E62.62743
G1 X63.495 Y95.060 E63.08759
G1 X63.495 Y95.633 E63.10813
G1 X54.418 Y86.555 E63.56829
G1 X54.418 Y87.128 E63.58883
G1 X63.495 Y96.206 E64.04899
G1 X63.495 Y96.779 E64.06953
G1 X54.418 Y87.701 E64.52969
G1 X54.418 Y88.274 E64.55023
G1 X63.495 Y97.352 E65.01039
G1 X63.495 Y97.925 E65.03093
G1 X54.418 Y88.847 E65.49109
G1 X54.418 Y89.420 E65.51163
G1 X63.495 Y98.497 E65.97179
G1 X63.495 Y99.070 E65.99233
G1 X54.418 Y89.993 E66.45249
G1 X54.418 Y90.566 E66.47303
G1 X63.495 Y99.643 E66.93319
G1 X63.495 Y100.216 E66.95373
G1 X54.418 Y91.139 E67.41389
G1 X54.418 Y91.712 E67.43443
