;FLAVOR:Marlin
;TIME:11894
;Filament used: 11.0646m
;Layer height: 0.2
;MINX:90.522
;MINY:59.52
;MINZ:0.2
;MAXX:205.5
;MAXY:155.032
;MAXZ:26
;Generated with Cura_SteamEngine 4.10.0
M140 S70
M105
M190 S70
M104 S230
M105
M109 S230
M82 ;absolute extrusion mode
M220 S100 ;Reset Feedrate
M221 S100 ;Reset Flowrate
G28 ;Home
;Fix X0 Y0 being outside the bed after homing
G1 Z2.0 F3000 ;Move Z Axis up
G1 X1.3 Y4.8 ;Place the nozzle over the bed
;Code for nozzle cleaning and flow normalization
G92 E0 ;Reset Extruder
G1 Z2.0 F3000 ;Move Z Axis up
G1 X10.4 Y20 Z0.28 F5000.0
G1 X10.4 Y170.0 Z0.28 F1500.0 E15
G1 X10.1 Y170.0 Z0.28 F5000.0
G1 X10.1 Y40 Z0.28 F1500.0 E30
G92 E0 ;Reset Extruder
G1 Z2.0 F3000 ;Move Z Axis up
G92 E0
G92 E0
G1 F2700 E-6.5
;LAYER_COUNT:130
;LAYER:0
M107
G0 F6000 X95.365 Y73.155 Z0.2
;TYPE:SKIRT
G1 F2700 E0
G1 F1200 X95.583 Y72.902 E0.01204
G1 X97.65 Y70.76 E0.11932
G1 X99.486 Y68.745 E0.21756
G1 X100.436 Y67.632 E0.2703
G1 X100.567 Y67.502 E0.27695
G1 X101.399 Y66.535 E0.32292
G1 X101.646 Y66.277 E0.3358
G1 X101.869 Y66.075 E0.34664
G1 X102.077 Y65.905 E0.35632
G1 X102.318 Y65.727 E0.36712
G1 X102.401 Y65.672 E0.37071
G1 X102.74 Y65.478 E0.38478
G1 X103.065 Y65.319 E0.39782
G1 X103.311 Y65.211 E0.40751
G1 X103.686 Y65.075 E0.42188
G1 X103.809 Y65.036 E0.42653
G1 X106.76 Y64.161 E0.53746
G1 X109.372 Y63.307 E0.6365
G1 X111.976 Y62.369 E0.73625
G1 X114.506 Y61.378 E0.83418
G1 X117.208 Y60.228 E0.94001
G1 X118.186 Y59.794 E0.97858
G1 X118.649 Y59.632 E0.99625
G1 X119.35 Y59.536 E1.02175
G1 X120.256 Y59.52 E1.05441
G1 X125.97 Y59.52 E1.26034
G1 X126.678 Y59.531 E1.28586
G1 X127.165 Y59.579 E1.3035
G1 X127.591 Y59.689 E1.31936
G1 X128.828 Y60.107 E1.36641
G1 X129.352 Y60.291 E1.38643
G1 X131.992 Y61.135 E1.48632
G1 X134.607 Y61.89 E1.58441
G1 X137.27 Y62.578 E1.68354
G1 X139.996 Y63.2 E1.78431
G1 X142.614 Y63.721 E1.88051
G1 X145.345 Y64.184 E1.98034
G1 X148.057 Y64.566 E2.07904
G1 X149.841 Y64.771 E2.14376
G1 X150.258 Y64.833 E2.15896
G1 X150.882 Y64.957 E2.18188
G1 X151.266 Y65.06 E2.19621
G1 X151.606 Y65.176 E2.20916
G1 X151.857 Y65.274 E2.21887
G1 X153.187 Y65.867 E2.27135
G1 X154.205 Y66.328 E2.31163
G1 X156.742 Y67.394 E2.4108
G1 X159.341 Y68.398 E2.51122
G1 X161.874 Y69.296 E2.60807
G1 X164.499 Y70.144 E2.70749
G1 X167.15 Y70.918 E2.80702
G1 X169.774 Y71.606 E2.90479
G1 X172.489 Y72.235 E3.00523
G1 X175.178 Y72.779 E3.1041
G1 X177.848 Y73.239 E3.20175
G1 X180.571 Y73.631 E3.3009
G1 X183.277 Y73.942 E3.39906
G1 X186.035 Y74.181 E3.49883
G1 X188.758 Y74.339 E3.59713
G1 X191.531 Y74.421 E3.69712
G1 X193.044 Y74.433 E3.75165
G1 X198.679 Y74.433 E3.95473
G1 X199.027 Y74.437 E3.96727
G1 X199.813 Y74.466 E3.99562
G1 X199.977 Y74.477 E4.00154
G1 X200.401 Y74.516 E4.01689
G1 X200.657 Y74.55 E4.0262
G1 X201.241 Y74.655 E4.04758
G1 X201.541 Y74.726 E4.05869
G1 X201.697 Y74.773 E4.06456
G1 X202.02 Y74.879 E4.07682
G1 X202.344 Y75.006 E4.08936
G1 X202.595 Y75.122 E4.09932
G1 X202.957 Y75.32 E4.11419
G1 X203.2 Y75.476 E4.1246
G1 X203.54 Y75.731 E4.13992
G1 X203.731 Y75.896 E4.14901
G1 X204.016 Y76.177 E4.16344
G1 X204.155 Y76.334 E4.171
G1 X204.378 Y76.618 E4.18401
G1 X204.503 Y76.799 E4.19194
G1 X204.65 Y77.036 E4.20199
G1 X204.864 Y77.447 E4.21869
G1 X205.019 Y77.819 E4.23321
G1 X205.149 Y78.202 E4.24779
G1 X205.268 Y78.638 E4.26408
G1 X205.326 Y78.929 E4.27477
G1 X205.408 Y79.486 E4.29506
G1 X205.43 Y79.676 E4.30195
G1 X205.466 Y80.112 E4.31772
G1 X205.489 Y80.552 E4.3336
G1 X205.493 Y80.672 E4.33793
G1 X205.5 Y81.428 E4.36518
G1 X205.499 Y148.21 E6.77199
G1 X205.495 Y148.559 E6.78457
G1 X205.466 Y149.345 E6.81292
G1 X205.455 Y149.509 E6.81884
G1 X205.416 Y149.933 E6.83419
G1 X205.38 Y150.197 E6.84379
G1 X205.269 Y150.805 E6.86606
G1 X205.2 Y151.099 E6.87695
G1 X205.152 Y151.265 E6.88317
G1 X205.071 Y151.507 E6.89237
G1 X204.906 Y151.919 E6.90837
G1 X204.812 Y152.123 E6.91646
G1 X204.613 Y152.486 E6.93138
G1 X204.458 Y152.728 E6.94174
G1 X204.201 Y153.073 E6.95724
G1 X204.034 Y153.266 E6.96644
G1 X203.753 Y153.55 E6.98084
G1 X203.597 Y153.688 E6.98835
G1 X203.303 Y153.917 E7.00178
G1 X203.113 Y154.047 E7.01007
G1 X202.793 Y154.238 E7.0235
G1 X202.527 Y154.375 E7.03429
G1 X202.259 Y154.497 E7.0449
G1 X202.07 Y154.568 E7.05218
G1 X201.761 Y154.673 E7.06394
G1 X201.49 Y154.752 E7.07411
G1 X201.225 Y154.815 E7.08393
G1 X200.979 Y154.862 E7.09295
G1 X200.542 Y154.928 E7.10888
G1 X200.23 Y154.964 E7.1202
G1 X199.676 Y155.008 E7.14023
G1 X199.401 Y155.021 E7.15015
G1 X199.291 Y155.024 E7.15412
G1 X198.507 Y155.032 E7.18237
G1 X157.322 Y155.031 E8.66668
G1 X156.973 Y155.027 E8.67926
G1 X156.187 Y154.998 E8.7076
G1 X156.027 Y154.988 E8.71338
G1 X155.597 Y154.949 E8.72894
G1 X155.337 Y154.914 E8.7384
G1 X154.759 Y154.81 E8.75956
G1 X154.357 Y154.708 E8.77451
G1 X153.984 Y154.586 E8.78865
G1 X153.673 Y154.465 E8.80068
G1 X152.732 Y154.036 E8.83795
G1 X150.178 Y152.917 E8.93844
G1 X147.592 Y151.868 E9.03902
G1 X145.077 Y150.934 E9.13571
G1 X142.48 Y150.05 E9.23458
G1 X139.845 Y149.235 E9.33398
G1 X137.218 Y148.503 E9.43226
G1 X134.509 Y147.831 E9.53286
G1 X131.842 Y147.246 E9.63126
G1 X129.171 Y146.744 E9.72921
G1 X126.478 Y146.313 E9.8275
G1 X123.71 Y145.951 E9.92811
G1 X121.028 Y145.676 E10.02527
G1 X118.269 Y145.473 E10.12497
G1 X115.543 Y145.349 E10.22332
G1 X112.456 Y145.301 E10.33459
G1 X106.901 Y145.301 E10.53479
G1 X106.63 Y145.297 E10.54456
G1 X105.525 Y145.255 E10.58441
G1 X105.333 Y145.241 E10.59135
G1 X104.955 Y145.201 E10.60505
G1 X104.626 Y145.154 E10.61703
G1 X104.19 Y145.065 E10.63306
G1 X103.869 Y144.981 E10.64502
G1 X103.571 Y144.887 E10.65628
G1 X103.237 Y144.755 E10.66923
G1 X102.836 Y144.567 E10.68519
G1 X102.576 Y144.428 E10.69581
G1 X102.244 Y144.221 E10.70991
G1 X102.156 Y144.158 E10.71381
G1 X101.873 Y143.929 E10.72693
G1 X101.665 Y143.738 E10.73711
G1 X101.387 Y143.446 E10.75164
G1 X101.234 Y143.262 E10.76027
G1 X101.008 Y142.952 E10.77409
G1 X100.895 Y142.774 E10.78169
G1 X100.724 Y142.466 E10.79439
G1 X100.612 Y142.233 E10.8037
G1 X100.479 Y141.909 E10.81633
G1 X100.36 Y141.563 E10.82951
G1 X100.29 Y141.327 E10.83839
G1 X100.038 Y140.337 E10.8752
G1 X99.314 Y137.648 E10.97556
G1 X98.525 Y135.013 E11.0747
G1 X97.658 Y132.394 E11.17412
G1 X96.733 Y129.842 E11.27195
G1 X95.723 Y127.285 E11.37103
G1 X94.645 Y124.766 E11.46978
G1 X93.498 Y122.281 E11.56842
G1 X92.102 Y119.483 E11.68111
G1 X91.214 Y117.772 E11.75059
G1 X91.111 Y117.55 E11.75941
G1 X90.973 Y117.221 E11.77227
G1 X90.881 Y116.973 E11.7818
G1 X90.828 Y116.807 E11.78808
G1 X90.762 Y116.565 E11.79712
G1 X90.65 Y116.076 E11.8152
G1 X90.603 Y115.824 E11.82444
G1 X90.55 Y115.379 E11.84059
G1 X90.531 Y115.073 E11.85164
G1 X90.522 Y114.798 E11.86156
G1 X90.522 Y114.656 E11.86667
G1 X90.529 Y114.348 E11.87778
G1 X90.545 Y114.098 E11.8868
G1 X90.571 Y113.854 E11.89565
G1 X90.609 Y113.598 E11.90498
G1 X90.68 Y113.234 E11.91834
G1 X90.761 Y112.883 E11.93132
G1 X90.782 Y112.798 E11.93448
G1 X91.045 Y111.81 E11.97133
G1 X91.708 Y109.175 E12.06925
G1 X92.314 Y106.447 E12.16997
G1 X92.828 Y103.764 E12.26842
G1 X93.27 Y101.05 E12.36752
G1 X93.633 Y98.346 E12.46585
G1 X93.92 Y95.628 E12.56435
G1 X94.132 Y92.874 E12.66389
G1 X94.264 Y90.147 E12.76229
G1 X94.319 Y87.432 E12.86016
G1 X94.317 Y86.911 E12.87894
G1 X94.323 Y86.271 E12.902
G1 X94.315 Y83.693 E12.99491
G1 X94.315 Y82.742 E13.02919
G1 X94.323 Y82.168 E13.04988
G1 X94.318 Y79.081 E13.16113
G1 X94.316 Y78.796 E13.1714
G1 X94.322 Y78.243 E13.19133
G1 X94.317 Y77.022 E13.23534
G1 X94.324 Y76.262 E13.26273
G1 X94.369 Y75.775 E13.28036
G1 X94.456 Y75.411 E13.29384
G1 X94.729 Y74.524 E13.32729
G1 X94.903 Y74.015 E13.34668
G1 X95.099 Y73.566 E13.36433
G1 X95.365 Y73.155 E13.38198
G0 F6000 X95.871 Y73.18
G1 F1200 X97.935 Y71.041 E13.48911
G1 X99.803 Y68.991 E13.58906
G1 X100.741 Y67.892 E13.64113
G1 X100.855 Y67.78 E13.64689
G1 X101.702 Y66.796 E13.69368
G1 X101.929 Y66.56 E13.70549
G1 X102.122 Y66.385 E13.71487
G1 X102.33 Y66.215 E13.72456
G1 X102.539 Y66.061 E13.73391
G1 X102.622 Y66.006 E13.7375
G1 X102.915 Y65.838 E13.74967
G1 X103.24 Y65.679 E13.76271
G1 X103.624 Y65.519 E13.77771
G1 X103.922 Y65.419 E13.78903
G1 X106.893 Y64.539 E13.90071
G1 X109.536 Y63.674 E14.00093
G1 X112.079 Y62.759 E14.09833
G1 X114.672 Y61.742 E14.19872
G1 X117.364 Y60.596 E14.30416
G1 X118.349 Y60.159 E14.343
G1 X118.78 Y60.012 E14.35941
G1 X119.357 Y59.936 E14.38038
G1 X120.263 Y59.92 E14.41304
G1 X125.963 Y59.92 E14.61847
G1 X126.671 Y59.931 E14.64399
G1 X127.125 Y59.978 E14.66044
G1 X127.463 Y60.068 E14.67304
G1 X128.696 Y60.484 E14.71994
G1 X129.245 Y60.677 E14.74091
G1 X131.864 Y61.514 E14.84
G1 X134.534 Y62.285 E14.94016
G1 X137.153 Y62.962 E15.03765
G1 X139.901 Y63.589 E15.13924
G1 X142.575 Y64.121 E15.2375
G1 X145.259 Y64.576 E15.33561
G1 X148.033 Y64.966 E15.43656
G1 X149.788 Y65.167 E15.50023
G1 X150.18 Y65.225 E15.51451
G1 X150.804 Y65.349 E15.53744
G1 X151.137 Y65.438 E15.54986
G1 X151.477 Y65.554 E15.56281
G1 X151.694 Y65.64 E15.57122
G1 X153.022 Y66.231 E15.62361
G1 X154.051 Y66.697 E15.66432
G1 X156.604 Y67.769 E15.76411
G1 X159.199 Y68.772 E15.86438
G1 X161.754 Y69.678 E15.96208
G1 X164.369 Y70.523 E16.06112
G1 X167.042 Y71.304 E16.16148
G1 X169.687 Y71.997 E16.26002
G1 X172.392 Y72.623 E16.36009
G1 X175.102 Y73.172 E16.45974
G1 X177.794 Y73.635 E16.55818
G1 X180.505 Y74.026 E16.6569
G1 X183.268 Y74.343 E16.75713
G1 X185.975 Y74.578 E16.85506
G1 X188.759 Y74.739 E16.95556
G1 X191.516 Y74.821 E17.05497
G1 X193.041 Y74.833 E17.10993
G1 X198.676 Y74.833 E17.31301
G1 X199.012 Y74.837 E17.32512
G1 X199.798 Y74.866 E17.35347
G1 X199.94 Y74.875 E17.3586
G1 X200.364 Y74.914 E17.37394
G1 X200.586 Y74.944 E17.38202
G1 X201.17 Y75.049 E17.4034
G1 X201.431 Y75.11 E17.41306
G1 X201.573 Y75.153 E17.41841
G1 X201.896 Y75.259 E17.43066
G1 X202.176 Y75.369 E17.4415
G1 X202.427 Y75.485 E17.45147
G1 X202.741 Y75.657 E17.46437
G1 X202.984 Y75.813 E17.47478
G1 X203.279 Y76.033 E17.48804
G1 X203.47 Y76.198 E17.49714
G1 X203.717 Y76.443 E17.50968
G1 X203.856 Y76.6 E17.51723
G1 X204.048 Y76.846 E17.52848
G1 X204.302 Y77.232 E17.54513
G1 X204.506 Y77.625 E17.56109
G1 X204.64 Y77.947 E17.57366
G1 X204.77 Y78.33 E17.58824
G1 X204.88 Y78.735 E17.60336
G1 X204.93 Y78.987 E17.61262
G1 X205.012 Y79.544 E17.63291
G1 X205.031 Y79.709 E17.6389
G1 X205.073 Y80.23 E17.65774
G1 X205.09 Y80.572 E17.67008
G1 X205.093 Y80.676 E17.67383
G1 X205.1 Y81.428 E17.70093
G1 X205.099 Y148.207 E20.10764
G1 X205.095 Y148.544 E20.11978
G1 X205.066 Y149.33 E20.14813
G1 X205.057 Y149.472 E20.15326
G1 X205.018 Y149.896 E20.1686
G1 X204.987 Y150.125 E20.17693
G1 X204.876 Y150.733 E20.19921
G1 X204.816 Y150.988 E20.20865
G1 X204.698 Y151.363 E20.22281
G1 X204.542 Y151.752 E20.23792
G1 X204.448 Y151.956 E20.24601
G1 X204.276 Y152.27 E20.25892
G1 X204.121 Y152.512 E20.26927
G1 X203.898 Y152.811 E20.28272
G1 X203.731 Y153.004 E20.29192
G1 X203.488 Y153.25 E20.30438
G1 X203.332 Y153.388 E20.31188
G1 X203.077 Y153.587 E20.32354
G1 X202.887 Y153.717 E20.33184
G1 X202.609 Y153.882 E20.34349
G1 X202.343 Y154.019 E20.35427
G1 X202.105 Y154.128 E20.36371
G1 X201.942 Y154.19 E20.36999
G1 X201.633 Y154.295 E20.38175
G1 X201.397 Y154.363 E20.39061
G1 X201.132 Y154.426 E20.40042
G1 X200.919 Y154.467 E20.40824
G1 X200.482 Y154.533 E20.42417
G1 X200.197 Y154.565 E20.4345
G1 X199.657 Y154.608 E20.45403
G1 X199.287 Y154.624 E20.46737
G1 X198.507 Y154.632 E20.49549
G1 X157.325 Y154.631 E21.97968
G1 X156.988 Y154.627 E21.99183
G1 X156.202 Y154.598 E22.02017
G1 X156.063 Y154.589 E22.02519
G1 X155.633 Y154.55 E22.04075
G1 X155.408 Y154.52 E22.04894
G1 X154.83 Y154.416 E22.0701
G1 X154.482 Y154.328 E22.08304
G1 X154.109 Y154.206 E22.09718
G1 X153.839 Y154.101 E22.10762
G1 X152.858 Y153.654 E22.14647
G1 X150.34 Y152.55 E22.24556
G1 X147.745 Y151.498 E22.34648
G1 X145.229 Y150.563 E22.44321
G1 X142.589 Y149.666 E22.5437
G1 X139.956 Y148.85 E22.64305
G1 X137.284 Y148.106 E22.74301
G1 X134.663 Y147.456 E22.84033
G1 X131.897 Y146.85 E22.94238
G1 X129.236 Y146.349 E23.03997
G1 X126.527 Y145.916 E23.13884
G1 X123.766 Y145.554 E23.2392
G1 X121.059 Y145.278 E23.33726
G1 X118.283 Y145.073 E23.43758
G1 X115.567 Y144.95 E23.53557
G1 X112.462 Y144.901 E23.64749
G1 X106.905 Y144.901 E23.84776
G1 X106.645 Y144.897 E23.85713
G1 X105.54 Y144.855 E23.89698
G1 X105.374 Y144.843 E23.90298
G1 X105.007 Y144.805 E23.91628
G1 X104.699 Y144.761 E23.92749
G1 X104.291 Y144.678 E23.9425
G1 X103.97 Y144.594 E23.95446
G1 X103.712 Y144.512 E23.96421
G1 X103.401 Y144.39 E23.97625
G1 X103.024 Y144.214 E23.99125
G1 X102.764 Y144.075 E24.00187
G1 X102.477 Y143.896 E24.01406
G1 X102.389 Y143.833 E24.01796
G1 X102.143 Y143.634 E24.02937
G1 X101.935 Y143.443 E24.03954
G1 X101.695 Y143.19 E24.05211
G1 X101.542 Y143.006 E24.06074
G1 X101.346 Y142.737 E24.07273
G1 X101.233 Y142.559 E24.08033
G1 X101.085 Y142.292 E24.09133
G1 X100.973 Y142.059 E24.10065
G1 X100.857 Y141.779 E24.11157
G1 X100.738 Y141.433 E24.12476
G1 X100.677 Y141.228 E24.13247
G1 X100.415 Y140.198 E24.17077
G1 X99.698 Y137.534 E24.2702
G1 X98.905 Y134.888 E24.36975
G1 X98.038 Y132.27 E24.46914
G1 X97.105 Y129.696 E24.56781
G1 X96.091 Y127.129 E24.66728
G1 X95.022 Y124.63 E24.76524
G1 X93.848 Y122.088 E24.86615
G1 X92.46 Y119.304 E24.97827
G1 X91.569 Y117.587 E25.04798
G1 X91.479 Y117.396 E25.05559
G1 X91.341 Y117.067 E25.06845
G1 X91.209 Y116.686 E25.08298
G1 X91.152 Y116.475 E25.09086
G1 X91.04 Y115.986 E25.10894
G1 X90.969 Y115.556 E25.12465
G1 X90.949 Y115.354 E25.13196
G1 X90.93 Y115.048 E25.14301
G1 X90.922 Y114.788 E25.15239
G1 X90.922 Y114.665 E25.15682
G1 X90.929 Y114.357 E25.16792
G1 X90.969 Y113.897 E25.18456
G1 X91.002 Y113.674 E25.19269
G1 X91.073 Y113.31 E25.20605
G1 X91.15 Y112.974 E25.21848
G1 X91.431 Y111.913 E25.25803
G1 X92.101 Y109.254 E25.35686
G1 X92.703 Y106.543 E25.45694
G1 X93.226 Y103.811 E25.55719
G1 X93.661 Y101.137 E25.65483
G1 X94.028 Y98.404 E25.75421
G1 X94.322 Y95.619 E25.85514
G1 X94.529 Y92.923 E25.95259
G1 X94.664 Y90.139 E26.05304
G1 X94.719 Y87.431 E26.15066
G1 X94.717 Y86.915 E26.16926
G1 X94.723 Y86.275 E26.19232
G1 X94.715 Y83.692 E26.28541
G1 X94.715 Y82.748 E26.31943
G1 X94.723 Y82.174 E26.34012
G1 X94.718 Y79.08 E26.45163
G1 X94.716 Y78.801 E26.46169
G1 X94.722 Y78.248 E26.48162
G1 X94.717 Y77.026 E26.52566
G1 X94.724 Y76.266 E26.55305
G1 X94.768 Y75.813 E26.56945
G1 X94.838 Y75.528 E26.58003
G1 X95.082 Y74.732 E26.61004
G1 X95.282 Y74.144 E26.63242
G1 X95.466 Y73.727 E26.64885
G1 X95.871 Y73.18 E26.67337
G0 F6000 X96.159 Y73.457
G1 F1200 X98.235 Y71.305 E26.78114
G1 X100.104 Y69.255 E26.88112
G1 X101.045 Y68.152 E26.93337
G1 X101.158 Y68.043 E26.93903
G1 X102.006 Y67.057 E26.9859
G1 X102.211 Y66.842 E26.9966
G1 X102.375 Y66.695 E27.00454
G1 X102.583 Y66.525 E27.01422
G1 X102.843 Y66.339 E27.02574
G1 X103.091 Y66.197 E27.03604
G1 X103.416 Y66.038 E27.04908
G1 X103.754 Y65.897 E27.06228
G1 X104.036 Y65.803 E27.073
G1 X106.994 Y64.927 E27.18418
G1 X109.649 Y64.058 E27.28486
G1 X112.242 Y63.124 E27.38419
G1 X114.808 Y62.119 E27.48351
G1 X117.539 Y60.956 E27.59048
G1 X118.511 Y60.525 E27.6288
G1 X118.908 Y60.392 E27.64389
G1 X119.364 Y60.336 E27.66045
G1 X120.27 Y60.32 E27.69311
G1 X125.957 Y60.32 E27.89807
G1 X126.665 Y60.331 E27.92359
G1 X127.082 Y60.378 E27.93871
G1 X127.335 Y60.447 E27.94816
G1 X128.563 Y60.862 E27.99488
G1 X129.083 Y61.045 E28.01475
G1 X131.747 Y61.896 E28.11554
G1 X134.428 Y62.671 E28.21611
G1 X137.069 Y63.353 E28.31442
G1 X139.805 Y63.977 E28.41555
G1 X142.502 Y64.514 E28.51466
G1 X145.203 Y64.972 E28.6134
G1 X147.973 Y65.361 E28.71421
G1 X149.735 Y65.564 E28.77813
G1 X150.102 Y65.617 E28.79149
G1 X150.726 Y65.741 E28.81442
G1 X151.007 Y65.817 E28.82491
G1 X151.347 Y65.933 E28.83786
G1 X151.532 Y66.005 E28.84501
G1 X152.857 Y66.595 E28.89729
G1 X153.91 Y67.072 E28.93895
G1 X156.441 Y68.135 E29.03788
G1 X159.07 Y69.151 E29.13946
G1 X161.605 Y70.05 E29.2364
G1 X164.272 Y70.911 E29.3374
G1 X166.934 Y71.689 E29.43735
G1 X169.601 Y72.387 E29.53671
G1 X172.301 Y73.013 E29.6366
G1 X175.02 Y73.563 E29.73657
G1 X177.706 Y74.026 E29.83481
G1 X180.473 Y74.424 E29.93555
