; generated by PrusaSlicer 2.3.0+win64 on 2021-02-09 at 16:20:37 UTC

; 

; external perimeters extrusion width = 0.45mm
; perimeters extrusion width = 0.45mm
; infill extrusion width = 0.38mm
; solid infill extrusion width = 0.45mm
; top infill extrusion width = 0.40mm

M201 X9000 Y9000 Z500 E10000 ; sets maximum accelerations, mm/sec^2
M203 X500 Y500 Z12 E120 ; sets maximum feedrates, mm/sec
M204 P1500 R1500 T1500 ; sets acceleration (P, T) and retract acceleration (R), mm/sec^2
M205 X10.00 Y10.00 Z0.20 E2.50 ; sets the jerk limits, mm/sec
M205 S0 T0 ; sets the minimum extruding and travel feed rate, mm/sec
M107
;TYPE:Custom
M117 Preheating... 
M104 S205  ; pre heat nozzle to ...
M140 S60; start warming the bed to ...
;----------------------------------------
M117 Homing;
G28; Home all 3 axis
;----------------------------------------
M117 Auto leveling ;If you dont have a Sensor it will automatically skip this step
G29; run auto level
;----------------------------------------
M117 Parking Nozzle
G1 X250 Y15 F3000
G1 Z0 F300; Close Nozzle
;----------------------------------------
M117 Continuing Heating
M190 S60; set bed temp and wait for it to come up
M109 S205 ; set hot end temp to first layer temp
;----------------------------------------
M117 Priming;
G92 E0 
G1 F300 E-0.5
G0 X220 Y15 Z0.2 F5000
G1 F400 E8
G1 X80 E25 F800
G4 P500 ; Pause 
;----------------------------------------
M117 Printing...
G21 ; set units to millimeters
G90 ; use absolute coordinates
M82 ; use absolute distances for extrusion
G92 E0
; Filament gcode
;LAYER_CHANGE
;Z:0.2128
;HEIGHT:0.2128
G1 Z0.213 F4800.000
G1 E-7.00000 F2100.000
G92 E0
G1 Z0.513 F4800.000
G1 X48.506 Y23.860
G1 Z0.213
G1 E7.00000 F1800.000
;TYPE:Skirt
;WIDTH:0.45
G1 X48.940 Y22.982 E7.03502
G1 X49.496 Y22.176 E7.07004
G1 X50.162 Y21.458 E7.10506
G1 X50.918 Y20.847 E7.13986
G1 X51.760 Y20.347 E7.17488
G1 X52.665 Y19.973 E7.20990
G1 X53.613 Y19.732 E7.24492
G1 X54.781 Y19.626 E7.28684
G1 X77.215 Y19.626 E8.08937
G1 X176.709 Y19.849 E11.64849
G1 X178.057 Y20.016 E11.69706
G1 X179.345 Y20.447 E11.74564
G1 X180.521 Y21.124 E11.79422
G1 X181.540 Y22.022 E11.84279
G1 X182.424 Y23.209 E11.89573
G1 X183.032 Y24.565 E11.94889
G1 X184.727 Y31.364 E12.19955
G1 X184.889 Y32.388 E12.23664
G1 X185.834 Y75.448 E13.77736
G1 X185.834 Y86.918 E14.18764
G1 X185.371 Y128.939 E15.69094
G1 X185.185 Y130.245 E15.73814
G1 X184.749 Y131.491 E15.78533
G1 X184.082 Y132.629 E15.83253
G1 X183.208 Y133.617 E15.87973
G1 X182.246 Y134.363 E15.92326
G1 X181.162 Y134.929 E15.96702
G1 X179.993 Y135.291 E16.01077
G1 X178.779 Y135.438 E16.05453
G1 X130.693 Y136.214 E17.77491
G1 X79.187 Y136.789 E19.61750
G1 X53.153 Y136.772 E20.54877
G1 X51.896 Y136.563 E20.59437
G1 X50.700 Y136.124 E20.63996
G1 X49.601 Y135.465 E20.68578
G1 X48.650 Y134.617 E20.73137
G1 X47.894 Y133.639 E20.77559
G1 X47.329 Y132.547 E20.81957
G1 X46.971 Y131.370 E20.86356
G1 X46.830 Y130.149 E20.90754
G1 X46.450 Y44.051 E23.98748
G1 X46.478 Y32.094 E24.41520
G1 X46.632 Y31.147 E24.44953
G1 X48.202 Y24.790 E24.68375
G1 X48.487 Y23.917 E24.71663
G1 X48.870 Y24.041 F4800.000
G1 F1800.000
G1 X49.290 Y23.186 E24.75069
G1 X49.819 Y22.420 E24.78399
G1 X50.449 Y21.744 E24.81706
G1 X51.170 Y21.165 E24.85013
G1 X51.972 Y20.693 E24.88343
G1 X52.828 Y20.345 E24.91650
G1 X53.732 Y20.122 E24.94979
G1 X54.783 Y20.031 E24.98755
G1 X77.215 Y20.031 E25.78998
G1 X176.691 Y20.253 E29.34847
G1 X177.961 Y20.409 E29.39424
G1 X179.170 Y20.811 E29.43979
G1 X180.279 Y21.448 E29.48556
G1 X181.236 Y22.289 E29.53111
G1 X182.075 Y23.414 E29.58133
G1 X182.651 Y24.701 E29.63177
G1 X184.333 Y31.453 E29.88068
G1 X184.486 Y32.428 E29.91598
G1 X185.430 Y75.456 E31.45555
G1 X185.430 Y86.916 E31.86550
G1 X184.968 Y128.909 E33.36778
G1 X184.794 Y130.139 E33.41221
G1 X184.386 Y131.312 E33.45665
G1 X183.760 Y132.385 E33.50109
G1 X182.938 Y133.316 E33.54552
G1 X182.031 Y134.021 E33.58662
G1 X181.006 Y134.556 E33.62794
G1 X179.903 Y134.897 E33.66926
G1 X178.756 Y135.035 E33.71058
G1 X130.687 Y135.809 E35.43035
G1 X79.183 Y136.385 E37.27287
G1 X53.205 Y136.371 E38.20214
G1 X52.016 Y136.177 E38.24524
G1 X50.884 Y135.764 E38.28835
G1 X49.855 Y135.150 E38.33122
G1 X48.954 Y134.350 E38.37432
G1 X48.242 Y133.433 E38.41587
G1 X47.707 Y132.402 E38.45741
G1 X47.367 Y131.291 E38.49895
G1 X47.234 Y130.131 E38.54072
G1 X46.854 Y44.043 E41.62031
G1 X46.881 Y32.132 E42.04640
G1 X47.026 Y31.238 E42.07881
G1 X48.591 Y24.900 E42.31233
G1 X48.852 Y24.098 E42.34248
G1 E35.34248 F2100.000
G92 E0
G1 Z0.513 F4800.000
G1 X70.103 Y34.593
G1 Z0.213
G1 E7.00000 F1800.000
;TYPE:Perimeter
G1 X70.207 Y34.566 E7.00386
G1 X70.277 Y34.584 E7.00644
G1 X70.359 Y34.662 E7.01050
G1 X70.503 Y35.065 E7.02578
G1 X70.553 Y35.388 E7.03750
G1 X70.561 Y36.383 E7.07307
G1 X70.527 Y36.744 E7.08606
G1 X70.499 Y36.873 E7.09077
G1 X70.331 Y37.325 E7.10802
G1 X70.287 Y37.363 E7.11011
G1 X70.211 Y37.381 E7.11291
G1 X70.108 Y37.354 E7.11670
G1 X70.031 Y37.280 E7.12052
G1 X69.934 Y37.029 E7.13017
G1 X69.855 Y36.712 E7.14185
G1 X69.827 Y36.370 E7.15411
G1 X69.827 Y35.574 E7.18259
G1 X69.857 Y35.219 E7.19534
G1 X69.882 Y35.095 E7.19986
G1 X70.034 Y34.667 E7.21609
G1 X70.062 Y34.637 E7.21757
G1 X69.766 Y34.362 F4800.000
;TYPE:External perimeter
G1 F1800.000
G1 X69.847 Y34.274 E7.22184
G1 X69.964 Y34.206 E7.22671
G1 X70.200 Y34.154 E7.23535
G1 X70.481 Y34.229 E7.24576
G1 X70.607 Y34.330 E7.25153
G1 X70.711 Y34.450 E7.25722
G1 X70.898 Y34.975 E7.27715
G1 X70.957 Y35.355 E7.29091
G1 X70.966 Y36.400 E7.32828
G1 X70.927 Y36.806 E7.34287
G1 X70.889 Y36.987 E7.34948
G1 X70.682 Y37.540 E7.37060
G1 X70.479 Y37.725 E7.38043
G1 X70.350 Y37.769 E7.38531
G1 X70.205 Y37.790 E7.39054
G1 X70.047 Y37.763 E7.39631
G1 X69.905 Y37.710 E7.40171
G1 X69.785 Y37.613 E7.40721
G1 X69.680 Y37.493 E7.41292
G1 X69.547 Y37.150 E7.42607
G1 X69.455 Y36.777 E7.43982
G1 X69.422 Y36.387 E7.45384
G1 X69.423 Y35.557 E7.48353
G1 X69.456 Y35.162 E7.49770
G1 X69.491 Y34.987 E7.50409
G1 X69.681 Y34.453 E7.52435
G1 X69.725 Y34.406 E7.52666
G1 X69.884 Y34.376 F4800.000
G1 X70.223 Y34.870
;TYPE:Gap fill
;WIDTH:0.287412
G1 F1800.000
G1 X70.194 Y35.181 E7.53334
;WIDTH:0.31729
G1 X70.192 Y35.266 E7.53538
;WIDTH:0.32328
G1 X70.193 Y36.656 E7.56952
G1 X70.221 Y37.040 E7.57897
G1 E0.57897 F2100.000
G92 E0
G1 Z0.513 F4800.000
G1 X59.069 Y37.325
G1 Z0.213
G1 E7.00000 F1800.000
;TYPE:Perimeter
;WIDTH:0.45
G1 X59.025 Y37.363 E7.00209
G1 X58.949 Y37.381 E7.00489
G1 X58.846 Y37.354 E7.00868
G1 X58.769 Y37.280 E7.01249
G1 X58.672 Y37.029 E7.02215
G1 X58.593 Y36.712 E7.03383
G1 X58.565 Y36.370 E7.04609
G1 X58.565 Y35.574 E7.07457
G1 X58.620 Y35.095 E7.09182
G1 X58.772 Y34.667 E7.10805
G1 X58.851 Y34.587 E7.11209
G1 X58.945 Y34.566 E7.11554
G1 X59.016 Y34.584 E7.11812
G1 X59.097 Y34.662 E7.12218
G1 X59.241 Y35.065 E7.13745
G1 X59.291 Y35.388 E7.14918
G1 X59.299 Y36.383 E7.18475
G1 X59.265 Y36.744 E7.19774
G1 X59.237 Y36.873 E7.20245
G1 X59.090 Y37.269 E7.21755
G1 X59.326 Y37.642 F4800.000
;TYPE:External perimeter
G1 F1800.000
G1 X59.217 Y37.725 E7.22245
G1 X59.088 Y37.769 E7.22733
G1 X58.943 Y37.790 E7.23256
G1 X58.785 Y37.763 E7.23833
G1 X58.643 Y37.710 E7.24373
G1 X58.523 Y37.613 E7.24923
G1 X58.418 Y37.493 E7.25494
G1 X58.285 Y37.150 E7.26809
G1 X58.193 Y36.777 E7.28184
G1 X58.161 Y36.387 E7.29586
G1 X58.161 Y35.557 E7.32555
G1 X58.194 Y35.162 E7.33972
G1 X58.229 Y34.987 E7.34611
G1 X58.419 Y34.453 E7.36637
G1 X58.585 Y34.274 E7.37510
G1 X58.702 Y34.206 E7.37997
G1 X58.938 Y34.154 E7.38860
G1 X59.220 Y34.229 E7.39901
G1 X59.345 Y34.330 E7.40479
G1 X59.449 Y34.450 E7.41048
G1 X59.636 Y34.975 E7.43041
G1 X59.696 Y35.355 E7.44417
G1 X59.704 Y36.400 E7.48154
G1 X59.665 Y36.806 E7.49612
G1 X59.627 Y36.987 E7.50274
G1 X59.420 Y37.540 E7.52386
G1 X59.367 Y37.598 E7.52668
G1 X59.193 Y37.610 F4800.000
G1 X58.960 Y37.040
;TYPE:Gap fill
;WIDTH:0.323282
G1 F1800.000
G1 X58.931 Y36.656 E7.53613
G1 X58.930 Y35.266 E7.57026
;WIDTH:0.31729
G1 X58.932 Y35.181 E7.57231
;WIDTH:0.287412
G1 X58.961 Y34.870 E7.57899
G1 E0.57899 F2100.000
G92 E0
G1 Z0.513 F4800.000
G1 X64.679 Y36.881
G1 Z0.213
G1 E7.00000 F1800.000
;TYPE:External perimeter
;WIDTH:0.45
G1 X63.575 Y36.768 E7.03970
G1 X63.540 Y37.184 E7.05464
G1 X63.506 Y37.335 E7.06016
G1 X63.438 Y37.469 E7.06557
G1 X63.349 Y37.592 E7.07098
G1 X63.233 Y37.678 E7.07615
G1 X63.105 Y37.745 E7.08131
G1 X62.962 Y37.778 E7.08655
G1 X62.801 Y37.792 E7.09233
G1 X62.649 Y37.778 E7.09780
G1 X62.513 Y37.747 E7.10279
G1 X62.391 Y37.685 E7.10770
G1 X62.276 Y37.602 E7.11276
G1 X62.196 Y37.503 E7.11732
G1 X62.134 Y37.399 E7.12166
G1 X62.102 Y37.281 E7.12601
G1 X62.087 Y37.155 E7.13056
G1 X62.154 Y36.843 E7.14198
G1 X62.326 Y36.550 E7.15412
G1 X62.822 Y36.018 E7.18015
G1 X63.821 Y35.157 E7.22732
G1 X64.221 Y34.745 E7.24787
G1 X64.477 Y34.396 E7.26335
G1 X64.667 Y34.012 E7.27867
G1 X64.724 Y33.803 E7.28642
G1 X65.860 Y35.419 E7.35709
G1 X64.640 Y37.081 E7.43084
G1 X64.668 Y36.940 E7.43598
G1 X64.406 Y36.589 F4800.000
G1 X64.590 Y36.466
;TYPE:Perimeter
G1 F1800.000
G1 X63.207 Y36.323 E7.48574
G1 X63.140 Y37.123 E7.51442
G1 X63.123 Y37.196 E7.51713
G1 X63.058 Y37.304 E7.52162
G1 X62.963 Y37.363 E7.52561
G1 X62.899 Y37.378 E7.52797
G1 X62.712 Y37.378 E7.53465
G1 X62.603 Y37.339 E7.53881
G1 X62.509 Y37.239 E7.54369
G1 X62.495 Y37.161 E7.54652
G1 X62.532 Y36.992 E7.55274
G1 X62.648 Y36.796 E7.56086
G1 X63.099 Y36.313 E7.58451
G1 X64.098 Y35.451 E7.63171
G1 X64.526 Y35.011 E7.65367
G1 X64.809 Y34.627 E7.67074
G1 X65.362 Y35.414 E7.70516
G1 X64.626 Y36.417 E7.74967
G1 E0.74967 F2100.000
G92 E0
G1 Z0.513 F4800.000
G1 X67.626 Y35.388
G1 Z0.213
G1 E7.00000 F1800.000
G1 X68.057 Y34.775 E7.02680
G1 X67.976 Y35.166 E7.04108
G1 X67.943 Y35.838 E7.06515
G1 X67.661 Y35.437 E7.08270
G1 E0.08270 F2100.000
G92 E0
G1 Z0.513 F4800.000
G1 X62.126 Y34.725
G1 Z0.213
G1 E7.00000 F1800.000
G1 X61.788 Y35.022 E7.01609
G1 X61.295 Y35.511 E7.04093
G1 X61.184 Y35.644 E7.04713
G1 X61.177 Y35.384 E7.05645
G1 X61.081 Y34.725 E7.08026
G1 X62.066 Y34.725 E7.11550
G1 E0.11550 F2100.000
G92 E0
G1 Z0.513 F4800.000
G1 X64.074 Y36.006
G1 Z0.213
G1 E7.00000 F1800.000
G1 X64.375 Y35.746 E7.01424
G1 X64.797 Y35.313 E7.03586
G1 X64.864 Y35.409 E7.04006
G1 X64.401 Y36.040 E7.06804
G1 X64.133 Y36.012 E7.07768
G1 E0.07768 F2100.000
G92 E0
G1 Z0.513 F4800.000
G1 X66.489 Y33.063
G1 Z0.213
G1 E7.00000 F1800.000
G1 X66.145 Y32.539 E7.02242
G1 X66.838 Y32.539 E7.04722
G1 X66.523 Y33.013 E7.06757
G1 E0.06757 F2100.000
G92 E0
G1 Z0.513 F4800.000
G1 X66.970 Y37.757
G1 Z0.213
G1 E7.00000 F1800.000
G1 X66.481 Y36.997 E7.03232
G1 X65.944 Y37.757 E7.06559
G1 X64.911 Y37.757 E7.10258
G1 X64.748 Y38.125 E7.11697
G1 X64.347 Y38.636 E7.14020
G1 X63.791 Y38.969 E7.16339
G1 X63.372 Y39.102 E7.17910
G1 X62.785 Y39.158 E7.20020
G1 X62.188 Y39.096 E7.22169
G1 X61.761 Y38.950 E7.23783
G1 X61.216 Y38.596 E7.26108
G1 X60.846 Y38.117 E7.28271
G1 X60.800 Y38.008 E7.28695
G1 X60.700 Y38.198 E7.29462
G1 X60.491 Y38.466 E7.30680
G1 X60.236 Y38.727 E7.31985
G1 X59.927 Y38.919 E7.33286
G1 X59.606 Y39.062 E7.34541
G1 X59.266 Y39.131 E7.35786
G1 X58.926 Y39.158 E7.37004
G1 X58.428 Y39.107 E7.38793
G1 X57.931 Y38.926 E7.40686
G1 X57.514 Y38.627 E7.42521
G1 X57.198 Y38.246 E7.44292
G1 X56.958 Y37.781 E7.46164
G1 X56.802 Y37.300 E7.47972
G1 X56.698 Y36.632 E7.50391
G1 X56.678 Y36.285 E7.51635
G1 X56.682 Y35.586 E7.54135
G1 X56.714 Y35.166 E7.55643
G1 X56.879 Y34.368 E7.58558
G1 X57.007 Y34.051 E7.59779
G1 X57.164 Y33.752 E7.60986
G1 X57.372 Y33.483 E7.62204
G1 X57.627 Y33.221 E7.63510
G1 X57.937 Y33.029 E7.64816
G1 X58.268 Y32.880 E7.66114
G1 X58.698 Y32.807 E7.67675
G1 X58.944 Y32.788 E7.68558
G1 X59.383 Y32.837 E7.70135
G1 X59.828 Y32.964 E7.71791
G1 X60.218 Y33.217 E7.73455
G1 X60.593 Y33.579 E7.75320
G1 X60.593 Y32.876 E7.77835
G1 X65.883 Y32.876 E7.96758
G1 X66.488 Y33.795 E8.00693
G1 X67.099 Y32.876 E8.04641
G1 X69.391 Y32.876 E8.12840
G1 X69.324 Y32.973 E8.13262
G1 X69.530 Y32.880 E8.14071
G1 X69.960 Y32.807 E8.15631
G1 X70.206 Y32.788 E8.16515
G1 X70.644 Y32.837 E8.18092
G1 X71.090 Y32.964 E8.19748
G1 X71.480 Y33.217 E8.21411
G1 X71.842 Y33.555 E8.23184
G1 X72.146 Y34.156 E8.25593
G1 X72.267 Y34.456 E8.26752
G1 X72.359 Y34.784 E8.27969
G1 X72.439 Y35.384 E8.30134
G1 X72.456 Y35.978 E8.32260
G1 X72.417 Y36.773 E8.35107
G1 X72.248 Y37.583 E8.38068
G1 X72.119 Y37.899 E8.39290
G1 X71.962 Y38.198 E8.40496
G1 X71.753 Y38.466 E8.41714
G1 X71.498 Y38.727 E8.43019
G1 X71.189 Y38.919 E8.44320
G1 X70.868 Y39.062 E8.45575
G1 X70.527 Y39.131 E8.46820
G1 X70.188 Y39.158 E8.48038
G1 X69.690 Y39.107 E8.49827
G1 X69.193 Y38.926 E8.51720
G1 X68.776 Y38.627 E8.53555
G1 X68.460 Y38.246 E8.55326
G1 X68.213 Y37.757 E8.57286
G1 X67.030 Y37.757 E8.61516
G1 X67.191 Y37.353 F4800.000
;TYPE:External perimeter
G1 F1800.000
G1 X66.497 Y36.275 E8.66102
G1 X65.735 Y37.353 E8.70824
G1 X64.587 Y37.353 E8.74930
G1 X64.540 Y37.596 E8.75817
G1 X64.398 Y37.915 E8.77065
G1 X64.075 Y38.327 E8.78940
G1 X63.624 Y38.598 E8.80823
G1 X63.291 Y38.704 E8.82071
G1 X62.787 Y38.752 E8.83883
G1 X62.275 Y38.699 E8.85724
G1 X61.939 Y38.584 E8.86994
G1 X61.494 Y38.295 E8.88893
G1 X61.198 Y37.912 E8.90623
G1 X61.071 Y37.611 E8.91791
G1 X61.002 Y37.143 E8.93485
G1 X61.039 Y36.790 E8.94751
G1 X61.144 Y36.458 E8.95998
G1 X61.342 Y36.104 E8.97450
G1 X61.593 Y35.785 E8.98903
G1 X62.065 Y35.318 E9.01277
G1 X63.197 Y34.320 E9.06674
G1 X60.997 Y34.320 E9.14543
G1 X60.997 Y33.280 E9.18263
G1 X65.665 Y33.280 E9.34960
G1 X66.486 Y34.527 E9.40300
G1 X67.316 Y33.280 E9.45657
G1 X68.613 Y33.280 E9.50297
G1 X67.132 Y35.388 E9.59513
G1 X68.499 Y37.330 E9.68010
G1 X68.458 Y37.206 E9.68480
G1 X68.362 Y36.589 E9.70710
G1 X68.345 Y36.275 E9.71838
G1 X68.348 Y35.602 E9.74244
G1 X68.377 Y35.222 E9.75607
G1 X68.530 Y34.485 E9.78299
G1 X68.636 Y34.221 E9.79319
G1 X68.767 Y33.972 E9.80325
G1 X68.940 Y33.749 E9.81334
G1 X69.144 Y33.539 E9.82383
G1 X69.389 Y33.386 E9.83415
G1 X69.648 Y33.270 E9.84431
G1 X70.199 Y33.194 E9.86420
G1 X70.566 Y33.235 E9.87741
G1 X70.921 Y33.336 E9.89059
G1 X71.230 Y33.537 E9.90378
G1 X71.514 Y33.801 E9.91767
G1 X71.778 Y34.322 E9.93856
G1 X71.884 Y34.587 E9.94875
G1 X71.962 Y34.865 E9.95911
G1 X72.035 Y35.416 E9.97897
G1 X72.051 Y35.974 E9.99893
G1 X72.015 Y36.721 E10.02570
G1 X71.859 Y37.465 E10.05286
G1 X71.752 Y37.729 E10.06306
G1 X71.621 Y37.977 E10.07312
G1 X71.448 Y38.200 E10.08321
G1 X71.243 Y38.409 E10.09369
G1 X70.999 Y38.561 E10.10396
G1 X70.744 Y38.675 E10.11395
G1 X70.471 Y38.730 E10.12391
G1 X70.193 Y38.752 E10.13390
G1 X69.782 Y38.710 E10.14869
G1 X69.384 Y38.565 E10.16384
G1 X69.054 Y38.329 E10.17834
G1 X68.799 Y38.021 E10.19261
G1 X68.595 Y37.625 E10.20859
G1 X68.506 Y37.353 E10.21882
G1 X67.251 Y37.353 E10.26372
G1 X66.811 Y37.477 F4800.000
G1 E3.26372 F2100.000
G92 E0
G1 Z0.513 F4800.000
G1 X60.252 Y33.801
G1 Z0.213
G1 E7.00000 F1800.000
G1 X60.516 Y34.322 E7.02089
G1 X60.622 Y34.587 E7.03108
G1 X60.700 Y34.865 E7.04144
G1 X60.773 Y35.416 E7.06130
G1 X60.789 Y35.974 E7.08126
G1 X60.753 Y36.721 E7.10804
G1 X60.598 Y37.465 E7.13520
G1 X60.490 Y37.729 E7.14540
G1 X60.359 Y37.977 E7.15545
G1 X60.186 Y38.200 E7.16554
G1 X59.981 Y38.409 E7.17602
G1 X59.737 Y38.561 E7.18630
G1 X59.482 Y38.675 E7.19628
G1 X59.209 Y38.730 E7.20624
G1 X58.931 Y38.752 E7.21623
G1 X58.520 Y38.710 E7.23102
G1 X58.122 Y38.565 E7.24617
G1 X57.792 Y38.329 E7.26067
G1 X57.537 Y38.021 E7.27494
G1 X57.333 Y37.625 E7.29092
G1 X57.196 Y37.206 E7.30668
G1 X57.100 Y36.589 E7.32899
G1 X57.083 Y36.275 E7.34026
G1 X57.086 Y35.602 E7.36433
G1 X57.115 Y35.222 E7.37796
G1 X57.268 Y34.485 E7.40487
G1 X57.375 Y34.221 E7.41507
G1 X57.505 Y33.972 E7.42513
G1 X57.678 Y33.749 E7.43523
G1 X57.882 Y33.539 E7.44572
G1 X58.127 Y33.386 E7.45603
G1 X58.386 Y33.270 E7.46619
G1 X58.748 Y33.209 E7.47930
G1 X58.937 Y33.194 E7.48611
G1 X59.304 Y33.235 E7.49931
G1 X59.659 Y33.336 E7.51249
G1 X59.968 Y33.537 E7.52568
G1 X60.208 Y33.760 E7.53742
G1 X60.650 Y33.765 F4800.000
G1 E0.53742 F2100.000
G92 E0
G1 Z0.513 F4800.000
G1 X71.075 Y32.539
G1 Z0.213
G1 E7.00000 F1800.000
;TYPE:Perimeter
G1 X72.364 Y32.539 E7.04613
